P3
128 128
255
0 0 0
0 1 0
0 3 0
0 5 0
0 7 0
0 9 0
0 11 0
0 13 0
0 15 0
0 17 0
0 19 0
0 21 0
0 23 0
0 25 0
0 27 0
0 29 0
0 31 0
0 33 0
0 35 0
0 37 0
0 39 0
0 41 0
0 43 0
0 45 0
0 47 0
0 49 0
0 51 0
0 53 0
0 55 0
0 57 0
0 59 0
0 61 0
0 63 0
0 65 0
0 67 0
0 69 0
0 71 0
0 73 0
0 75 0
0 77 0
0 79 0
0 81 0
0 83 0
0 85 0
0 87 0
0 89 0
0 91 0
0 93 0
0 95 0
0 97 0
0 99 0
0 101 0
0 103 0
0 105 0
0 107 0
0 109 0
0 111 0
0 113 0
0 115 0
0 117 0
0 119 0
0 121 0
0 123 0
0 125 0
0 127 0
0 129 0
0 131 0
0 133 0
0 135 0
0 137 0
0 139 0
0 141 0
0 143 0
0 145 0
0 147 0
0 149 0
0 151 0
0 153 0
0 155 0
0 157 0
0 159 0
0 161 0
0 163 0
0 165 0
0 167 0
0 169 0
0 171 0
0 173 0
0 175 0
0 177 0
0 179 0
0 181 0
0 183 0
0 185 0
0 187 0
0 189 0
0 191 0
0 193 0
0 195 0
0 197 0
0 199 0
0 201 0
0 203 0
0 205 0
0 207 0
0 209 0
0 211 0
0 213 0
0 215 0
0 217 0
0 219 0
0 221 0
0 223 0
0 225 0
0 227 0
0 229 0
0 231 0
0 233 0
0 235 0
0 237 0
0 239 0
0 241 0
0 243 0
0 245 0
0 247 0
0 249 0
0 251 0
0 253 0
1 0 0
1 1 0
1 3 0
1 5 0
1 7 0
1 9 0
1 11 0
1 13 0
1 15 0
1 17 0
1 19 0
1 21 0
1 23 0
1 25 0
1 27 0
1 29 0
1 31 0
1 33 0
1 35 0
1 37 0
1 39 0
1 41 0
1 43 0
1 45 0
1 47 0
1 49 0
1 51 0
1 53 0
1 55 0
1 57 0
1 59 0
1 61 0
1 63 0
1 65 0
1 67 0
1 69 0
1 71 0
1 73 0
1 75 0
1 77 0
1 79 0
1 81 0
1 83 0
1 85 0
1 87 0
1 89 0
1 91 0
1 93 0
1 95 0
1 97 0
1 99 0
1 101 0
1 103 0
1 105 0
1 107 0
1 109 0
1 111 0
1 113 0
1 115 0
1 117 0
1 119 0
1 121 0
1 123 0
1 125 0
1 127 0
1 129 0
1 131 0
1 133 0
1 135 0
1 137 0
1 139 0
1 141 0
1 143 0
1 145 0
1 147 0
1 149 0
1 151 0
1 153 0
1 155 0
1 157 0
1 159 0
1 161 0
1 163 0
1 165 0
1 167 0
1 169 0
1 171 0
1 173 0
1 175 0
1 177 0
1 179 0
1 181 0
1 183 0
1 185 0
1 187 0
1 189 0
1 191 0
1 193 0
1 195 0
1 197 0
1 199 0
1 201 0
1 203 0
1 205 0
1 207 0
1 209 0
1 211 0
1 213 0
1 215 0
1 217 0
1 219 0
1 221 0
1 223 0
1 225 0
1 227 0
1 229 0
1 231 0
1 233 0
1 235 0
1 237 0
1 239 0
1 241 0
1 243 0
1 245 0
1 247 0
1 249 0
1 251 0
1 253 0
3 0 0
3 1 0
3 3 0
3 5 0
3 7 0
3 9 0
3 11 0
3 13 0
3 15 0
3 17 0
3 19 0
3 21 0
3 23 0
3 25 0
3 27 0
3 29 0
3 31 0
3 33 0
3 35 0
3 37 0
3 39 0
3 41 0
3 43 0
3 45 0
3 47 0
3 49 0
3 51 0
3 53 0
3 55 0
3 57 0
3 59 0
3 61 0
3 63 0
3 65 0
3 67 0
3 69 0
3 71 0
3 73 0
3 75 0
3 77 0
3 79 0
3 81 0
3 83 0
3 85 0
3 87 0
3 89 0
3 91 0
3 93 0
3 95 0
3 97 0
3 99 0
3 101 0
3 103 0
3 105 0
3 107 0
3 109 0
3 111 0
3 113 0
3 115 0
3 117 0
3 119 0
3 121 0
3 123 0
3 125 0
3 127 0
3 129 0
3 131 0
3 133 0
3 135 0
3 137 0
3 139 0
3 141 0
3 143 0
3 145 0
3 147 0
3 149 0
3 151 0
3 153 0
3 155 0
3 157 0
3 159 0
3 161 0
3 163 0
3 165 0
3 167 0
3 169 0
3 171 0
3 173 0
3 175 0
3 177 0
3 179 0
3 181 0
3 183 0
3 185 0
3 187 0
3 189 0
3 191 0
3 193 0
3 195 0
3 197 0
3 199 0
3 201 0
3 203 0
3 205 0
3 207 0
3 209 0
3 211 0
3 213 0
3 215 0
3 217 0
3 219 0
3 221 0
3 223 0
3 225 0
3 227 0
3 229 0
3 231 0
3 233 0
3 235 0
3 237 0
3 239 0
3 241 0
3 243 0
3 245 0
3 247 0
3 249 0
3 251 0
3 253 0
5 0 0
5 1 0
5 3 0
5 5 0
5 7 0
5 9 0
5 11 0
5 13 0
5 15 0
5 17 0
5 19 0
5 21 0
5 23 0
5 25 0
5 27 0
5 29 0
5 31 0
5 33 0
5 35 0
5 37 0
5 39 0
5 41 0
5 43 0
5 45 0
5 47 0
5 49 0
5 51 0
5 53 0
5 55 0
5 57 0
5 59 0
5 61 0
5 63 0
5 65 0
5 67 0
5 69 0
5 71 0
5 73 0
5 75 0
5 77 0
5 79 0
5 81 0
5 83 0
5 85 0
5 87 0
5 89 0
5 91 0
5 93 0
5 95 0
5 97 0
5 99 0
5 101 0
5 103 0
5 105 0
5 107 0
5 109 0
5 111 0
5 113 0
5 115 0
5 117 0
5 119 0
5 121 0
5 123 0
5 125 0
5 127 0
5 129 0
5 131 0
5 133 0
5 135 0
5 137 0
5 139 0
5 141 0
5 143 0
5 145 0
5 147 0
5 149 0
5 151 0
5 153 0
5 155 0
5 157 0
5 159 0
5 161 0
5 163 0
5 165 0
5 167 0
5 169 0
5 171 0
5 173 0
5 175 0
5 177 0
5 179 0
5 181 0
5 183 0
5 185 0
5 187 0
5 189 0
5 191 0
5 193 0
5 195 0
5 197 0
5 199 0
5 201 0
5 203 0
5 205 0
5 207 0
5 209 0
5 211 0
5 213 0
5 215 0
5 217 0
5 219 0
5 221 0
5 223 0
5 225 0
5 227 0
5 229 0
5 231 0
5 233 0
5 235 0
5 237 0
5 239 0
5 241 0
5 243 0
5 245 0
5 247 0
5 249 0
5 251 0
5 253 0
7 0 0
7 1 0
7 3 0
7 5 0
7 7 0
7 9 0
7 11 0
7 13 0
7 15 0
7 17 0
7 19 0
7 21 0
7 23 0
7 25 0
7 27 0
7 29 0
7 31 0
7 33 0
7 35 0
7 37 0
7 39 0
7 41 0
7 43 0
7 45 0
7 47 0
7 49 0
7 51 0
7 53 0
7 55 0
7 57 0
7 59 0
7 61 0
7 63 0
7 65 0
7 67 0
7 69 0
7 71 0
7 73 0
7 75 0
7 77 0
7 79 0
7 81 0
7 83 0
7 85 0
7 87 0
7 89 0
7 91 0
7 93 0
7 95 0
7 97 0
7 99 0
7 101 0
7 103 0
7 105 0
7 107 0
7 109 0
7 111 0
7 113 0
7 115 0
7 117 0
7 119 0
7 121 0
7 123 0
7 125 0
7 127 0
7 129 0
7 131 0
7 133 0
7 135 0
7 137 0
7 139 0
7 141 0
7 143 0
7 145 0
7 147 0
7 149 0
7 151 0
7 153 0
7 155 0
7 157 0
7 159 0
7 161 0
7 163 0
7 165 0
7 167 0
7 169 0
7 171 0
7 173 0
7 175 0
7 177 0
7 179 0
7 181 0
7 183 0
7 185 0
7 187 0
7 189 0
7 191 0
7 193 0
7 195 0
7 197 0
7 199 0
7 201 0
7 203 0
7 205 0
7 207 0
7 209 0
7 211 0
7 213 0
7 215 0
7 217 0
7 219 0
7 221 0
7 223 0
7 225 0
7 227 0
7 229 0
7 231 0
7 233 0
7 235 0
7 237 0
7 239 0
7 241 0
7 243 0
7 245 0
7 247 0
7 249 0
7 251 0
7 253 0
9 0 0
9 1 0
9 3 0
9 5 0
9 7 0
9 9 0
9 11 0
9 13 0
9 15 0
9 17 0
9 19 0
9 21 0
9 23 0
9 25 0
9 27 0
9 29 0
9 31 0
9 33 0
9 35 0
9 37 0
9 39 0
9 41 0
9 43 0
9 45 0
9 47 0
9 49 0
9 51 0
9 53 0
9 55 0
9 57 0
9 59 0
9 61 0
9 63 0
9 65 0
9 67 0
9 69 0
9 71 0
9 73 0
9 75 0
9 77 0
9 79 0
9 81 0
9 83 0
9 85 0
9 87 0
9 89 0
9 91 0
9 93 0
9 95 0
9 97 0
9 99 0
9 101 0
9 103 0
9 105 0
9 107 0
9 109 0
9 111 0
9 113 0
9 115 0
9 117 0
9 119 0
9 121 0
9 123 0
9 125 0
9 127 0
9 129 0
9 131 0
9 133 0
9 135 0
9 137 0
9 139 0
9 141 0
9 143 0
9 145 0
9 147 0
9 149 0
9 151 0
9 153 0
9 155 0
9 157 0
9 159 0
9 161 0
9 163 0
9 165 0
9 167 0
9 169 0
9 171 0
9 173 0
9 175 0
9 177 0
9 179 0
9 181 0
9 183 0
9 185 0
9 187 0
9 189 0
9 191 0
9 193 0
9 195 0
9 197 0
9 199 0
9 201 0
9 203 0
9 205 0
9 207 0
9 209 0
9 211 0
9 213 0
9 215 0
9 217 0
9 219 0
9 221 0
9 223 0
9 225 0
9 227 0
9 229 0
9 231 0
9 233 0
9 235 0
9 237 0
9 239 0
9 241 0
9 243 0
9 245 0
9 247 0
9 249 0
9 251 0
9 253 0
11 0 0
11 1 0
11 3 0
11 5 0
11 7 0
11 9 0
11 11 0
11 13 0
11 15 0
11 17 0
11 19 0
11 21 0
11 23 0
11 25 0
11 27 0
11 29 0
11 31 0
11 33 0
11 35 0
11 37 0
11 39 0
11 41 0
11 43 0
11 45 0
11 47 0
11 49 0
11 51 0
11 53 0
11 55 0
11 57 0
11 59 0
11 61 0
11 63 0
11 65 0
11 67 0
11 69 0
11 71 0
11 73 0
11 75 0
11 77 0
11 79 0
11 81 0
11 83 0
11 85 0
11 87 0
11 89 0
11 91 0
11 93 0
11 95 0
11 97 0
11 99 0
11 101 0
11 103 0
11 105 0
11 107 0
11 109 0
11 111 0
11 113 0
11 115 0
11 117 0
11 119 0
11 121 0
11 123 0
11 125 0
11 127 0
11 129 0
11 131 0
11 133 0
11 135 0
11 137 0
11 139 0
11 141 0
11 143 0
11 145 0
11 147 0
11 149 0
11 151 0
11 153 0
11 155 0
11 157 0
11 159 0
11 161 0
11 163 0
11 165 0
11 167 0
11 169 0
11 171 0
11 173 0
11 175 0
11 177 0
11 179 0
11 181 0
11 183 0
11 185 0
11 187 0
11 189 0
11 191 0
11 193 0
11 195 0
11 197 0
11 199 0
11 201 0
11 203 0
11 205 0
11 207 0
11 209 0
11 211 0
11 213 0
11 215 0
11 217 0
11 219 0
11 221 0
11 223 0
11 225 0
11 227 0
11 229 0
11 231 0
11 233 0
11 235 0
11 237 0
11 239 0
11 241 0
11 243 0
11 245 0
11 247 0
11 249 0
11 251 0
11 253 0
13 0 0
13 1 0
13 3 0
13 5 0
13 7 0
13 9 0
13 11 0
13 13 0
13 15 0
13 17 0
13 19 0
13 21 0
13 23 0
13 25 0
13 27 0
13 29 0
13 31 0
13 33 0
13 35 0
13 37 0
13 39 0
13 41 0
13 43 0
13 45 0
13 47 0
13 49 0
13 51 0
13 53 0
13 55 0
13 57 0
13 59 0
13 61 0
13 63 0
13 65 0
13 67 0
13 69 0
13 71 0
13 73 0
13 75 0
13 77 0
13 79 0
13 81 0
13 83 0
13 85 0
13 87 0
13 89 0
13 91 0
13 93 0
13 95 0
13 97 0
13 99 0
13 101 0
13 103 0
13 105 0
13 107 0
13 109 0
13 111 0
13 113 0
13 115 0
13 117 0
13 119 0
13 121 0
13 123 0
13 125 0
13 127 0
13 129 0
13 131 0
13 133 0
13 135 0
13 137 0
13 139 0
13 141 0
13 143 0
13 145 0
13 147 0
13 149 0
13 151 0
13 153 0
13 155 0
13 157 0
13 159 0
13 161 0
13 163 0
13 165 0
13 167 0
13 169 0
13 171 0
13 173 0
13 175 0
13 177 0
13 179 0
13 181 0
13 183 0
13 185 0
13 187 0
13 189 0
13 191 0
13 193 0
13 195 0
13 197 0
13 199 0
13 201 0
13 203 0
13 205 0
13 207 0
13 209 0
13 211 0
13 213 0
13 215 0
13 217 0
13 219 0
13 221 0
13 223 0
13 225 0
13 227 0
13 229 0
13 231 0
13 233 0
13 235 0
13 237 0
13 239 0
13 241 0
13 243 0
13 245 0
13 247 0
13 249 0
13 251 0
13 253 0
15 0 0
15 1 0
15 3 0
15 5 0
15 7 0
15 9 0
15 11 0
15 13 0
15 15 0
15 17 0
15 19 0
15 21 0
15 23 0
15 25 0
15 27 0
15 29 0
15 31 0
15 33 0
15 35 0
15 37 0
15 39 0
15 41 0
15 43 0
15 45 0
15 47 0
15 49 0
15 51 0
15 53 0
15 55 0
15 57 0
15 59 0
15 61 0
15 63 0
15 65 0
15 67 0
15 69 0
15 71 0
15 73 0
15 75 0
15 77 0
15 79 0
15 81 0
15 83 0
15 85 0
15 87 0
15 89 0
15 91 0
15 93 0
15 95 0
15 97 0
15 99 0
15 101 0
15 103 0
15 105 0
15 107 0
15 109 0
15 111 0
15 113 0
15 115 0
15 117 0
15 119 0
15 121 0
15 123 0
15 125 0
15 127 0
15 129 0
15 131 0
15 133 0
15 135 0
15 137 0
15 139 0
15 141 0
15 143 0
15 145 0
15 147 0
15 149 0
15 151 0
15 153 0
15 155 0
15 157 0
15 159 0
15 161 0
15 163 0
15 165 0
15 167 0
15 169 0
15 171 0
15 173 0
15 175 0
15 177 0
15 179 0
15 181 0
15 183 0
15 185 0
15 187 0
15 189 0
15 191 0
15 193 0
15 195 0
15 197 0
15 199 0
15 201 0
15 203 0
15 205 0
15 207 0
15 209 0
15 211 0
15 213 0
15 215 0
15 217 0
15 219 0
15 221 0
15 223 0
15 225 0
15 227 0
15 229 0
15 231 0
15 233 0
15 235 0
15 237 0
15 239 0
15 241 0
15 243 0
15 245 0
15 247 0
15 249 0
15 251 0
15 253 0
17 0 0
17 1 0
17 3 0
17 5 0
17 7 0
17 9 0
17 11 0
17 13 0
17 15 0
17 17 0
17 19 0
17 21 0
17 23 0
17 25 0
17 27 0
17 29 0
17 31 0
17 33 0
17 35 0
17 37 0
17 39 0
17 41 0
17 43 0
17 45 0
17 47 0
17 49 0
17 51 0
17 53 0
17 55 0
17 57 0
17 59 0
17 61 0
17 63 0
17 65 0
17 67 0
17 69 0
17 71 0
17 73 0
17 75 0
17 77 0
17 79 0
17 81 0
17 83 0
17 85 0
17 87 0
17 89 0
17 91 0
17 93 0
17 95 0
17 97 0
17 99 0
17 101 0
17 103 0
17 105 0
17 107 0
17 109 0
17 111 0
17 113 0
17 115 0
17 117 0
17 119 0
17 121 0
17 123 0
17 125 0
17 127 0
17 129 0
17 131 0
17 133 0
17 135 0
17 137 0
17 139 0
17 141 0
17 143 0
17 145 0
17 147 0
17 149 0
17 151 0
17 153 0
17 155 0
17 157 0
17 159 0
17 161 0
17 163 0
17 165 0
17 167 0
17 169 0
17 171 0
17 173 0
17 175 0
17 177 0
17 179 0
17 181 0
17 183 0
17 185 0
17 187 0
17 189 0
17 191 0
17 193 0
17 195 0
17 197 0
17 199 0
17 201 0
17 203 0
17 205 0
17 207 0
17 209 0
17 211 0
17 213 0
17 215 0
17 217 0
17 219 0
17 221 0
17 223 0
17 225 0
17 227 0
17 229 0
17 231 0
17 233 0
17 235 0
17 237 0
17 239 0
17 241 0
17 243 0
17 245 0
17 247 0
17 249 0
17 251 0
17 253 0
19 0 0
19 1 0
19 3 0
19 5 0
19 7 0
19 9 0
19 11 0
19 13 0
19 15 0
19 17 0
19 19 0
19 21 0
19 23 0
19 25 0
19 27 0
19 29 0
19 31 0
19 33 0
19 35 0
19 37 0
19 39 0
19 41 0
19 43 0
19 45 0
19 47 0
19 49 0
19 51 0
19 53 0
19 55 0
19 57 0
19 59 0
19 61 0
19 63 0
19 65 0
19 67 0
19 69 0
19 71 0
19 73 0
19 75 0
19 77 0
19 79 0
19 81 0
19 83 0
19 85 0
19 87 0
19 89 0
19 91 0
19 93 0
19 95 0
19 97 0
19 99 0
19 101 0
19 103 0
19 105 0
19 107 0
19 109 0
19 111 0
19 113 0
19 115 0
19 117 0
19 119 0
19 121 0
19 123 0
19 125 0
19 127 0
19 129 0
19 131 0
19 133 0
19 135 0
19 137 0
19 139 0
19 141 0
19 143 0
19 145 0
19 147 0
19 149 0
19 151 0
19 153 0
19 155 0
19 157 0
19 159 0
19 161 0
19 163 0
19 165 0
19 167 0
19 169 0
19 171 0
19 173 0
19 175 0
19 177 0
19 179 0
19 181 0
19 183 0
19 185 0
19 187 0
19 189 0
19 191 0
19 193 0
19 195 0
19 197 0
19 199 0
19 201 0
19 203 0
19 205 0
19 207 0
19 209 0
19 211 0
19 213 0
19 215 0
19 217 0
19 219 0
19 221 0
19 223 0
19 225 0
19 227 0
19 229 0
19 231 0
19 233 0
19 235 0
19 237 0
19 239 0
19 241 0
19 243 0
19 245 0
19 247 0
19 249 0
19 251 0
19 253 0
21 0 0
21 1 0
21 3 0
21 5 0
21 7 0
21 9 0
21 11 0
21 13 0
21 15 0
21 17 0
21 19 0
21 21 0
21 23 0
21 25 0
21 27 0
21 29 0
21 31 0
21 33 0
21 35 0
21 37 0
21 39 0
21 41 0
21 43 0
21 45 0
21 47 0
21 49 0
21 51 0
21 53 0
21 55 0
21 57 0
21 59 0
21 61 0
21 63 0
21 65 0
21 67 0
21 69 0
21 71 0
21 73 0
21 75 0
21 77 0
21 79 0
21 81 0
21 83 0
21 85 0
21 87 0
21 89 0
21 91 0
21 93 0
21 95 0
21 97 0
21 99 0
21 101 0
21 103 0
21 105 0
21 107 0
21 109 0
21 111 0
21 113 0
21 115 0
21 117 0
21 119 0
21 121 0
21 123 0
21 125 0
21 127 0
21 129 0
21 131 0
21 133 0
21 135 0
21 137 0
21 139 0
21 141 0
21 143 0
21 145 0
21 147 0
21 149 0
21 151 0
21 153 0
21 155 0
21 157 0
21 159 0
21 161 0
21 163 0
21 165 0
21 167 0
21 169 0
21 171 0
21 173 0
21 175 0
21 177 0
21 179 0
21 181 0
21 183 0
21 185 0
21 187 0
21 189 0
21 191 0
21 193 0
21 195 0
21 197 0
21 199 0
21 201 0
21 203 0
21 205 0
21 207 0
21 209 0
21 211 0
21 213 0
21 215 0
21 217 0
21 219 0
21 221 0
21 223 0
21 225 0
21 227 0
21 229 0
21 231 0
21 233 0
21 235 0
21 237 0
21 239 0
21 241 0
21 243 0
21 245 0
21 247 0
21 249 0
21 251 0
21 253 0
23 0 0
23 1 0
23 3 0
23 5 0
23 7 0
23 9 0
23 11 0
23 13 0
23 15 0
23 17 0
23 19 0
23 21 0
23 23 0
23 25 0
23 27 0
23 29 0
23 31 0
23 33 0
23 35 0
23 37 0
23 39 0
23 41 0
23 43 0
23 45 0
23 47 0
23 49 0
23 51 0
23 53 0
23 55 0
23 57 0
23 59 0
23 61 0
23 63 0
23 65 0
23 67 0
23 69 0
23 71 0
23 73 0
23 75 0
23 77 0
23 79 0
23 81 0
23 83 0
23 85 0
23 87 0
23 89 0
23 91 0
23 93 0
23 95 0
23 97 0
23 99 0
23 101 0
23 103 0
23 105 0
23 107 0
23 109 0
23 111 0
23 113 0
23 115 0
23 117 0
23 119 0
23 121 0
23 123 0
23 125 0
23 127 0
23 129 0
23 131 0
23 133 0
23 135 0
23 137 0
23 139 0
23 141 0
23 143 0
23 145 0
23 147 0
23 149 0
23 151 0
23 153 0
23 155 0
23 157 0
23 159 0
23 161 0
23 163 0
23 165 0
23 167 0
23 169 0
23 171 0
23 173 0
23 175 0
23 177 0
23 179 0
23 181 0
23 183 0
23 185 0
23 187 0
23 189 0
23 191 0
23 193 0
23 195 0
23 197 0
23 199 0
23 201 0
23 203 0
23 205 0
23 207 0
23 209 0
23 211 0
23 213 0
23 215 0
23 217 0
23 219 0
23 221 0
23 223 0
23 225 0
23 227 0
23 229 0
23 231 0
23 233 0
23 235 0
23 237 0
23 239 0
23 241 0
23 243 0
23 245 0
23 247 0
23 249 0
23 251 0
23 253 0
25 0 0
25 1 0
25 3 0
25 5 0
25 7 0
25 9 0
25 11 0
25 13 0
25 15 0
25 17 0
25 19 0
25 21 0
25 23 0
25 25 0
25 27 0
25 29 0
25 31 0
25 33 0
25 35 0
25 37 0
25 39 0
25 41 0
25 43 0
25 45 0
25 47 0
25 49 0
25 51 0
25 53 0
25 55 0
25 57 0
25 59 0
25 61 0
25 63 0
25 65 0
25 67 0
25 69 0
25 71 0
25 73 0
25 75 0
25 77 0
25 79 0
25 81 0
25 83 0
25 85 0
25 87 0
25 89 0
25 91 0
25 93 0
25 95 0
25 97 0
25 99 0
25 101 0
25 103 0
25 105 0
25 107 0
25 109 0
25 111 0
25 113 0
25 115 0
25 117 0
25 119 0
25 121 0
25 123 0
25 125 0
25 127 0
25 129 0
25 131 0
25 133 0
25 135 0
25 137 0
25 139 0
25 141 0
25 143 0
25 145 0
25 147 0
25 149 0
25 151 0
25 153 0
25 155 0
25 157 0
25 159 0
25 161 0
25 163 0
25 165 0
25 167 0
25 169 0
25 171 0
25 173 0
25 175 0
25 177 0
25 179 0
25 181 0
25 183 0
25 185 0
25 187 0
25 189 0
25 191 0
25 193 0
25 195 0
25 197 0
25 199 0
25 201 0
25 203 0
25 205 0
25 207 0
25 209 0
25 211 0
25 213 0
25 215 0
25 217 0
25 219 0
25 221 0
25 223 0
25 225 0
25 227 0
25 229 0
25 231 0
25 233 0
25 235 0
25 237 0
25 239 0
25 241 0
25 243 0
25 245 0
25 247 0
25 249 0
25 251 0
25 253 0
27 0 0
27 1 0
27 3 0
27 5 0
27 7 0
27 9 0
27 11 0
27 13 0
27 15 0
27 17 0
27 19 0
27 21 0
27 23 0
27 25 0
27 27 0
27 29 0
27 31 0
27 33 0
27 35 0
27 37 0
27 39 0
27 41 0
27 43 0
27 45 0
27 47 0
27 49 0
27 51 0
27 53 0
27 55 0
27 57 0
27 59 0
27 61 0
27 63 0
27 65 0
27 67 0
27 69 0
27 71 0
27 73 0
27 75 0
27 77 0
27 79 0
27 81 0
27 83 0
27 85 0
27 87 0
27 89 0
27 91 0
27 93 0
27 95 0
27 97 0
27 99 0
27 101 0
27 103 0
27 105 0
27 107 0
27 109 0
27 111 0
27 113 0
27 115 0
27 117 0
27 119 0
27 121 0
27 123 0
27 125 0
27 127 0
27 129 0
27 131 0
27 133 0
27 135 0
27 137 0
27 139 0
27 141 0
27 143 0
27 145 0
27 147 0
27 149 0
27 151 0
27 153 0
27 155 0
27 157 0
27 159 0
27 161 0
27 163 0
27 165 0
27 167 0
27 169 0
27 171 0
27 173 0
27 175 0
27 177 0
27 179 0
27 181 0
27 183 0
27 185 0
27 187 0
27 189 0
27 191 0
27 193 0
27 195 0
27 197 0
27 199 0
27 201 0
27 203 0
27 205 0
27 207 0
27 209 0
27 211 0
27 213 0
27 215 0
27 217 0
27 219 0
27 221 0
27 223 0
27 225 0
27 227 0
27 229 0
27 231 0
27 233 0
27 235 0
27 237 0
27 239 0
27 241 0
27 243 0
27 245 0
27 247 0
27 249 0
27 251 0
27 253 0
29 0 0
29 1 0
29 3 0
29 5 0
29 7 0
29 9 0
29 11 0
29 13 0
29 15 0
29 17 0
29 19 0
29 21 0
29 23 0
29 25 0
29 27 0
29 29 0
29 31 0
29 33 0
29 35 0
29 37 0
29 39 0
29 41 0
29 43 0
29 45 0
29 47 0
29 49 0
29 51 0
29 53 0
29 55 0
29 57 0
29 59 0
29 61 0
29 63 0
29 65 0
29 67 0
29 69 0
29 71 0
29 73 0
29 75 0
29 77 0
29 79 0
29 81 0
29 83 0
29 85 0
29 87 0
29 89 0
29 91 0
29 93 0
29 95 0
29 97 0
29 99 0
29 101 0
29 103 0
29 105 0
29 107 0
29 109 0
29 111 0
29 113 0
29 115 0
29 117 0
29 119 0
29 121 0
29 123 0
29 125 0
29 127 0
29 129 0
29 131 0
29 133 0
29 135 0
29 137 0
29 139 0
29 141 0
29 143 0
29 145 0
29 147 0
29 149 0
29 151 0
29 153 0
29 155 0
29 157 0
29 159 0
29 161 0
29 163 0
29 165 0
29 167 0
29 169 0
29 171 0
29 173 0
29 175 0
29 177 0
29 179 0
29 181 0
29 183 0
29 185 0
29 187 0
29 189 0
29 191 0
29 193 0
29 195 0
29 197 0
29 199 0
29 201 0
29 203 0
29 205 0
29 207 0
29 209 0
29 211 0
29 213 0
29 215 0
29 217 0
29 219 0
29 221 0
29 223 0
29 225 0
29 227 0
29 229 0
29 231 0
29 233 0
29 235 0
29 237 0
29 239 0
29 241 0
29 243 0
29 245 0
29 247 0
29 249 0
29 251 0
29 253 0
31 0 0
31 1 0
31 3 0
31 5 0
31 7 0
31 9 0
31 11 0
31 13 0
31 15 0
31 17 0
31 19 0
31 21 0
31 23 0
31 25 0
31 27 0
31 29 0
31 31 0
31 33 0
31 35 0
31 37 0
31 39 0
31 41 0
31 43 0
31 45 0
31 47 0
31 49 0
31 51 0
31 53 0
31 55 0
31 57 0
31 59 0
31 61 0
31 63 0
31 65 0
31 67 0
31 69 0
31 71 0
31 73 0
31 75 0
31 77 0
31 79 0
31 81 0
31 83 0
31 85 0
31 87 0
31 89 0
31 91 0
31 93 0
31 95 0
31 97 0
31 99 0
31 101 0
31 103 0
31 105 0
31 107 0
31 109 0
31 111 0
31 113 0
31 115 0
31 117 0
31 119 0
31 121 0
31 123 0
31 125 0
31 127 0
31 129 0
31 131 0
31 133 0
31 135 0
31 137 0
31 139 0
31 141 0
31 143 0
31 145 0
31 147 0
31 149 0
31 151 0
31 153 0
31 155 0
31 157 0
31 159 0
31 161 0
31 163 0
31 165 0
31 167 0
31 169 0
31 171 0
31 173 0
31 175 0
31 177 0
31 179 0
31 181 0
31 183 0
31 185 0
31 187 0
31 189 0
31 191 0
31 193 0
31 195 0
31 197 0
31 199 0
31 201 0
31 203 0
31 205 0
31 207 0
31 209 0
31 211 0
31 213 0
31 215 0
31 217 0
31 219 0
31 221 0
31 223 0
31 225 0
31 227 0
31 229 0
31 231 0
31 233 0
31 235 0
31 237 0
31 239 0
31 241 0
31 243 0
31 245 0
31 247 0
31 249 0
31 251 0
31 253 0
33 0 0
33 1 0
33 3 0
33 5 0
33 7 0
33 9 0
33 11 0
33 13 0
33 15 0
33 17 0
33 19 0
33 21 0
33 23 0
33 25 0
33 27 0
33 29 0
33 31 0
33 33 0
33 35 0
33 37 0
33 39 0
33 41 0
33 43 0
33 45 0
33 47 0
33 49 0
33 51 0
33 53 0
33 55 0
33 57 0
33 59 0
33 61 0
33 63 0
33 65 0
33 67 0
33 69 0
33 71 0
33 73 0
33 75 0
33 77 0
33 79 0
33 81 0
33 83 0
33 85 0
33 87 0
33 89 0
33 91 0
33 93 0
33 95 0
33 97 0
33 99 0
33 101 0
33 103 0
33 105 0
33 107 0
33 109 0
33 111 0
33 113 0
33 115 0
33 117 0
33 119 0
33 121 0
33 123 0
33 125 0
33 127 0
33 129 0
33 131 0
33 133 0
33 135 0
33 137 0
33 139 0
33 141 0
33 143 0
33 145 0
33 147 0
33 149 0
33 151 0
33 153 0
33 155 0
33 157 0
33 159 0
33 161 0
33 163 0
33 165 0
33 167 0
33 169 0
33 171 0
33 173 0
33 175 0
33 177 0
33 179 0
33 181 0
33 183 0
33 185 0
33 187 0
33 189 0
33 191 0
33 193 0
33 195 0
33 197 0
33 199 0
33 201 0
33 203 0
33 205 0
33 207 0
33 209 0
33 211 0
33 213 0
33 215 0
33 217 0
33 219 0
33 221 0
33 223 0
33 225 0
33 227 0
33 229 0
33 231 0
33 233 0
33 235 0
33 237 0
33 239 0
33 241 0
33 243 0
33 245 0
33 247 0
33 249 0
33 251 0
33 253 0
35 0 0
35 1 0
35 3 0
35 5 0
35 7 0
35 9 0
35 11 0
35 13 0
35 15 0
35 17 0
35 19 0
35 21 0
35 23 0
35 25 0
35 27 0
35 29 0
35 31 0
35 33 0
35 35 0
35 37 0
35 39 0
35 41 0
35 43 0
35 45 0
35 47 0
35 49 0
35 51 0
35 53 0
35 55 0
35 57 0
35 59 0
35 61 0
35 63 0
35 65 0
35 67 0
35 69 0
35 71 0
35 73 0
35 75 0
35 77 0
35 79 0
35 81 0
35 83 0
35 85 0
35 87 0
35 89 0
35 91 0
35 93 0
35 95 0
35 97 0
35 99 0
35 101 0
35 103 0
35 105 0
35 107 0
35 109 0
35 111 0
35 113 0
35 115 0
35 117 0
35 119 0
35 121 0
35 123 0
35 125 0
35 127 0
35 129 0
35 131 0
35 133 0
35 135 0
35 137 0
35 139 0
35 141 0
35 143 0
35 145 0
35 147 0
35 149 0
35 151 0
35 153 0
35 155 0
35 157 0
35 159 0
35 161 0
35 163 0
35 165 0
35 167 0
35 169 0
35 171 0
35 173 0
35 175 0
35 177 0
35 179 0
35 181 0
35 183 0
35 185 0
35 187 0
35 189 0
35 191 0
35 193 0
35 195 0
35 197 0
35 199 0
35 201 0
35 203 0
35 205 0
35 207 0
35 209 0
35 211 0
35 213 0
35 215 0
35 217 0
35 219 0
35 221 0
35 223 0
35 225 0
35 227 0
35 229 0
35 231 0
35 233 0
35 235 0
35 237 0
35 239 0
35 241 0
35 243 0
35 245 0
35 247 0
35 249 0
35 251 0
35 253 0
37 0 0
37 1 0
37 3 0
37 5 0
37 7 0
37 9 0
37 11 0
37 13 0
37 15 0
37 17 0
37 19 0
37 21 0
37 23 0
37 25 0
37 27 0
37 29 0
37 31 0
37 33 0
37 35 0
37 37 0
37 39 0
37 41 0
37 43 0
37 45 0
37 47 0
37 49 0
37 51 0
37 53 0
37 55 0
37 57 0
37 59 0
37 61 0
37 63 0
37 65 0
37 67 0
37 69 0
37 71 0
37 73 0
37 75 0
37 77 0
37 79 0
37 81 0
37 83 0
37 85 0
37 87 0
37 89 0
37 91 0
37 93 0
37 95 0
37 97 0
37 99 0
37 101 0
37 103 0
37 105 0
37 107 0
37 109 0
37 111 0
37 113 0
37 115 0
37 117 0
37 119 0
37 121 0
37 123 0
37 125 0
37 127 0
37 129 0
37 131 0
37 133 0
37 135 0
37 137 0
37 139 0
37 141 0
37 143 0
37 145 0
37 147 0
37 149 0
37 151 0
37 153 0
37 155 0
37 157 0
37 159 0
37 161 0
37 163 0
37 165 0
37 167 0
37 169 0
37 171 0
37 173 0
37 175 0
37 177 0
37 179 0
37 181 0
37 183 0
37 185 0
37 187 0
37 189 0
37 191 0
37 193 0
37 195 0
37 197 0
37 199 0
37 201 0
37 203 0
37 205 0
37 207 0
37 209 0
37 211 0
37 213 0
37 215 0
37 217 0
37 219 0
37 221 0
37 223 0
37 225 0
37 227 0
37 229 0
37 231 0
37 233 0
37 235 0
37 237 0
37 239 0
37 241 0
37 243 0
37 245 0
37 247 0
37 249 0
37 251 0
37 253 0
39 0 0
39 1 0
39 3 0
39 5 0
39 7 0
39 9 0
39 11 0
39 13 0
39 15 0
39 17 0
39 19 0
39 21 0
39 23 0
39 25 0
39 27 0
39 29 0
39 31 0
39 33 0
39 35 0
39 37 0
39 39 0
39 41 0
39 43 0
39 45 0
39 47 0
39 49 0
39 51 0
39 53 0
39 55 0
39 57 0
39 59 0
39 61 0
39 63 0
39 65 0
39 67 0
39 69 0
39 71 0
39 73 0
39 75 0
39 77 0
39 79 0
39 81 0
39 83 0
39 85 0
39 87 0
39 89 0
39 91 0
39 93 0
39 95 0
39 97 0
39 99 0
39 101 0
39 103 0
39 105 0
39 107 0
39 109 0
39 111 0
39 113 0
39 115 0
39 117 0
39 119 0
39 121 0
39 123 0
39 125 0
39 127 0
39 129 0
39 131 0
39 133 0
39 135 0
39 137 0
39 139 0
39 141 0
39 143 0
39 145 0
39 147 0
39 149 0
39 151 0
39 153 0
39 155 0
39 157 0
39 159 0
39 161 0
39 163 0
39 165 0
39 167 0
39 169 0
39 171 0
39 173 0
39 175 0
39 177 0
39 179 0
39 181 0
39 183 0
39 185 0
39 187 0
39 189 0
39 191 0
39 193 0
39 195 0
39 197 0
39 199 0
39 201 0
39 203 0
39 205 0
39 207 0
39 209 0
39 211 0
39 213 0
39 215 0
39 217 0
39 219 0
39 221 0
39 223 0
39 225 0
39 227 0
39 229 0
39 231 0
39 233 0
39 235 0
39 237 0
39 239 0
39 241 0
39 243 0
39 245 0
39 247 0
39 249 0
39 251 0
39 253 0
41 0 0
41 1 0
41 3 0
41 5 0
41 7 0
41 9 0
41 11 0
41 13 0
41 15 0
41 17 0
41 19 0
41 21 0
41 23 0
41 25 0
41 27 0
41 29 0
41 31 0
41 33 0
41 35 0
41 37 0
41 39 0
41 41 0
41 43 0
41 45 0
41 47 0
41 49 0
41 51 0
41 53 0
41 55 0
41 57 0
41 59 0
41 61 0
41 63 0
41 65 0
41 67 0
41 69 0
41 71 0
41 73 0
41 75 0
41 77 0
41 79 0
41 81 0
41 83 0
41 85 0
41 87 0
41 89 0
41 91 0
41 93 0
41 95 0
41 97 0
41 99 0
41 101 0
41 103 0
41 105 0
41 107 0
41 109 0
41 111 0
41 113 0
41 115 0
41 117 0
41 119 0
41 121 0
41 123 0
41 125 0
41 127 0
41 129 0
41 131 0
41 133 0
41 135 0
41 137 0
41 139 0
41 141 0
41 143 0
41 145 0
41 147 0
41 149 0
41 151 0
41 153 0
41 155 0
41 157 0
41 159 0
41 161 0
41 163 0
41 165 0
41 167 0
41 169 0
41 171 0
41 173 0
41 175 0
41 177 0
41 179 0
41 181 0
41 183 0
41 185 0
41 187 0
41 189 0
41 191 0
41 193 0
41 195 0
41 197 0
41 199 0
41 201 0
41 203 0
41 205 0
41 207 0
41 209 0
41 211 0
41 213 0
41 215 0
41 217 0
41 219 0
41 221 0
41 223 0
41 225 0
41 227 0
41 229 0
41 231 0
41 233 0
41 235 0
41 237 0
41 239 0
41 241 0
41 243 0
41 245 0
41 247 0
41 249 0
41 251 0
41 253 0
43 0 0
43 1 0
43 3 0
43 5 0
43 7 0
43 9 0
43 11 0
43 13 0
43 15 0
43 17 0
43 19 0
43 21 0
43 23 0
43 25 0
43 27 0
43 29 0
43 31 0
43 33 0
43 35 0
43 37 0
43 39 0
43 41 0
43 43 0
43 45 0
43 47 0
43 49 0
43 51 0
43 53 0
43 55 0
43 57 0
43 59 0
43 61 0
43 63 0
43 65 0
43 67 0
43 69 0
43 71 0
43 73 0
43 75 0
43 77 0
43 79 0
43 81 0
43 83 0
43 85 0
43 87 0
43 89 0
43 91 0
43 93 0
43 95 0
43 97 0
43 99 0
43 101 0
43 103 0
43 105 0
43 107 0
43 109 0
43 111 0
43 113 0
43 115 0
43 117 0
43 119 0
43 121 0
43 123 0
43 125 0
43 127 0
43 129 0
43 131 0
43 133 0
43 135 0
43 137 0
43 139 0
43 141 0
43 143 0
43 145 0
43 147 0
43 149 0
43 151 0
43 153 0
43 155 0
43 157 0
43 159 0
43 161 0
43 163 0
43 165 0
43 167 0
43 169 0
43 171 0
43 173 0
43 175 0
43 177 0
43 179 0
43 181 0
43 183 0
43 185 0
43 187 0
43 189 0
43 191 0
43 193 0
43 195 0
43 197 0
43 199 0
43 201 0
43 203 0
43 205 0
43 207 0
43 209 0
43 211 0
43 213 0
43 215 0
43 217 0
43 219 0
43 221 0
43 223 0
43 225 0
43 227 0
43 229 0
43 231 0
43 233 0
43 235 0
43 237 0
43 239 0
43 241 0
43 243 0
43 245 0
43 247 0
43 249 0
43 251 0
43 253 0
45 0 0
45 1 0
45 3 0
45 5 0
45 7 0
45 9 0
45 11 0
45 13 0
45 15 0
45 17 0
45 19 0
45 21 0
45 23 0
45 25 0
45 27 0
45 29 0
45 31 0
45 33 0
45 35 0
45 37 0
45 39 0
45 41 0
45 43 0
45 45 0
45 47 0
45 49 0
45 51 0
45 53 0
45 55 0
45 57 0
45 59 0
45 61 0
45 63 0
45 65 0
45 67 0
45 69 0
45 71 0
45 73 0
45 75 0
45 77 0
45 79 0
45 81 0
45 83 0
45 85 0
45 87 0
45 89 0
45 91 0
45 93 0
45 95 0
45 97 0
45 99 0
45 101 0
45 103 0
45 105 0
45 107 0
45 109 0
45 111 0
45 113 0
45 115 0
45 117 0
45 119 0
45 121 0
45 123 0
45 125 0
45 127 0
45 129 0
45 131 0
45 133 0
45 135 0
45 137 0
45 139 0
45 141 0
45 143 0
45 145 0
45 147 0
45 149 0
45 151 0
45 153 0
45 155 0
45 157 0
45 159 0
45 161 0
45 163 0
45 165 0
45 167 0
45 169 0
45 171 0
45 173 0
45 175 0
45 177 0
45 179 0
45 181 0
45 183 0
45 185 0
45 187 0
45 189 0
45 191 0
45 193 0
45 195 0
45 197 0
45 199 0
45 201 0
45 203 0
45 205 0
45 207 0
45 209 0
45 211 0
45 213 0
45 215 0
45 217 0
45 219 0
45 221 0
45 223 0
45 225 0
45 227 0
45 229 0
45 231 0
45 233 0
45 235 0
45 237 0
45 239 0
45 241 0
45 243 0
45 245 0
45 247 0
45 249 0
45 251 0
45 253 0
47 0 0
47 1 0
47 3 0
47 5 0
47 7 0
47 9 0
47 11 0
47 13 0
47 15 0
47 17 0
47 19 0
47 21 0
47 23 0
47 25 0
47 27 0
47 29 0
47 31 0
47 33 0
47 35 0
47 37 0
47 39 0
47 41 0
47 43 0
47 45 0
47 47 0
47 49 0
47 51 0
47 53 0
47 55 0
47 57 0
47 59 0
47 61 0
47 63 0
47 65 0
47 67 0
47 69 0
47 71 0
47 73 0
47 75 0
47 77 0
47 79 0
47 81 0
47 83 0
47 85 0
47 87 0
47 89 0
47 91 0
47 93 0
47 95 0
47 97 0
47 99 0
47 101 0
47 103 0
47 105 0
47 107 0
47 109 0
47 111 0
47 113 0
47 115 0
47 117 0
47 119 0
47 121 0
47 123 0
47 125 0
47 127 0
47 129 0
47 131 0
47 133 0
47 135 0
47 137 0
47 139 0
47 141 0
47 143 0
47 145 0
47 147 0
47 149 0
47 151 0
47 153 0
47 155 0
47 157 0
47 159 0
47 161 0
47 163 0
47 165 0
47 167 0
47 169 0
47 171 0
47 173 0
47 175 0
47 177 0
47 179 0
47 181 0
47 183 0
47 185 0
47 187 0
47 189 0
47 191 0
47 193 0
47 195 0
47 197 0
47 199 0
47 201 0
47 203 0
47 205 0
47 207 0
47 209 0
47 211 0
47 213 0
47 215 0
47 217 0
47 219 0
47 221 0
47 223 0
47 225 0
47 227 0
47 229 0
47 231 0
47 233 0
47 235 0
47 237 0
47 239 0
47 241 0
47 243 0
47 245 0
47 247 0
47 249 0
47 251 0
47 253 0
49 0 0
49 1 0
49 3 0
49 5 0
49 7 0
49 9 0
49 11 0
49 13 0
49 15 0
49 17 0
49 19 0
49 21 0
49 23 0
49 25 0
49 27 0
49 29 0
49 31 0
49 33 0
49 35 0
49 37 0
49 39 0
49 41 0
49 43 0
49 45 0
49 47 0
49 49 0
49 51 0
49 53 0
49 55 0
49 57 0
49 59 0
49 61 0
49 63 0
49 65 0
49 67 0
49 69 0
49 71 0
49 73 0
49 75 0
49 77 0
49 79 0
49 81 0
49 83 0
49 85 0
49 87 0
49 89 0
49 91 0
49 93 0
49 95 0
49 97 0
49 99 0
49 101 0
49 103 0
49 105 0
49 107 0
49 109 0
49 111 0
49 113 0
49 115 0
49 117 0
49 119 0
49 121 0
49 123 0
49 125 0
49 127 0
49 129 0
49 131 0
49 133 0
49 135 0
49 137 0
49 139 0
49 141 0
49 143 0
49 145 0
49 147 0
49 149 0
49 151 0
49 153 0
49 155 0
49 157 0
49 159 0
49 161 0
49 163 0
49 165 0
49 167 0
49 169 0
49 171 0
49 173 0
49 175 0
49 177 0
49 179 0
49 181 0
49 183 0
49 185 0
49 187 0
49 189 0
49 191 0
49 193 0
49 195 0
49 197 0
49 199 0
49 201 0
49 203 0
49 205 0
49 207 0
49 209 0
49 211 0
49 213 0
49 215 0
49 217 0
49 219 0
49 221 0
49 223 0
49 225 0
49 227 0
49 229 0
49 231 0
49 233 0
49 235 0
49 237 0
49 239 0
49 241 0
49 243 0
49 245 0
49 247 0
49 249 0
49 251 0
49 253 0
51 0 0
51 1 0
51 3 0
51 5 0
51 7 0
51 9 0
51 11 0
51 13 0
51 15 0
51 17 0
51 19 0
51 21 0
51 23 0
51 25 0
51 27 0
51 29 0
51 31 0
51 33 0
51 35 0
51 37 0
51 39 0
51 41 0
51 43 0
51 45 0
51 47 0
51 49 0
51 51 0
51 53 0
51 55 0
51 57 0
51 59 0
51 61 0
51 63 0
51 65 0
51 67 0
51 69 0
51 71 0
51 73 0
51 75 0
51 77 0
51 79 0
51 81 0
51 83 0
51 85 0
51 87 0
51 89 0
51 91 0
51 93 0
51 95 0
51 97 0
51 99 0
51 101 0
51 103 0
51 105 0
51 107 0
51 109 0
51 111 0
51 113 0
51 115 0
51 117 0
51 119 0
51 121 0
51 123 0
51 125 0
51 127 0
51 129 0
51 131 0
51 133 0
51 135 0
51 137 0
51 139 0
51 141 0
51 143 0
51 145 0
51 147 0
51 149 0
51 151 0
51 153 0
51 155 0
51 157 0
51 159 0
51 161 0
51 163 0
51 165 0
51 167 0
51 169 0
51 171 0
51 173 0
51 175 0
51 177 0
51 179 0
51 181 0
51 183 0
51 185 0
51 187 0
51 189 0
51 191 0
51 193 0
51 195 0
51 197 0
51 199 0
51 201 0
51 203 0
51 205 0
51 207 0
51 209 0
51 211 0
51 213 0
51 215 0
51 217 0
51 219 0
51 221 0
51 223 0
51 225 0
51 227 0
51 229 0
51 231 0
51 233 0
51 235 0
51 237 0
51 239 0
51 241 0
51 243 0
51 245 0
51 247 0
51 249 0
51 251 0
51 253 0
53 0 0
53 1 0
53 3 0
53 5 0
53 7 0
53 9 0
53 11 0
53 13 0
53 15 0
53 17 0
53 19 0
53 21 0
53 23 0
53 25 0
53 27 0
53 29 0
53 31 0
53 33 0
53 35 0
53 37 0
53 39 0
53 41 0
53 43 0
53 45 0
53 47 0
53 49 0
53 51 0
53 53 0
53 55 0
53 57 0
53 59 0
53 61 0
53 63 0
53 65 0
53 67 0
53 69 0
53 71 0
53 73 0
53 75 0
53 77 0
53 79 0
53 81 0
53 83 0
53 85 0
53 87 0
53 89 0
53 91 0
53 93 0
53 95 0
53 97 0
53 99 0
53 101 0
53 103 0
53 105 0
53 107 0
53 109 0
53 111 0
53 113 0
53 115 0
53 117 0
53 119 0
53 121 0
53 123 0
53 125 0
53 127 0
53 129 0
53 131 0
53 133 0
53 135 0
53 137 0
53 139 0
53 141 0
53 143 0
53 145 0
53 147 0
53 149 0
53 151 0
53 153 0
53 155 0
53 157 0
53 159 0
53 161 0
53 163 0
53 165 0
53 167 0
53 169 0
53 171 0
53 173 0
53 175 0
53 177 0
53 179 0
53 181 0
53 183 0
53 185 0
53 187 0
53 189 0
53 191 0
53 193 0
53 195 0
53 197 0
53 199 0
53 201 0
53 203 0
53 205 0
53 207 0
53 209 0
53 211 0
53 213 0
53 215 0
53 217 0
53 219 0
53 221 0
53 223 0
53 225 0
53 227 0
53 229 0
53 231 0
53 233 0
53 235 0
53 237 0
53 239 0
53 241 0
53 243 0
53 245 0
53 247 0
53 249 0
53 251 0
53 253 0
55 0 0
55 1 0
55 3 0
55 5 0
55 7 0
55 9 0
55 11 0
55 13 0
55 15 0
55 17 0
55 19 0
55 21 0
55 23 0
55 25 0
55 27 0
55 29 0
55 31 0
55 33 0
55 35 0
55 37 0
55 39 0
55 41 0
55 43 0
55 45 0
55 47 0
55 49 0
55 51 0
55 53 0
55 55 0
55 57 0
55 59 0
55 61 0
55 63 0
55 65 0
55 67 0
55 69 0
55 71 0
55 73 0
55 75 0
55 77 0
55 79 0
55 81 0
55 83 0
55 85 0
55 87 0
55 89 0
55 91 0
55 93 0
55 95 0
55 97 0
55 99 0
55 101 0
55 103 0
55 105 0
55 107 0
55 109 0
55 111 0
55 113 0
55 115 0
55 117 0
55 119 0
55 121 0
55 123 0
55 125 0
55 127 0
55 129 0
55 131 0
55 133 0
55 135 0
55 137 0
55 139 0
55 141 0
55 143 0
55 145 0
55 147 0
55 149 0
55 151 0
55 153 0
55 155 0
55 157 0
55 159 0
55 161 0
55 163 0
55 165 0
55 167 0
55 169 0
55 171 0
55 173 0
55 175 0
55 177 0
55 179 0
55 181 0
55 183 0
55 185 0
55 187 0
55 189 0
55 191 0
55 193 0
55 195 0
55 197 0
55 199 0
55 201 0
55 203 0
55 205 0
55 207 0
55 209 0
55 211 0
55 213 0
55 215 0
55 217 0
55 219 0
55 221 0
55 223 0
55 225 0
55 227 0
55 229 0
55 231 0
55 233 0
55 235 0
55 237 0
55 239 0
55 241 0
55 243 0
55 245 0
55 247 0
55 249 0
55 251 0
55 253 0
57 0 0
57 1 0
57 3 0
57 5 0
57 7 0
57 9 0
57 11 0
57 13 0
57 15 0
57 17 0
57 19 0
57 21 0
57 23 0
57 25 0
57 27 0
57 29 0
57 31 0
57 33 0
57 35 0
57 37 0
57 39 0
57 41 0
57 43 0
57 45 0
57 47 0
57 49 0
57 51 0
57 53 0
57 55 0
57 57 0
57 59 0
57 61 0
57 63 0
57 65 0
57 67 0
57 69 0
57 71 0
57 73 0
57 75 0
57 77 0
57 79 0
57 81 0
57 83 0
57 85 0
57 87 0
57 89 0
57 91 0
57 93 0
57 95 0
57 97 0
57 99 0
57 101 0
57 103 0
57 105 0
57 107 0
57 109 0
57 111 0
57 113 0
57 115 0
57 117 0
57 119 0
57 121 0
57 123 0
57 125 0
57 127 0
57 129 0
57 131 0
57 133 0
57 135 0
57 137 0
57 139 0
57 141 0
57 143 0
57 145 0
57 147 0
57 149 0
57 151 0
57 153 0
57 155 0
57 157 0
57 159 0
57 161 0
57 163 0
57 165 0
57 167 0
57 169 0
57 171 0
57 173 0
57 175 0
57 177 0
57 179 0
57 181 0
57 183 0
57 185 0
57 187 0
57 189 0
57 191 0
57 193 0
57 195 0
57 197 0
57 199 0
57 201 0
57 203 0
57 205 0
57 207 0
57 209 0
57 211 0
57 213 0
57 215 0
57 217 0
57 219 0
57 221 0
57 223 0
57 225 0
57 227 0
57 229 0
57 231 0
57 233 0
57 235 0
57 237 0
57 239 0
57 241 0
57 243 0
57 245 0
57 247 0
57 249 0
57 251 0
57 253 0
59 0 0
59 1 0
59 3 0
59 5 0
59 7 0
59 9 0
59 11 0
59 13 0
59 15 0
59 17 0
59 19 0
59 21 0
59 23 0
59 25 0
59 27 0
59 29 0
59 31 0
59 33 0
59 35 0
59 37 0
59 39 0
59 41 0
59 43 0
59 45 0
59 47 0
59 49 0
59 51 0
59 53 0
59 55 0
59 57 0
59 59 0
59 61 0
59 63 0
59 65 0
59 67 0
59 69 0
59 71 0
59 73 0
59 75 0
59 77 0
59 79 0
59 81 0
59 83 0
59 85 0
59 87 0
59 89 0
59 91 0
59 93 0
59 95 0
59 97 0
59 99 0
59 101 0
59 103 0
59 105 0
59 107 0
59 109 0
59 111 0
59 113 0
59 115 0
59 117 0
59 119 0
59 121 0
59 123 0
59 125 0
59 127 0
59 129 0
59 131 0
59 133 0
59 135 0
59 137 0
59 139 0
59 141 0
59 143 0
59 145 0
59 147 0
59 149 0
59 151 0
59 153 0
59 155 0
59 157 0
59 159 0
59 161 0
59 163 0
59 165 0
59 167 0
59 169 0
59 171 0
59 173 0
59 175 0
59 177 0
59 179 0
59 181 0
59 183 0
59 185 0
59 187 0
59 189 0
59 191 0
59 193 0
59 195 0
59 197 0
59 199 0
59 201 0
59 203 0
59 205 0
59 207 0
59 209 0
59 211 0
59 213 0
59 215 0
59 217 0
59 219 0
59 221 0
59 223 0
59 225 0
59 227 0
59 229 0
59 231 0
59 233 0
59 235 0
59 237 0
59 239 0
59 241 0
59 243 0
59 245 0
59 247 0
59 249 0
59 251 0
59 253 0
61 0 0
61 1 0
61 3 0
61 5 0
61 7 0
61 9 0
61 11 0
61 13 0
61 15 0
61 17 0
61 19 0
61 21 0
61 23 0
61 25 0
61 27 0
61 29 0
61 31 0
61 33 0
61 35 0
61 37 0
61 39 0
61 41 0
61 43 0
61 45 0
61 47 0
61 49 0
61 51 0
61 53 0
61 55 0
61 57 0
61 59 0
61 61 0
61 63 0
61 65 0
61 67 0
61 69 0
61 71 0
61 73 0
61 75 0
61 77 0
61 79 0
61 81 0
61 83 0
61 85 0
61 87 0
61 89 0
61 91 0
61 93 0
61 95 0
61 97 0
61 99 0
61 101 0
61 103 0
61 105 0
61 107 0
61 109 0
61 111 0
61 113 0
61 115 0
61 117 0
61 119 0
61 121 0
61 123 0
61 125 0
61 127 0
61 129 0
61 131 0
61 133 0
61 135 0
61 137 0
61 139 0
61 141 0
61 143 0
61 145 0
61 147 0
61 149 0
61 151 0
61 153 0
61 155 0
61 157 0
61 159 0
61 161 0
61 163 0
61 165 0
61 167 0
61 169 0
61 171 0
61 173 0
61 175 0
61 177 0
61 179 0
61 181 0
61 183 0
61 185 0
61 187 0
61 189 0
61 191 0
61 193 0
61 195 0
61 197 0
61 199 0
61 201 0
61 203 0
61 205 0
61 207 0
61 209 0
61 211 0
61 213 0
61 215 0
61 217 0
61 219 0
61 221 0
61 223 0
61 225 0
61 227 0
61 229 0
61 231 0
61 233 0
61 235 0
61 237 0
61 239 0
61 241 0
61 243 0
61 245 0
61 247 0
61 249 0
61 251 0
61 253 0
63 0 0
63 1 0
63 3 0
63 5 0
63 7 0
63 9 0
63 11 0
63 13 0
63 15 0
63 17 0
63 19 0
63 21 0
63 23 0
63 25 0
63 27 0
63 29 0
63 31 0
63 33 0
63 35 0
63 37 0
63 39 0
63 41 0
63 43 0
63 45 0
63 47 0
63 49 0
63 51 0
63 53 0
63 55 0
63 57 0
63 59 0
63 61 0
63 63 0
63 65 0
63 67 0
63 69 0
63 71 0
63 73 0
63 75 0
63 77 0
63 79 0
63 81 0
63 83 0
63 85 0
63 87 0
63 89 0
63 91 0
63 93 0
63 95 0
63 97 0
63 99 0
63 101 0
63 103 0
63 105 0
63 107 0
63 109 0
63 111 0
63 113 0
63 115 0
63 117 0
63 119 0
63 121 0
63 123 0
63 125 0
63 127 0
63 129 0
63 131 0
63 133 0
63 135 0
63 137 0
63 139 0
63 141 0
63 143 0
63 145 0
63 147 0
63 149 0
63 151 0
63 153 0
63 155 0
63 157 0
63 159 0
63 161 0
63 163 0
63 165 0
63 167 0
63 169 0
63 171 0
63 173 0
63 175 0
63 177 0
63 179 0
63 181 0
63 183 0
63 185 0
63 187 0
63 189 0
63 191 0
63 193 0
63 195 0
63 197 0
63 199 0
63 201 0
63 203 0
63 205 0
63 207 0
63 209 0
63 211 0
63 213 0
63 215 0
63 217 0
63 219 0
63 221 0
63 223 0
63 225 0
63 227 0
63 229 0
63 231 0
63 233 0
63 235 0
63 237 0
63 239 0
63 241 0
63 243 0
63 245 0
63 247 0
63 249 0
63 251 0
63 253 0
65 0 0
65 1 0
65 3 0
65 5 0
65 7 0
65 9 0
65 11 0
65 13 0
65 15 0
65 17 0
65 19 0
65 21 0
65 23 0
65 25 0
65 27 0
65 29 0
65 31 0
65 33 0
65 35 0
65 37 0
65 39 0
65 41 0
65 43 0
65 45 0
65 47 0
65 49 0
65 51 0
65 53 0
65 55 0
65 57 0
65 59 0
65 61 0
65 63 0
65 65 0
65 67 0
65 69 0
65 71 0
65 73 0
65 75 0
65 77 0
65 79 0
65 81 0
65 83 0
65 85 0
65 87 0
65 89 0
65 91 0
65 93 0
65 95 0
65 97 0
65 99 0
65 101 0
65 103 0
65 105 0
65 107 0
65 109 0
65 111 0
65 113 0
65 115 0
65 117 0
65 119 0
65 121 0
65 123 0
65 125 0
65 127 0
65 129 0
65 131 0
65 133 0
65 135 0
65 137 0
65 139 0
65 141 0
65 143 0
65 145 0
65 147 0
65 149 0
65 151 0
65 153 0
65 155 0
65 157 0
65 159 0
65 161 0
65 163 0
65 165 0
65 167 0
65 169 0
65 171 0
65 173 0
65 175 0
65 177 0
65 179 0
65 181 0
65 183 0
65 185 0
65 187 0
65 189 0
65 191 0
65 193 0
65 195 0
65 197 0
65 199 0
65 201 0
65 203 0
65 205 0
65 207 0
65 209 0
65 211 0
65 213 0
65 215 0
65 217 0
65 219 0
65 221 0
65 223 0
65 225 0
65 227 0
65 229 0
65 231 0
65 233 0
65 235 0
65 237 0
65 239 0
65 241 0
65 243 0
65 245 0
65 247 0
65 249 0
65 251 0
65 253 0
67 0 0
67 1 0
67 3 0
67 5 0
67 7 0
67 9 0
67 11 0
67 13 0
67 15 0
67 17 0
67 19 0
67 21 0
67 23 0
67 25 0
67 27 0
67 29 0
67 31 0
67 33 0
67 35 0
67 37 0
67 39 0
67 41 0
67 43 0
67 45 0
67 47 0
67 49 0
67 51 0
67 53 0
67 55 0
67 57 0
67 59 0
67 61 0
67 63 0
67 65 0
67 67 0
67 69 0
67 71 0
67 73 0
67 75 0
67 77 0
67 79 0
67 81 0
67 83 0
67 85 0
67 87 0
67 89 0
67 91 0
67 93 0
67 95 0
67 97 0
67 99 0
67 101 0
67 103 0
67 105 0
67 107 0
67 109 0
67 111 0
67 113 0
67 115 0
67 117 0
67 119 0
67 121 0
67 123 0
67 125 0
67 127 0
67 129 0
67 131 0
67 133 0
67 135 0
67 137 0
67 139 0
67 141 0
67 143 0
67 145 0
67 147 0
67 149 0
67 151 0
67 153 0
67 155 0
67 157 0
67 159 0
67 161 0
67 163 0
67 165 0
67 167 0
67 169 0
67 171 0
67 173 0
67 175 0
67 177 0
67 179 0
67 181 0
67 183 0
67 185 0
67 187 0
67 189 0
67 191 0
67 193 0
67 195 0
67 197 0
67 199 0
67 201 0
67 203 0
67 205 0
67 207 0
67 209 0
67 211 0
67 213 0
67 215 0
67 217 0
67 219 0
67 221 0
67 223 0
67 225 0
67 227 0
67 229 0
67 231 0
67 233 0
67 235 0
67 237 0
67 239 0
67 241 0
67 243 0
67 245 0
67 247 0
67 249 0
67 251 0
67 253 0
69 0 0
69 1 0
69 3 0
69 5 0
69 7 0
69 9 0
69 11 0
69 13 0
69 15 0
69 17 0
69 19 0
69 21 0
69 23 0
69 25 0
69 27 0
69 29 0
69 31 0
69 33 0
69 35 0
69 37 0
69 39 0
69 41 0
69 43 0
69 45 0
69 47 0
69 49 0
69 51 0
69 53 0
69 55 0
69 57 0
69 59 0
69 61 0
69 63 0
69 65 0
69 67 0
69 69 0
69 71 0
69 73 0
69 75 0
69 77 0
69 79 0
69 81 0
69 83 0
69 85 0
69 87 0
69 89 0
69 91 0
69 93 0
69 95 0
69 97 0
69 99 0
69 101 0
69 103 0
69 105 0
69 107 0
69 109 0
69 111 0
69 113 0
69 115 0
69 117 0
69 119 0
69 121 0
69 123 0
69 125 0
69 127 0
69 129 0
69 131 0
69 133 0
69 135 0
69 137 0
69 139 0
69 141 0
69 143 0
69 145 0
69 147 0
69 149 0
69 151 0
69 153 0
69 155 0
69 157 0
69 159 0
69 161 0
69 163 0
69 165 0
69 167 0
69 169 0
69 171 0
69 173 0
69 175 0
69 177 0
69 179 0
69 181 0
69 183 0
69 185 0
69 187 0
69 189 0
69 191 0
69 193 0
69 195 0
69 197 0
69 199 0
69 201 0
69 203 0
69 205 0
69 207 0
69 209 0
69 211 0
69 213 0
69 215 0
69 217 0
69 219 0
69 221 0
69 223 0
69 225 0
69 227 0
69 229 0
69 231 0
69 233 0
69 235 0
69 237 0
69 239 0
69 241 0
69 243 0
69 245 0
69 247 0
69 249 0
69 251 0
69 253 0
71 0 0
71 1 0
71 3 0
71 5 0
71 7 0
71 9 0
71 11 0
71 13 0
71 15 0
71 17 0
71 19 0
71 21 0
71 23 0
71 25 0
71 27 0
71 29 0
71 31 0
71 33 0
71 35 0
71 37 0
71 39 0
71 41 0
71 43 0
71 45 0
71 47 0
71 49 0
71 51 0
71 53 0
71 55 0
71 57 0
71 59 0
71 61 0
71 63 0
71 65 0
71 67 0
71 69 0
71 71 0
71 73 0
71 75 0
71 77 0
71 79 0
71 81 0
71 83 0
71 85 0
71 87 0
71 89 0
71 91 0
71 93 0
71 95 0
71 97 0
71 99 0
71 101 0
71 103 0
71 105 0
71 107 0
71 109 0
71 111 0
71 113 0
71 115 0
71 117 0
71 119 0
71 121 0
71 123 0
71 125 0
71 127 0
71 129 0
71 131 0
71 133 0
71 135 0
71 137 0
71 139 0
71 141 0
71 143 0
71 145 0
71 147 0
71 149 0
71 151 0
71 153 0
71 155 0
71 157 0
71 159 0
71 161 0
71 163 0
71 165 0
71 167 0
71 169 0
71 171 0
71 173 0
71 175 0
71 177 0
71 179 0
71 181 0
71 183 0
71 185 0
71 187 0
71 189 0
71 191 0
71 193 0
71 195 0
71 197 0
71 199 0
71 201 0
71 203 0
71 205 0
71 207 0
71 209 0
71 211 0
71 213 0
71 215 0
71 217 0
71 219 0
71 221 0
71 223 0
71 225 0
71 227 0
71 229 0
71 231 0
71 233 0
71 235 0
71 237 0
71 239 0
71 241 0
71 243 0
71 245 0
71 247 0
71 249 0
71 251 0
71 253 0
73 0 0
73 1 0
73 3 0
73 5 0
73 7 0
73 9 0
73 11 0
73 13 0
73 15 0
73 17 0
73 19 0
73 21 0
73 23 0
73 25 0
73 27 0
73 29 0
73 31 0
73 33 0
73 35 0
73 37 0
73 39 0
73 41 0
73 43 0
73 45 0
73 47 0
73 49 0
73 51 0
73 53 0
73 55 0
73 57 0
73 59 0
73 61 0
73 63 0
73 65 0
73 67 0
73 69 0
73 71 0
73 73 0
73 75 0
73 77 0
73 79 0
73 81 0
73 83 0
73 85 0
73 87 0
73 89 0
73 91 0
73 93 0
73 95 0
73 97 0
73 99 0
73 101 0
73 103 0
73 105 0
73 107 0
73 109 0
73 111 0
73 113 0
73 115 0
73 117 0
73 119 0
73 121 0
73 123 0
73 125 0
73 127 0
73 129 0
73 131 0
73 133 0
73 135 0
73 137 0
73 139 0
73 141 0
73 143 0
73 145 0
73 147 0
73 149 0
73 151 0
73 153 0
73 155 0
73 157 0
73 159 0
73 161 0
73 163 0
73 165 0
73 167 0
73 169 0
73 171 0
73 173 0
73 175 0
73 177 0
73 179 0
73 181 0
73 183 0
73 185 0
73 187 0
73 189 0
73 191 0
73 193 0
73 195 0
73 197 0
73 199 0
73 201 0
73 203 0
73 205 0
73 207 0
73 209 0
73 211 0
73 213 0
73 215 0
73 217 0
73 219 0
73 221 0
73 223 0
73 225 0
73 227 0
73 229 0
73 231 0
73 233 0
73 235 0
73 237 0
73 239 0
73 241 0
73 243 0
73 245 0
73 247 0
73 249 0
73 251 0
73 253 0
75 0 0
75 1 0
75 3 0
75 5 0
75 7 0
75 9 0
75 11 0
75 13 0
75 15 0
75 17 0
75 19 0
75 21 0
75 23 0
75 25 0
75 27 0
75 29 0
75 31 0
75 33 0
75 35 0
75 37 0
75 39 0
75 41 0
75 43 0
75 45 0
75 47 0
75 49 0
75 51 0
75 53 0
75 55 0
75 57 0
75 59 0
75 61 0
75 63 0
75 65 0
75 67 0
75 69 0
75 71 0
75 73 0
75 75 0
75 77 0
75 79 0
75 81 0
75 83 0
75 85 0
75 87 0
75 89 0
75 91 0
75 93 0
75 95 0
75 97 0
75 99 0
75 101 0
75 103 0
75 105 0
75 107 0
75 109 0
75 111 0
75 113 0
75 115 0
75 117 0
75 119 0
75 121 0
75 123 0
75 125 0
75 127 0
75 129 0
75 131 0
75 133 0
75 135 0
75 137 0
75 139 0
75 141 0
75 143 0
75 145 0
75 147 0
75 149 0
75 151 0
75 153 0
75 155 0
75 157 0
75 159 0
75 161 0
75 163 0
75 165 0
75 167 0
75 169 0
75 171 0
75 173 0
75 175 0
75 177 0
75 179 0
75 181 0
75 183 0
75 185 0
75 187 0
75 189 0
75 191 0
75 193 0
75 195 0
75 197 0
75 199 0
75 201 0
75 203 0
75 205 0
75 207 0
75 209 0
75 211 0
75 213 0
75 215 0
75 217 0
75 219 0
75 221 0
75 223 0
75 225 0
75 227 0
75 229 0
75 231 0
75 233 0
75 235 0
75 237 0
75 239 0
75 241 0
75 243 0
75 245 0
75 247 0
75 249 0
75 251 0
75 253 0
77 0 0
77 1 0
77 3 0
77 5 0
77 7 0
77 9 0
77 11 0
77 13 0
77 15 0
77 17 0
77 19 0
77 21 0
77 23 0
77 25 0
77 27 0
77 29 0
77 31 0
77 33 0
77 35 0
77 37 0
77 39 0
77 41 0
77 43 0
77 45 0
77 47 0
77 49 0
77 51 0
77 53 0
77 55 0
77 57 0
77 59 0
77 61 0
77 63 0
77 65 0
77 67 0
77 69 0
77 71 0
77 73 0
77 75 0
77 77 0
77 79 0
77 81 0
77 83 0
77 85 0
77 87 0
77 89 0
77 91 0
77 93 0
77 95 0
77 97 0
77 99 0
77 101 0
77 103 0
77 105 0
77 107 0
77 109 0
77 111 0
77 113 0
77 115 0
77 117 0
77 119 0
77 121 0
77 123 0
77 125 0
77 127 0
77 129 0
77 131 0
77 133 0
77 135 0
77 137 0
77 139 0
77 141 0
77 143 0
77 145 0
77 147 0
77 149 0
77 151 0
77 153 0
77 155 0
77 157 0
77 159 0
77 161 0
77 163 0
77 165 0
77 167 0
77 169 0
77 171 0
77 173 0
77 175 0
77 177 0
77 179 0
77 181 0
77 183 0
77 185 0
77 187 0
77 189 0
77 191 0
77 193 0
77 195 0
77 197 0
77 199 0
77 201 0
77 203 0
77 205 0
77 207 0
77 209 0
77 211 0
77 213 0
77 215 0
77 217 0
77 219 0
77 221 0
77 223 0
77 225 0
77 227 0
77 229 0
77 231 0
77 233 0
77 235 0
77 237 0
77 239 0
77 241 0
77 243 0
77 245 0
77 247 0
77 249 0
77 251 0
77 253 0
79 0 0
79 1 0
79 3 0
79 5 0
79 7 0
79 9 0
79 11 0
79 13 0
79 15 0
79 17 0
79 19 0
79 21 0
79 23 0
79 25 0
79 27 0
79 29 0
79 31 0
79 33 0
79 35 0
79 37 0
79 39 0
79 41 0
79 43 0
79 45 0
79 47 0
79 49 0
79 51 0
79 53 0
79 55 0
79 57 0
79 59 0
79 61 0
79 63 0
79 65 0
79 67 0
79 69 0
79 71 0
79 73 0
79 75 0
79 77 0
79 79 0
79 81 0
79 83 0
79 85 0
79 87 0
79 89 0
79 91 0
79 93 0
79 95 0
79 97 0
79 99 0
79 101 0
79 103 0
79 105 0
79 107 0
79 109 0
79 111 0
79 113 0
79 115 0
79 117 0
79 119 0
79 121 0
79 123 0
79 125 0
79 127 0
79 129 0
79 131 0
79 133 0
79 135 0
79 137 0
79 139 0
79 141 0
79 143 0
79 145 0
79 147 0
79 149 0
79 151 0
79 153 0
79 155 0
79 157 0
79 159 0
79 161 0
79 163 0
79 165 0
79 167 0
79 169 0
79 171 0
79 173 0
79 175 0
79 177 0
79 179 0
79 181 0
79 183 0
79 185 0
79 187 0
79 189 0
79 191 0
79 193 0
79 195 0
79 197 0
79 199 0
79 201 0
79 203 0
79 205 0
79 207 0
79 209 0
79 211 0
79 213 0
79 215 0
79 217 0
79 219 0
79 221 0
79 223 0
79 225 0
79 227 0
79 229 0
79 231 0
79 233 0
79 235 0
79 237 0
79 239 0
79 241 0
79 243 0
79 245 0
79 247 0
79 249 0
79 251 0
79 253 0
81 0 0
81 1 0
81 3 0
81 5 0
81 7 0
81 9 0
81 11 0
81 13 0
81 15 0
81 17 0
81 19 0
81 21 0
81 23 0
81 25 0
81 27 0
81 29 0
81 31 0
81 33 0
81 35 0
81 37 0
81 39 0
81 41 0
81 43 0
81 45 0
81 47 0
81 49 0
81 51 0
81 53 0
81 55 0
81 57 0
81 59 0
81 61 0
81 63 0
81 65 0
81 67 0
81 69 0
81 71 0
81 73 0
81 75 0
81 77 0
81 79 0
81 81 0
81 83 0
81 85 0
81 87 0
81 89 0
81 91 0
81 93 0
81 95 0
81 97 0
81 99 0
81 101 0
81 103 0
81 105 0
81 107 0
81 109 0
81 111 0
81 113 0
81 115 0
81 117 0
81 119 0
81 121 0
81 123 0
81 125 0
81 127 0
81 129 0
81 131 0
81 133 0
81 135 0
81 137 0
81 139 0
81 141 0
81 143 0
81 145 0
81 147 0
81 149 0
81 151 0
81 153 0
81 155 0
81 157 0
81 159 0
81 161 0
81 163 0
81 165 0
81 167 0
81 169 0
81 171 0
81 173 0
81 175 0
81 177 0
81 179 0
81 181 0
81 183 0
81 185 0
81 187 0
81 189 0
81 191 0
81 193 0
81 195 0
81 197 0
81 199 0
81 201 0
81 203 0
81 205 0
81 207 0
81 209 0
81 211 0
81 213 0
81 215 0
81 217 0
81 219 0
81 221 0
81 223 0
81 225 0
81 227 0
81 229 0
81 231 0
81 233 0
81 235 0
81 237 0
81 239 0
81 241 0
81 243 0
81 245 0
81 247 0
81 249 0
81 251 0
81 253 0
83 0 0
83 1 0
83 3 0
83 5 0
83 7 0
83 9 0
83 11 0
83 13 0
83 15 0
83 17 0
83 19 0
83 21 0
83 23 0
83 25 0
83 27 0
83 29 0
83 31 0
83 33 0
83 35 0
83 37 0
83 39 0
83 41 0
83 43 0
83 45 0
83 47 0
83 49 0
83 51 0
83 53 0
83 55 0
83 57 0
83 59 0
83 61 0
83 63 0
83 65 0
83 67 0
83 69 0
83 71 0
83 73 0
83 75 0
83 77 0
83 79 0
83 81 0
83 83 0
83 85 0
83 87 0
83 89 0
83 91 0
83 93 0
83 95 0
83 97 0
83 99 0
83 101 0
83 103 0
83 105 0
83 107 0
83 109 0
83 111 0
83 113 0
83 115 0
83 117 0
83 119 0
83 121 0
83 123 0
83 125 0
83 127 0
83 129 0
83 131 0
83 133 0
83 135 0
83 137 0
83 139 0
83 141 0
83 143 0
83 145 0
83 147 0
83 149 0
83 151 0
83 153 0
83 155 0
83 157 0
83 159 0
83 161 0
83 163 0
83 165 0
83 167 0
83 169 0
83 171 0
83 173 0
83 175 0
83 177 0
83 179 0
83 181 0
83 183 0
83 185 0
83 187 0
83 189 0
83 191 0
83 193 0
83 195 0
83 197 0
83 199 0
83 201 0
83 203 0
83 205 0
83 207 0
83 209 0
83 211 0
83 213 0
83 215 0
83 217 0
83 219 0
83 221 0
83 223 0
83 225 0
83 227 0
83 229 0
83 231 0
83 233 0
83 235 0
83 237 0
83 239 0
83 241 0
83 243 0
83 245 0
83 247 0
83 249 0
83 251 0
83 253 0
85 0 0
85 1 0
85 3 0
85 5 0
85 7 0
85 9 0
85 11 0
85 13 0
85 15 0
85 17 0
85 19 0
85 21 0
85 23 0
85 25 0
85 27 0
85 29 0
85 31 0
85 33 0
85 35 0
85 37 0
85 39 0
85 41 0
85 43 0
85 45 0
85 47 0
85 49 0
85 51 0
85 53 0
85 55 0
85 57 0
85 59 0
85 61 0
85 63 0
85 65 0
85 67 0
85 69 0
85 71 0
85 73 0
85 75 0
85 77 0
85 79 0
85 81 0
85 83 0
85 85 0
85 87 0
85 89 0
85 91 0
85 93 0
85 95 0
85 97 0
85 99 0
85 101 0
85 103 0
85 105 0
85 107 0
85 109 0
85 111 0
85 113 0
85 115 0
85 117 0
85 119 0
85 121 0
85 123 0
85 125 0
85 127 0
85 129 0
85 131 0
85 133 0
85 135 0
85 137 0
85 139 0
85 141 0
85 143 0
85 145 0
85 147 0
85 149 0
85 151 0
85 153 0
85 155 0
85 157 0
85 159 0
85 161 0
85 163 0
85 165 0
85 167 0
85 169 0
85 171 0
85 173 0
85 175 0
85 177 0
85 179 0
85 181 0
85 183 0
85 185 0
85 187 0
85 189 0
85 191 0
85 193 0
85 195 0
85 197 0
85 199 0
85 201 0
85 203 0
85 205 0
85 207 0
85 209 0
85 211 0
85 213 0
85 215 0
85 217 0
85 219 0
85 221 0
85 223 0
85 225 0
85 227 0
85 229 0
85 231 0
85 233 0
85 235 0
85 237 0
85 239 0
85 241 0
85 243 0
85 245 0
85 247 0
85 249 0
85 251 0
85 253 0
87 0 0
87 1 0
87 3 0
87 5 0
87 7 0
87 9 0
87 11 0
87 13 0
87 15 0
87 17 0
87 19 0
87 21 0
87 23 0
87 25 0
87 27 0
87 29 0
87 31 0
87 33 0
87 35 0
87 37 0
87 39 0
87 41 0
87 43 0
87 45 0
87 47 0
87 49 0
87 51 0
87 53 0
87 55 0
87 57 0
87 59 0
87 61 0
87 63 0
87 65 0
87 67 0
87 69 0
87 71 0
87 73 0
87 75 0
87 77 0
87 79 0
87 81 0
87 83 0
87 85 0
87 87 0
87 89 0
87 91 0
87 93 0
87 95 0
87 97 0
87 99 0
87 101 0
87 103 0
87 105 0
87 107 0
87 109 0
87 111 0
87 113 0
87 115 0
87 117 0
87 119 0
87 121 0
87 123 0
87 125 0
87 127 0
87 129 0
87 131 0
87 133 0
87 135 0
87 137 0
87 139 0
87 141 0
87 143 0
87 145 0
87 147 0
87 149 0
87 151 0
87 153 0
87 155 0
87 157 0
87 159 0
87 161 0
87 163 0
87 165 0
87 167 0
87 169 0
87 171 0
87 173 0
87 175 0
87 177 0
87 179 0
87 181 0
87 183 0
87 185 0
87 187 0
87 189 0
87 191 0
87 193 0
87 195 0
87 197 0
87 199 0
87 201 0
87 203 0
87 205 0
87 207 0
87 209 0
87 211 0
87 213 0
87 215 0
87 217 0
87 219 0
87 221 0
87 223 0
87 225 0
87 227 0
87 229 0
87 231 0
87 233 0
87 235 0
87 237 0
87 239 0
87 241 0
87 243 0
87 245 0
87 247 0
87 249 0
87 251 0
87 253 0
89 0 0
89 1 0
89 3 0
89 5 0
89 7 0
89 9 0
89 11 0
89 13 0
89 15 0
89 17 0
89 19 0
89 21 0
89 23 0
89 25 0
89 27 0
89 29 0
89 31 0
89 33 0
89 35 0
89 37 0
89 39 0
89 41 0
89 43 0
89 45 0
89 47 0
89 49 0
89 51 0
89 53 0
89 55 0
89 57 0
89 59 0
89 61 0
89 63 0
89 65 0
89 67 0
89 69 0
89 71 0
89 73 0
89 75 0
89 77 0
89 79 0
89 81 0
89 83 0
89 85 0
89 87 0
89 89 0
89 91 0
89 93 0
89 95 0
89 97 0
89 99 0
89 101 0
89 103 0
89 105 0
89 107 0
89 109 0
89 111 0
89 113 0
89 115 0
89 117 0
89 119 0
89 121 0
89 123 0
89 125 0
89 127 0
89 129 0
89 131 0
89 133 0
89 135 0
89 137 0
89 139 0
89 141 0
89 143 0
89 145 0
89 147 0
89 149 0
89 151 0
89 153 0
89 155 0
89 157 0
89 159 0
89 161 0
89 163 0
89 165 0
89 167 0
89 169 0
89 171 0
89 173 0
89 175 0
89 177 0
89 179 0
89 181 0
89 183 0
89 185 0
89 187 0
89 189 0
89 191 0
89 193 0
89 195 0
89 197 0
89 199 0
89 201 0
89 203 0
89 205 0
89 207 0
89 209 0
89 211 0
89 213 0
89 215 0
89 217 0
89 219 0
89 221 0
89 223 0
89 225 0
89 227 0
89 229 0
89 231 0
89 233 0
89 235 0
89 237 0
89 239 0
89 241 0
89 243 0
89 245 0
89 247 0
89 249 0
89 251 0
89 253 0
91 0 0
91 1 0
91 3 0
91 5 0
91 7 0
91 9 0
91 11 0
91 13 0
91 15 0
91 17 0
91 19 0
91 21 0
91 23 0
91 25 0
91 27 0
91 29 0
91 31 0
91 33 0
91 35 0
91 37 0
91 39 0
91 41 0
91 43 0
91 45 0
91 47 0
91 49 0
91 51 0
91 53 0
91 55 0
91 57 0
91 59 0
91 61 0
91 63 0
91 65 0
91 67 0
91 69 0
91 71 0
91 73 0
91 75 0
91 77 0
91 79 0
91 81 0
91 83 0
91 85 0
91 87 0
91 89 0
91 91 0
91 93 0
91 95 0
91 97 0
91 99 0
91 101 0
91 103 0
91 105 0
91 107 0
91 109 0
91 111 0
91 113 0
91 115 0
91 117 0
91 119 0
91 121 0
91 123 0
91 125 0
91 127 0
91 129 0
91 131 0
91 133 0
91 135 0
91 137 0
91 139 0
91 141 0
91 143 0
91 145 0
91 147 0
91 149 0
91 151 0
91 153 0
91 155 0
91 157 0
91 159 0
91 161 0
91 163 0
91 165 0
91 167 0
91 169 0
91 171 0
91 173 0
91 175 0
91 177 0
91 179 0
91 181 0
91 183 0
91 185 0
91 187 0
91 189 0
91 191 0
91 193 0
91 195 0
91 197 0
91 199 0
91 201 0
91 203 0
91 205 0
91 207 0
91 209 0
91 211 0
91 213 0
91 215 0
91 217 0
91 219 0
91 221 0
91 223 0
91 225 0
91 227 0
91 229 0
91 231 0
91 233 0
91 235 0
91 237 0
91 239 0
91 241 0
91 243 0
91 245 0
91 247 0
91 249 0
91 251 0
91 253 0
93 0 0
93 1 0
93 3 0
93 5 0
93 7 0
93 9 0
93 11 0
93 13 0
93 15 0
93 17 0
93 19 0
93 21 0
93 23 0
93 25 0
93 27 0
93 29 0
93 31 0
93 33 0
93 35 0
93 37 0
93 39 0
93 41 0
93 43 0
93 45 0
93 47 0
93 49 0
93 51 0
93 53 0
93 55 0
93 57 0
93 59 0
93 61 0
93 63 0
93 65 0
93 67 0
93 69 0
93 71 0
93 73 0
93 75 0
93 77 0
93 79 0
93 81 0
93 83 0
93 85 0
93 87 0
93 89 0
93 91 0
93 93 0
93 95 0
93 97 0
93 99 0
93 101 0
93 103 0
93 105 0
93 107 0
93 109 0
93 111 0
93 113 0
93 115 0
93 117 0
93 119 0
93 121 0
93 123 0
93 125 0
93 127 0
93 129 0
93 131 0
93 133 0
93 135 0
93 137 0
93 139 0
93 141 0
93 143 0
93 145 0
93 147 0
93 149 0
93 151 0
93 153 0
93 155 0
93 157 0
93 159 0
93 161 0
93 163 0
93 165 0
93 167 0
93 169 0
93 171 0
93 173 0
93 175 0
93 177 0
93 179 0
93 181 0
93 183 0
93 185 0
93 187 0
93 189 0
93 191 0
93 193 0
93 195 0
93 197 0
93 199 0
93 201 0
93 203 0
93 205 0
93 207 0
93 209 0
93 211 0
93 213 0
93 215 0
93 217 0
93 219 0
93 221 0
93 223 0
93 225 0
93 227 0
93 229 0
93 231 0
93 233 0
93 235 0
93 237 0
93 239 0
93 241 0
93 243 0
93 245 0
93 247 0
93 249 0
93 251 0
93 253 0
95 0 0
95 1 0
95 3 0
95 5 0
95 7 0
95 9 0
95 11 0
95 13 0
95 15 0
95 17 0
95 19 0
95 21 0
95 23 0
95 25 0
95 27 0
95 29 0
95 31 0
95 33 0
95 35 0
95 37 0
95 39 0
95 41 0
95 43 0
95 45 0
95 47 0
95 49 0
95 51 0
95 53 0
95 55 0
95 57 0
95 59 0
95 61 0
95 63 0
95 65 0
95 67 0
95 69 0
95 71 0
95 73 0
95 75 0
95 77 0
95 79 0
95 81 0
95 83 0
95 85 0
95 87 0
95 89 0
95 91 0
95 93 0
95 95 0
95 97 0
95 99 0
95 101 0
95 103 0
95 105 0
95 107 0
95 109 0
95 111 0
95 113 0
95 115 0
95 117 0
95 119 0
95 121 0
95 123 0
95 125 0
95 127 0
95 129 0
95 131 0
95 133 0
95 135 0
95 137 0
95 139 0
95 141 0
95 143 0
95 145 0
95 147 0
95 149 0
95 151 0
95 153 0
95 155 0
95 157 0
95 159 0
95 161 0
95 163 0
95 165 0
95 167 0
95 169 0
95 171 0
95 173 0
95 175 0
95 177 0
95 179 0
95 181 0
95 183 0
95 185 0
95 187 0
95 189 0
95 191 0
95 193 0
95 195 0
95 197 0
95 199 0
95 201 0
95 203 0
95 205 0
95 207 0
95 209 0
95 211 0
95 213 0
95 215 0
95 217 0
95 219 0
95 221 0
95 223 0
95 225 0
95 227 0
95 229 0
95 231 0
95 233 0
95 235 0
95 237 0
95 239 0
95 241 0
95 243 0
95 245 0
95 247 0
95 249 0
95 251 0
95 253 0
97 0 0
97 1 0
97 3 0
97 5 0
97 7 0
97 9 0
97 11 0
97 13 0
97 15 0
97 17 0
97 19 0
97 21 0
97 23 0
97 25 0
97 27 0
97 29 0
97 31 0
97 33 0
97 35 0
97 37 0
97 39 0
97 41 0
97 43 0
97 45 0
97 47 0
97 49 0
97 51 0
97 53 0
97 55 0
97 57 0
97 59 0
97 61 0
97 63 0
97 65 0
97 67 0
97 69 0
97 71 0
97 73 0
97 75 0
97 77 0
97 79 0
97 81 0
97 83 0
97 85 0
97 87 0
97 89 0
97 91 0
97 93 0
97 95 0
97 97 0
97 99 0
97 101 0
97 103 0
97 105 0
97 107 0
97 109 0
97 111 0
97 113 0
97 115 0
97 117 0
97 119 0
97 121 0
97 123 0
97 125 0
97 127 0
97 129 0
97 131 0
97 133 0
97 135 0
97 137 0
97 139 0
97 141 0
97 143 0
97 145 0
97 147 0
97 149 0
97 151 0
97 153 0
97 155 0
97 157 0
97 159 0
97 161 0
97 163 0
97 165 0
97 167 0
97 169 0
97 171 0
97 173 0
97 175 0
97 177 0
97 179 0
97 181 0
97 183 0
97 185 0
97 187 0
97 189 0
97 191 0
97 193 0
97 195 0
97 197 0
97 199 0
97 201 0
97 203 0
97 205 0
97 207 0
97 209 0
97 211 0
97 213 0
97 215 0
97 217 0
97 219 0
97 221 0
97 223 0
97 225 0
97 227 0
97 229 0
97 231 0
97 233 0
97 235 0
97 237 0
97 239 0
97 241 0
97 243 0
97 245 0
97 247 0
97 249 0
97 251 0
97 253 0
99 0 0
99 1 0
99 3 0
99 5 0
99 7 0
99 9 0
99 11 0
99 13 0
99 15 0
99 17 0
99 19 0
99 21 0
99 23 0
99 25 0
99 27 0
99 29 0
99 31 0
99 33 0
99 35 0
99 37 0
99 39 0
99 41 0
99 43 0
99 45 0
99 47 0
99 49 0
99 51 0
99 53 0
99 55 0
99 57 0
99 59 0
99 61 0
99 63 0
99 65 0
99 67 0
99 69 0
99 71 0
99 73 0
99 75 0
99 77 0
99 79 0
99 81 0
99 83 0
99 85 0
99 87 0
99 89 0
99 91 0
99 93 0
99 95 0
99 97 0
99 99 0
99 101 0
99 103 0
99 105 0
99 107 0
99 109 0
99 111 0
99 113 0
99 115 0
99 117 0
99 119 0
99 121 0
99 123 0
99 125 0
99 127 0
99 129 0
99 131 0
99 133 0
99 135 0
99 137 0
99 139 0
99 141 0
99 143 0
99 145 0
99 147 0
99 149 0
99 151 0
99 153 0
99 155 0
99 157 0
99 159 0
99 161 0
99 163 0
99 165 0
99 167 0
99 169 0
99 171 0
99 173 0
99 175 0
99 177 0
99 179 0
99 181 0
99 183 0
99 185 0
99 187 0
99 189 0
99 191 0
99 193 0
99 195 0
99 197 0
99 199 0
99 201 0
99 203 0
99 205 0
99 207 0
99 209 0
99 211 0
99 213 0
99 215 0
99 217 0
99 219 0
99 221 0
99 223 0
99 225 0
99 227 0
99 229 0
99 231 0
99 233 0
99 235 0
99 237 0
99 239 0
99 241 0
99 243 0
99 245 0
99 247 0
99 249 0
99 251 0
99 253 0
101 0 0
101 1 0
101 3 0
101 5 0
101 7 0
101 9 0
101 11 0
101 13 0
101 15 0
101 17 0
101 19 0
101 21 0
101 23 0
101 25 0
101 27 0
101 29 0
101 31 0
101 33 0
101 35 0
101 37 0
101 39 0
101 41 0
101 43 0
101 45 0
101 47 0
101 49 0
101 51 0
101 53 0
101 55 0
101 57 0
101 59 0
101 61 0
101 63 0
101 65 0
101 67 0
101 69 0
101 71 0
101 73 0
101 75 0
101 77 0
101 79 0
101 81 0
101 83 0
101 85 0
101 87 0
101 89 0
101 91 0
101 93 0
101 95 0
101 97 0
101 99 0
101 101 0
101 103 0
101 105 0
101 107 0
101 109 0
101 111 0
101 113 0
101 115 0
101 117 0
101 119 0
101 121 0
101 123 0
101 125 0
101 127 0
101 129 0
101 131 0
101 133 0
101 135 0
101 137 0
101 139 0
101 141 0
101 143 0
101 145 0
101 147 0
101 149 0
101 151 0
101 153 0
101 155 0
101 157 0
101 159 0
101 161 0
101 163 0
101 165 0
101 167 0
101 169 0
101 171 0
101 173 0
101 175 0
101 177 0
101 179 0
101 181 0
101 183 0
101 185 0
101 187 0
101 189 0
101 191 0
101 193 0
101 195 0
101 197 0
101 199 0
101 201 0
101 203 0
101 205 0
101 207 0
101 209 0
101 211 0
101 213 0
101 215 0
101 217 0
101 219 0
101 221 0
101 223 0
101 225 0
101 227 0
101 229 0
101 231 0
101 233 0
101 235 0
101 237 0
101 239 0
101 241 0
101 243 0
101 245 0
101 247 0
101 249 0
101 251 0
101 253 0
103 0 0
103 1 0
103 3 0
103 5 0
103 7 0
103 9 0
103 11 0
103 13 0
103 15 0
103 17 0
103 19 0
103 21 0
103 23 0
103 25 0
103 27 0
103 29 0
103 31 0
103 33 0
103 35 0
103 37 0
103 39 0
103 41 0
103 43 0
103 45 0
103 47 0
103 49 0
103 51 0
103 53 0
103 55 0
103 57 0
103 59 0
103 61 0
103 63 0
103 65 0
103 67 0
103 69 0
103 71 0
103 73 0
103 75 0
103 77 0
103 79 0
103 81 0
103 83 0
103 85 0
103 87 0
103 89 0
103 91 0
103 93 0
103 95 0
103 97 0
103 99 0
103 101 0
103 103 0
103 105 0
103 107 0
103 109 0
103 111 0
103 113 0
103 115 0
103 117 0
103 119 0
103 121 0
103 123 0
103 125 0
103 127 0
103 129 0
103 131 0
103 133 0
103 135 0
103 137 0
103 139 0
103 141 0
103 143 0
103 145 0
103 147 0
103 149 0
103 151 0
103 153 0
103 155 0
103 157 0
103 159 0
103 161 0
103 163 0
103 165 0
103 167 0
103 169 0
103 171 0
103 173 0
103 175 0
103 177 0
103 179 0
103 181 0
103 183 0
103 185 0
103 187 0
103 189 0
103 191 0
103 193 0
103 195 0
103 197 0
103 199 0
103 201 0
103 203 0
103 205 0
103 207 0
103 209 0
103 211 0
103 213 0
103 215 0
103 217 0
103 219 0
103 221 0
103 223 0
103 225 0
103 227 0
103 229 0
103 231 0
103 233 0
103 235 0
103 237 0
103 239 0
103 241 0
103 243 0
103 245 0
103 247 0
103 249 0
103 251 0
103 253 0
105 0 0
105 1 0
105 3 0
105 5 0
105 7 0
105 9 0
105 11 0
105 13 0
105 15 0
105 17 0
105 19 0
105 21 0
105 23 0
105 25 0
105 27 0
105 29 0
105 31 0
105 33 0
105 35 0
105 37 0
105 39 0
105 41 0
105 43 0
105 45 0
105 47 0
105 49 0
105 51 0
105 53 0
105 55 0
105 57 0
105 59 0
105 61 0
105 63 0
105 65 0
105 67 0
105 69 0
105 71 0
105 73 0
105 75 0
105 77 0
105 79 0
105 81 0
105 83 0
105 85 0
105 87 0
105 89 0
105 91 0
105 93 0
105 95 0
105 97 0
105 99 0
105 101 0
105 103 0
105 105 0
105 107 0
105 109 0
105 111 0
105 113 0
105 115 0
105 117 0
105 119 0
105 121 0
105 123 0
105 125 0
105 127 0
105 129 0
105 131 0
105 133 0
105 135 0
105 137 0
105 139 0
105 141 0
105 143 0
105 145 0
105 147 0
105 149 0
105 151 0
105 153 0
105 155 0
105 157 0
105 159 0
105 161 0
105 163 0
105 165 0
105 167 0
105 169 0
105 171 0
105 173 0
105 175 0
105 177 0
105 179 0
105 181 0
105 183 0
105 185 0
105 187 0
105 189 0
105 191 0
105 193 0
105 195 0
105 197 0
105 199 0
105 201 0
105 203 0
105 205 0
105 207 0
105 209 0
105 211 0
105 213 0
105 215 0
105 217 0
105 219 0
105 221 0
105 223 0
105 225 0
105 227 0
105 229 0
105 231 0
105 233 0
105 235 0
105 237 0
105 239 0
105 241 0
105 243 0
105 245 0
105 247 0
105 249 0
105 251 0
105 253 0
107 0 0
107 1 0
107 3 0
107 5 0
107 7 0
107 9 0
107 11 0
107 13 0
107 15 0
107 17 0
107 19 0
107 21 0
107 23 0
107 25 0
107 27 0
107 29 0
107 31 0
107 33 0
107 35 0
107 37 0
107 39 0
107 41 0
107 43 0
107 45 0
107 47 0
107 49 0
107 51 0
107 53 0
107 55 0
107 57 0
107 59 0
107 61 0
107 63 0
107 65 0
107 67 0
107 69 0
107 71 0
107 73 0
107 75 0
107 77 0
107 79 0
107 81 0
107 83 0
107 85 0
107 87 0
107 89 0
107 91 0
107 93 0
107 95 0
107 97 0
107 99 0
107 101 0
107 103 0
107 105 0
107 107 0
107 109 0
107 111 0
107 113 0
107 115 0
107 117 0
107 119 0
107 121 0
107 123 0
107 125 0
107 127 0
107 129 0
107 131 0
107 133 0
107 135 0
107 137 0
107 139 0
107 141 0
107 143 0
107 145 0
107 147 0
107 149 0
107 151 0
107 153 0
107 155 0
107 157 0
107 159 0
107 161 0
107 163 0
107 165 0
107 167 0
107 169 0
107 171 0
107 173 0
107 175 0
107 177 0
107 179 0
107 181 0
107 183 0
107 185 0
107 187 0
107 189 0
107 191 0
107 193 0
107 195 0
107 197 0
107 199 0
107 201 0
107 203 0
107 205 0
107 207 0
107 209 0
107 211 0
107 213 0
107 215 0
107 217 0
107 219 0
107 221 0
107 223 0
107 225 0
107 227 0
107 229 0
107 231 0
107 233 0
107 235 0
107 237 0
107 239 0
107 241 0
107 243 0
107 245 0
107 247 0
107 249 0
107 251 0
107 253 0
109 0 0
109 1 0
109 3 0
109 5 0
109 7 0
109 9 0
109 11 0
109 13 0
109 15 0
109 17 0
109 19 0
109 21 0
109 23 0
109 25 0
109 27 0
109 29 0
109 31 0
109 33 0
109 35 0
109 37 0
109 39 0
109 41 0
109 43 0
109 45 0
109 47 0
109 49 0
109 51 0
109 53 0
109 55 0
109 57 0
109 59 0
109 61 0
109 63 0
109 65 0
109 67 0
109 69 0
109 71 0
109 73 0
109 75 0
109 77 0
109 79 0
109 81 0
109 83 0
109 85 0
109 87 0
109 89 0
109 91 0
109 93 0
109 95 0
109 97 0
109 99 0
109 101 0
109 103 0
109 105 0
109 107 0
109 109 0
109 111 0
109 113 0
109 115 0
109 117 0
109 119 0
109 121 0
109 123 0
109 125 0
109 127 0
109 129 0
109 131 0
109 133 0
109 135 0
109 137 0
109 139 0
109 141 0
109 143 0
109 145 0
109 147 0
109 149 0
109 151 0
109 153 0
109 155 0
109 157 0
109 159 0
109 161 0
109 163 0
109 165 0
109 167 0
109 169 0
109 171 0
109 173 0
109 175 0
109 177 0
109 179 0
109 181 0
109 183 0
109 185 0
109 187 0
109 189 0
109 191 0
109 193 0
109 195 0
109 197 0
109 199 0
109 201 0
109 203 0
109 205 0
109 207 0
109 209 0
109 211 0
109 213 0
109 215 0
109 217 0
109 219 0
109 221 0
109 223 0
109 225 0
109 227 0
109 229 0
109 231 0
109 233 0
109 235 0
109 237 0
109 239 0
109 241 0
109 243 0
109 245 0
109 247 0
109 249 0
109 251 0
109 253 0
111 0 0
111 1 0
111 3 0
111 5 0
111 7 0
111 9 0
111 11 0
111 13 0
111 15 0
111 17 0
111 19 0
111 21 0
111 23 0
111 25 0
111 27 0
111 29 0
111 31 0
111 33 0
111 35 0
111 37 0
111 39 0
111 41 0
111 43 0
111 45 0
111 47 0
111 49 0
111 51 0
111 53 0
111 55 0
111 57 0
111 59 0
111 61 0
111 63 0
111 65 0
111 67 0
111 69 0
111 71 0
111 73 0
111 75 0
111 77 0
111 79 0
111 81 0
111 83 0
111 85 0
111 87 0
111 89 0
111 91 0
111 93 0
111 95 0
111 97 0
111 99 0
111 101 0
111 103 0
111 105 0
111 107 0
111 109 0
111 111 0
111 113 0
111 115 0
111 117 0
111 119 0
111 121 0
111 123 0
111 125 0
111 127 0
111 129 0
111 131 0
111 133 0
111 135 0
111 137 0
111 139 0
111 141 0
111 143 0
111 145 0
111 147 0
111 149 0
111 151 0
111 153 0
111 155 0
111 157 0
111 159 0
111 161 0
111 163 0
111 165 0
111 167 0
111 169 0
111 171 0
111 173 0
111 175 0
111 177 0
111 179 0
111 181 0
111 183 0
111 185 0
111 187 0
111 189 0
111 191 0
111 193 0
111 195 0
111 197 0
111 199 0
111 201 0
111 203 0
111 205 0
111 207 0
111 209 0
111 211 0
111 213 0
111 215 0
111 217 0
111 219 0
111 221 0
111 223 0
111 225 0
111 227 0
111 229 0
111 231 0
111 233 0
111 235 0
111 237 0
111 239 0
111 241 0
111 243 0
111 245 0
111 247 0
111 249 0
111 251 0
111 253 0
113 0 0
113 1 0
113 3 0
113 5 0
113 7 0
113 9 0
113 11 0
113 13 0
113 15 0
113 17 0
113 19 0
113 21 0
113 23 0
113 25 0
113 27 0
113 29 0
113 31 0
113 33 0
113 35 0
113 37 0
113 39 0
113 41 0
113 43 0
113 45 0
113 47 0
113 49 0
113 51 0
113 53 0
113 55 0
113 57 0
113 59 0
113 61 0
113 63 0
113 65 0
113 67 0
113 69 0
113 71 0
113 73 0
113 75 0
113 77 0
113 79 0
113 81 0
113 83 0
113 85 0
113 87 0
113 89 0
113 91 0
113 93 0
113 95 0
113 97 0
113 99 0
113 101 0
113 103 0
113 105 0
113 107 0
113 109 0
113 111 0
113 113 0
113 115 0
113 117 0
113 119 0
113 121 0
113 123 0
113 125 0
113 127 0
113 129 0
113 131 0
113 133 0
113 135 0
113 137 0
113 139 0
113 141 0
113 143 0
113 145 0
113 147 0
113 149 0
113 151 0
113 153 0
113 155 0
113 157 0
113 159 0
113 161 0
113 163 0
113 165 0
113 167 0
113 169 0
113 171 0
113 173 0
113 175 0
113 177 0
113 179 0
113 181 0
113 183 0
113 185 0
113 187 0
113 189 0
113 191 0
113 193 0
113 195 0
113 197 0
113 199 0
113 201 0
113 203 0
113 205 0
113 207 0
113 209 0
113 211 0
113 213 0
113 215 0
113 217 0
113 219 0
113 221 0
113 223 0
113 225 0
113 227 0
113 229 0
113 231 0
113 233 0
113 235 0
113 237 0
113 239 0
113 241 0
113 243 0
113 245 0
113 247 0
113 249 0
113 251 0
113 253 0
115 0 0
115 1 0
115 3 0
115 5 0
115 7 0
115 9 0
115 11 0
115 13 0
115 15 0
115 17 0
115 19 0
115 21 0
115 23 0
115 25 0
115 27 0
115 29 0
115 31 0
115 33 0
115 35 0
115 37 0
115 39 0
115 41 0
115 43 0
115 45 0
115 47 0
115 49 0
115 51 0
115 53 0
115 55 0
115 57 0
115 59 0
115 61 0
115 63 0
115 65 0
115 67 0
115 69 0
115 71 0
115 73 0
115 75 0
115 77 0
115 79 0
115 81 0
115 83 0
115 85 0
115 87 0
115 89 0
115 91 0
115 93 0
115 95 0
115 97 0
115 99 0
115 101 0
115 103 0
115 105 0
115 107 0
115 109 0
115 111 0
115 113 0
115 115 0
115 117 0
115 119 0
115 121 0
115 123 0
115 125 0
115 127 0
115 129 0
115 131 0
115 133 0
115 135 0
115 137 0
115 139 0
115 141 0
115 143 0
115 145 0
115 147 0
115 149 0
115 151 0
115 153 0
115 155 0
115 157 0
115 159 0
115 161 0
115 163 0
115 165 0
115 167 0
115 169 0
115 171 0
115 173 0
115 175 0
115 177 0
115 179 0
115 181 0
115 183 0
115 185 0
115 187 0
115 189 0
115 191 0
115 193 0
115 195 0
115 197 0
115 199 0
115 201 0
115 203 0
115 205 0
115 207 0
115 209 0
115 211 0
115 213 0
115 215 0
115 217 0
115 219 0
115 221 0
115 223 0
115 225 0
115 227 0
115 229 0
115 231 0
115 233 0
115 235 0
115 237 0
115 239 0
115 241 0
115 243 0
115 245 0
115 247 0
115 249 0
115 251 0
115 253 0
117 0 0
117 1 0
117 3 0
117 5 0
117 7 0
117 9 0
117 11 0
117 13 0
117 15 0
117 17 0
117 19 0
117 21 0
117 23 0
117 25 0
117 27 0
117 29 0
117 31 0
117 33 0
117 35 0
117 37 0
117 39 0
117 41 0
117 43 0
117 45 0
117 47 0
117 49 0
117 51 0
117 53 0
117 55 0
117 57 0
117 59 0
117 61 0
117 63 0
117 65 0
117 67 0
117 69 0
117 71 0
117 73 0
117 75 0
117 77 0
117 79 0
117 81 0
117 83 0
117 85 0
117 87 0
117 89 0
117 91 0
117 93 0
117 95 0
117 97 0
117 99 0
117 101 0
117 103 0
117 105 0
117 107 0
117 109 0
117 111 0
117 113 0
117 115 0
117 117 0
117 119 0
117 121 0
117 123 0
117 125 0
117 127 0
117 129 0
117 131 0
117 133 0
117 135 0
117 137 0
117 139 0
117 141 0
117 143 0
117 145 0
117 147 0
117 149 0
117 151 0
117 153 0
117 155 0
117 157 0
117 159 0
117 161 0
117 163 0
117 165 0
117 167 0
117 169 0
117 171 0
117 173 0
117 175 0
117 177 0
117 179 0
117 181 0
117 183 0
117 185 0
117 187 0
117 189 0
117 191 0
117 193 0
117 195 0
117 197 0
117 199 0
117 201 0
117 203 0
117 205 0
117 207 0
117 209 0
117 211 0
117 213 0
117 215 0
117 217 0
117 219 0
117 221 0
117 223 0
117 225 0
117 227 0
117 229 0
117 231 0
117 233 0
117 235 0
117 237 0
117 239 0
117 241 0
117 243 0
117 245 0
117 247 0
117 249 0
117 251 0
117 253 0
119 0 0
119 1 0
119 3 0
119 5 0
119 7 0
119 9 0
119 11 0
119 13 0
119 15 0
119 17 0
119 19 0
119 21 0
119 23 0
119 25 0
119 27 0
119 29 0
119 31 0
119 33 0
119 35 0
119 37 0
119 39 0
119 41 0
119 43 0
119 45 0
119 47 0
119 49 0
119 51 0
119 53 0
119 55 0
119 57 0
119 59 0
119 61 0
119 63 0
119 65 0
119 67 0
119 69 0
119 71 0
119 73 0
119 75 0
119 77 0
119 79 0
119 81 0
119 83 0
119 85 0
119 87 0
119 89 0
119 91 0
119 93 0
119 95 0
119 97 0
119 99 0
119 101 0
119 103 0
119 105 0
119 107 0
119 109 0
119 111 0
119 113 0
119 115 0
119 117 0
119 119 0
119 121 0
119 123 0
119 125 0
119 127 0
119 129 0
119 131 0
119 133 0
119 135 0
119 137 0
119 139 0
119 141 0
119 143 0
119 145 0
119 147 0
119 149 0
119 151 0
119 153 0
119 155 0
119 157 0
119 159 0
119 161 0
119 163 0
119 165 0
119 167 0
119 169 0
119 171 0
119 173 0
119 175 0
119 177 0
119 179 0
119 181 0
119 183 0
119 185 0
119 187 0
119 189 0
119 191 0
119 193 0
119 195 0
119 197 0
119 199 0
119 201 0
119 203 0
119 205 0
119 207 0
119 209 0
119 211 0
119 213 0
119 215 0
119 217 0
119 219 0
119 221 0
119 223 0
119 225 0
119 227 0
119 229 0
119 231 0
119 233 0
119 235 0
119 237 0
119 239 0
119 241 0
119 243 0
119 245 0
119 247 0
119 249 0
119 251 0
119 253 0
121 0 0
121 1 0
121 3 0
121 5 0
121 7 0
121 9 0
121 11 0
121 13 0
121 15 0
121 17 0
121 19 0
121 21 0
121 23 0
121 25 0
121 27 0
121 29 0
121 31 0
121 33 0
121 35 0
121 37 0
121 39 0
121 41 0
121 43 0
121 45 0
121 47 0
121 49 0
121 51 0
121 53 0
121 55 0
121 57 0
121 59 0
121 61 0
121 63 0
121 65 0
121 67 0
121 69 0
121 71 0
121 73 0
121 75 0
121 77 0
121 79 0
121 81 0
121 83 0
121 85 0
121 87 0
121 89 0
121 91 0
121 93 0
121 95 0
121 97 0
121 99 0
121 101 0
121 103 0
121 105 0
121 107 0
121 109 0
121 111 0
121 113 0
121 115 0
121 117 0
121 119 0
121 121 0
121 123 0
121 125 0
121 127 0
121 129 0
121 131 0
121 133 0
121 135 0
121 137 0
121 139 0
121 141 0
121 143 0
121 145 0
121 147 0
121 149 0
121 151 0
121 153 0
121 155 0
121 157 0
121 159 0
121 161 0
121 163 0
121 165 0
121 167 0
121 169 0
121 171 0
121 173 0
121 175 0
121 177 0
121 179 0
121 181 0
121 183 0
121 185 0
121 187 0
121 189 0
121 191 0
121 193 0
121 195 0
121 197 0
121 199 0
121 201 0
121 203 0
121 205 0
121 207 0
121 209 0
121 211 0
121 213 0
121 215 0
121 217 0
121 219 0
121 221 0
121 223 0
121 225 0
121 227 0
121 229 0
121 231 0
121 233 0
121 235 0
121 237 0
121 239 0
121 241 0
121 243 0
121 245 0
121 247 0
121 249 0
121 251 0
121 253 0
123 0 0
123 1 0
123 3 0
123 5 0
123 7 0
123 9 0
123 11 0
123 13 0
123 15 0
123 17 0
123 19 0
123 21 0
123 23 0
123 25 0
123 27 0
123 29 0
123 31 0
123 33 0
123 35 0
123 37 0
123 39 0
123 41 0
123 43 0
123 45 0
123 47 0
123 49 0
123 51 0
123 53 0
123 55 0
123 57 0
123 59 0
123 61 0
123 63 0
123 65 0
123 67 0
123 69 0
123 71 0
123 73 0
123 75 0
123 77 0
123 79 0
123 81 0
123 83 0
123 85 0
123 87 0
123 89 0
123 91 0
123 93 0
123 95 0
123 97 0
123 99 0
123 101 0
123 103 0
123 105 0
123 107 0
123 109 0
123 111 0
123 113 0
123 115 0
123 117 0
123 119 0
123 121 0
123 123 0
123 125 0
123 127 0
123 129 0
123 131 0
123 133 0
123 135 0
123 137 0
123 139 0
123 141 0
123 143 0
123 145 0
123 147 0
123 149 0
123 151 0
123 153 0
123 155 0
123 157 0
123 159 0
123 161 0
123 163 0
123 165 0
123 167 0
123 169 0
123 171 0
123 173 0
123 175 0
123 177 0
123 179 0
123 181 0
123 183 0
123 185 0
123 187 0
123 189 0
123 191 0
123 193 0
123 195 0
123 197 0
123 199 0
123 201 0
123 203 0
123 205 0
123 207 0
123 209 0
123 211 0
123 213 0
123 215 0
123 217 0
123 219 0
123 221 0
123 223 0
123 225 0
123 227 0
123 229 0
123 231 0
123 233 0
123 235 0
123 237 0
123 239 0
123 241 0
123 243 0
123 245 0
123 247 0
123 249 0
123 251 0
123 253 0
125 0 0
125 1 0
125 3 0
125 5 0
125 7 0
125 9 0
125 11 0
125 13 0
125 15 0
125 17 0
125 19 0
125 21 0
125 23 0
125 25 0
125 27 0
125 29 0
125 31 0
125 33 0
125 35 0
125 37 0
125 39 0
125 41 0
125 43 0
125 45 0
125 47 0
125 49 0
125 51 0
125 53 0
125 55 0
125 57 0
125 59 0
125 61 0
125 63 0
125 65 0
125 67 0
125 69 0
125 71 0
125 73 0
125 75 0
125 77 0
125 79 0
125 81 0
125 83 0
125 85 0
125 87 0
125 89 0
125 91 0
125 93 0
125 95 0
125 97 0
125 99 0
125 101 0
125 103 0
125 105 0
125 107 0
125 109 0
125 111 0
125 113 0
125 115 0
125 117 0
125 119 0
125 121 0
125 123 0
125 125 0
125 127 0
125 129 0
125 131 0
125 133 0
125 135 0
125 137 0
125 139 0
125 141 0
125 143 0
125 145 0
125 147 0
125 149 0
125 151 0
125 153 0
125 155 0
125 157 0
125 159 0
125 161 0
125 163 0
125 165 0
125 167 0
125 169 0
125 171 0
125 173 0
125 175 0
125 177 0
125 179 0
125 181 0
125 183 0
125 185 0
125 187 0
125 189 0
125 191 0
125 193 0
125 195 0
125 197 0
125 199 0
125 201 0
125 203 0
125 205 0
125 207 0
125 209 0
125 211 0
125 213 0
125 215 0
125 217 0
125 219 0
125 221 0
125 223 0
125 225 0
125 227 0
125 229 0
125 231 0
125 233 0
125 235 0
125 237 0
125 239 0
125 241 0
125 243 0
125 245 0
125 247 0
125 249 0
125 251 0
125 253 0
127 0 0
127 1 0
127 3 0
127 5 0
127 7 0
127 9 0
127 11 0
127 13 0
127 15 0
127 17 0
127 19 0
127 21 0
127 23 0
127 25 0
127 27 0
127 29 0
127 31 0
127 33 0
127 35 0
127 37 0
127 39 0
127 41 0
127 43 0
127 45 0
127 47 0
127 49 0
127 51 0
127 53 0
127 55 0
127 57 0
127 59 0
127 61 0
127 63 0
127 65 0
127 67 0
127 69 0
127 71 0
127 73 0
127 75 0
127 77 0
127 79 0
127 81 0
127 83 0
127 85 0
127 87 0
127 89 0
127 91 0
127 93 0
127 95 0
127 97 0
127 99 0
127 101 0
127 103 0
127 105 0
127 107 0
127 109 0
127 111 0
127 113 0
127 115 0
127 117 0
127 119 0
127 121 0
127 123 0
127 125 0
127 127 0
127 129 0
127 131 0
127 133 0
127 135 0
127 137 0
127 139 0
127 141 0
127 143 0
127 145 0
127 147 0
127 149 0
127 151 0
127 153 0
127 155 0
127 157 0
127 159 0
127 161 0
127 163 0
127 165 0
127 167 0
127 169 0
127 171 0
127 173 0
127 175 0
127 177 0
127 179 0
127 181 0
127 183 0
127 185 0
127 187 0
127 189 0
127 191 0
127 193 0
127 195 0
127 197 0
127 199 0
127 201 0
127 203 0
127 205 0
127 207 0
127 209 0
127 211 0
127 213 0
127 215 0
127 217 0
127 219 0
127 221 0
127 223 0
127 225 0
127 227 0
127 229 0
127 231 0
127 233 0
127 235 0
127 237 0
127 239 0
127 241 0
127 243 0
127 245 0
127 247 0
127 249 0
127 251 0
127 253 0
129 0 0
129 1 0
129 3 0
129 5 0
129 7 0
129 9 0
129 11 0
129 13 0
129 15 0
129 17 0
129 19 0
129 21 0
129 23 0
129 25 0
129 27 0
129 29 0
129 31 0
129 33 0
129 35 0
129 37 0
129 39 0
129 41 0
129 43 0
129 45 0
129 47 0
129 49 0
129 51 0
129 53 0
129 55 0
129 57 0
129 59 0
129 61 0
129 63 0
129 65 0
129 67 0
129 69 0
129 71 0
129 73 0
129 75 0
129 77 0
129 79 0
129 81 0
129 83 0
129 85 0
129 87 0
129 89 0
129 91 0
129 93 0
129 95 0
129 97 0
129 99 0
129 101 0
129 103 0
129 105 0
129 107 0
129 109 0
129 111 0
129 113 0
129 115 0
129 117 0
129 119 0
129 121 0
129 123 0
129 125 0
129 127 0
129 129 0
129 131 0
129 133 0
129 135 0
129 137 0
129 139 0
129 141 0
129 143 0
129 145 0
129 147 0
129 149 0
129 151 0
129 153 0
129 155 0
129 157 0
129 159 0
129 161 0
129 163 0
129 165 0
129 167 0
129 169 0
129 171 0
129 173 0
129 175 0
129 177 0
129 179 0
129 181 0
129 183 0
129 185 0
129 187 0
129 189 0
129 191 0
129 193 0
129 195 0
129 197 0
129 199 0
129 201 0
129 203 0
129 205 0
129 207 0
129 209 0
129 211 0
129 213 0
129 215 0
129 217 0
129 219 0
129 221 0
129 223 0
129 225 0
129 227 0
129 229 0
129 231 0
129 233 0
129 235 0
129 237 0
129 239 0
129 241 0
129 243 0
129 245 0
129 247 0
129 249 0
129 251 0
129 253 0
131 0 0
131 1 0
131 3 0
131 5 0
131 7 0
131 9 0
131 11 0
131 13 0
131 15 0
131 17 0
131 19 0
131 21 0
131 23 0
131 25 0
131 27 0
131 29 0
131 31 0
131 33 0
131 35 0
131 37 0
131 39 0
131 41 0
131 43 0
131 45 0
131 47 0
131 49 0
131 51 0
131 53 0
131 55 0
131 57 0
131 59 0
131 61 0
131 63 0
131 65 0
131 67 0
131 69 0
131 71 0
131 73 0
131 75 0
131 77 0
131 79 0
131 81 0
131 83 0
131 85 0
131 87 0
131 89 0
131 91 0
131 93 0
131 95 0
131 97 0
131 99 0
131 101 0
131 103 0
131 105 0
131 107 0
131 109 0
131 111 0
131 113 0
131 115 0
131 117 0
131 119 0
131 121 0
131 123 0
131 125 0
131 127 0
131 129 0
131 131 0
131 133 0
131 135 0
131 137 0
131 139 0
131 141 0
131 143 0
131 145 0
131 147 0
131 149 0
131 151 0
131 153 0
131 155 0
131 157 0
131 159 0
131 161 0
131 163 0
131 165 0
131 167 0
131 169 0
131 171 0
131 173 0
131 175 0
131 177 0
131 179 0
131 181 0
131 183 0
131 185 0
131 187 0
131 189 0
131 191 0
131 193 0
131 195 0
131 197 0
131 199 0
131 201 0
131 203 0
131 205 0
131 207 0
131 209 0
131 211 0
131 213 0
131 215 0
131 217 0
131 219 0
131 221 0
131 223 0
131 225 0
131 227 0
131 229 0
131 231 0
131 233 0
131 235 0
131 237 0
131 239 0
131 241 0
131 243 0
131 245 0
131 247 0
131 249 0
131 251 0
131 253 0
133 0 0
133 1 0
133 3 0
133 5 0
133 7 0
133 9 0
133 11 0
133 13 0
133 15 0
133 17 0
133 19 0
133 21 0
133 23 0
133 25 0
133 27 0
133 29 0
133 31 0
133 33 0
133 35 0
133 37 0
133 39 0
133 41 0
133 43 0
133 45 0
133 47 0
133 49 0
133 51 0
133 53 0
133 55 0
133 57 0
133 59 0
133 61 0
133 63 0
133 65 0
133 67 0
133 69 0
133 71 0
133 73 0
133 75 0
133 77 0
133 79 0
133 81 0
133 83 0
133 85 0
133 87 0
133 89 0
133 91 0
133 93 0
133 95 0
133 97 0
133 99 0
133 101 0
133 103 0
133 105 0
133 107 0
133 109 0
133 111 0
133 113 0
133 115 0
133 117 0
133 119 0
133 121 0
133 123 0
133 125 0
133 127 0
133 129 0
133 131 0
133 133 0
133 135 0
133 137 0
133 139 0
133 141 0
133 143 0
133 145 0
133 147 0
133 149 0
133 151 0
133 153 0
133 155 0
133 157 0
133 159 0
133 161 0
133 163 0
133 165 0
133 167 0
133 169 0
133 171 0
133 173 0
133 175 0
133 177 0
133 179 0
133 181 0
133 183 0
133 185 0
133 187 0
133 189 0
133 191 0
133 193 0
133 195 0
133 197 0
133 199 0
133 201 0
133 203 0
133 205 0
133 207 0
133 209 0
133 211 0
133 213 0
133 215 0
133 217 0
133 219 0
133 221 0
133 223 0
133 225 0
133 227 0
133 229 0
133 231 0
133 233 0
133 235 0
133 237 0
133 239 0
133 241 0
133 243 0
133 245 0
133 247 0
133 249 0
133 251 0
133 253 0
135 0 0
135 1 0
135 3 0
135 5 0
135 7 0
135 9 0
135 11 0
135 13 0
135 15 0
135 17 0
135 19 0
135 21 0
135 23 0
135 25 0
135 27 0
135 29 0
135 31 0
135 33 0
135 35 0
135 37 0
135 39 0
135 41 0
135 43 0
135 45 0
135 47 0
135 49 0
135 51 0
135 53 0
135 55 0
135 57 0
135 59 0
135 61 0
135 63 0
135 65 0
135 67 0
135 69 0
135 71 0
135 73 0
135 75 0
135 77 0
135 79 0
135 81 0
135 83 0
135 85 0
135 87 0
135 89 0
135 91 0
135 93 0
135 95 0
135 97 0
135 99 0
135 101 0
135 103 0
135 105 0
135 107 0
135 109 0
135 111 0
135 113 0
135 115 0
135 117 0
135 119 0
135 121 0
135 123 0
135 125 0
135 127 0
135 129 0
135 131 0
135 133 0
135 135 0
135 137 0
135 139 0
135 141 0
135 143 0
135 145 0
135 147 0
135 149 0
135 151 0
135 153 0
135 155 0
135 157 0
135 159 0
135 161 0
135 163 0
135 165 0
135 167 0
135 169 0
135 171 0
135 173 0
135 175 0
135 177 0
135 179 0
135 181 0
135 183 0
135 185 0
135 187 0
135 189 0
135 191 0
135 193 0
135 195 0
135 197 0
135 199 0
135 201 0
135 203 0
135 205 0
135 207 0
135 209 0
135 211 0
135 213 0
135 215 0
135 217 0
135 219 0
135 221 0
135 223 0
135 225 0
135 227 0
135 229 0
135 231 0
135 233 0
135 235 0
135 237 0
135 239 0
135 241 0
135 243 0
135 245 0
135 247 0
135 249 0
135 251 0
135 253 0
137 0 0
137 1 0
137 3 0
137 5 0
137 7 0
137 9 0
137 11 0
137 13 0
137 15 0
137 17 0
137 19 0
137 21 0
137 23 0
137 25 0
137 27 0
137 29 0
137 31 0
137 33 0
137 35 0
137 37 0
137 39 0
137 41 0
137 43 0
137 45 0
137 47 0
137 49 0
137 51 0
137 53 0
137 55 0
137 57 0
137 59 0
137 61 0
137 63 0
137 65 0
137 67 0
137 69 0
137 71 0
137 73 0
137 75 0
137 77 0
137 79 0
137 81 0
137 83 0
137 85 0
137 87 0
137 89 0
137 91 0
137 93 0
137 95 0
137 97 0
137 99 0
137 101 0
137 103 0
137 105 0
137 107 0
137 109 0
137 111 0
137 113 0
137 115 0
137 117 0
137 119 0
137 121 0
137 123 0
137 125 0
137 127 0
137 129 0
137 131 0
137 133 0
137 135 0
137 137 0
137 139 0
137 141 0
137 143 0
137 145 0
137 147 0
137 149 0
137 151 0
137 153 0
137 155 0
137 157 0
137 159 0
137 161 0
137 163 0
137 165 0
137 167 0
137 169 0
137 171 0
137 173 0
137 175 0
137 177 0
137 179 0
137 181 0
137 183 0
137 185 0
137 187 0
137 189 0
137 191 0
137 193 0
137 195 0
137 197 0
137 199 0
137 201 0
137 203 0
137 205 0
137 207 0
137 209 0
137 211 0
137 213 0
137 215 0
137 217 0
137 219 0
137 221 0
137 223 0
137 225 0
137 227 0
137 229 0
137 231 0
137 233 0
137 235 0
137 237 0
137 239 0
137 241 0
137 243 0
137 245 0
137 247 0
137 249 0
137 251 0
137 253 0
139 0 0
139 1 0
139 3 0
139 5 0
139 7 0
139 9 0
139 11 0
139 13 0
139 15 0
139 17 0
139 19 0
139 21 0
139 23 0
139 25 0
139 27 0
139 29 0
139 31 0
139 33 0
139 35 0
139 37 0
139 39 0
139 41 0
139 43 0
139 45 0
139 47 0
139 49 0
139 51 0
139 53 0
139 55 0
139 57 0
139 59 0
139 61 0
139 63 0
139 65 0
139 67 0
139 69 0
139 71 0
139 73 0
139 75 0
139 77 0
139 79 0
139 81 0
139 83 0
139 85 0
139 87 0
139 89 0
139 91 0
139 93 0
139 95 0
139 97 0
139 99 0
139 101 0
139 103 0
139 105 0
139 107 0
139 109 0
139 111 0
139 113 0
139 115 0
139 117 0
139 119 0
139 121 0
139 123 0
139 125 0
139 127 0
139 129 0
139 131 0
139 133 0
139 135 0
139 137 0
139 139 0
139 141 0
139 143 0
139 145 0
139 147 0
139 149 0
139 151 0
139 153 0
139 155 0
139 157 0
139 159 0
139 161 0
139 163 0
139 165 0
139 167 0
139 169 0
139 171 0
139 173 0
139 175 0
139 177 0
139 179 0
139 181 0
139 183 0
139 185 0
139 187 0
139 189 0
139 191 0
139 193 0
139 195 0
139 197 0
139 199 0
139 201 0
139 203 0
139 205 0
139 207 0
139 209 0
139 211 0
139 213 0
139 215 0
139 217 0
139 219 0
139 221 0
139 223 0
139 225 0
139 227 0
139 229 0
139 231 0
139 233 0
139 235 0
139 237 0
139 239 0
139 241 0
139 243 0
139 245 0
139 247 0
139 249 0
139 251 0
139 253 0
141 0 0
141 1 0
141 3 0
141 5 0
141 7 0
141 9 0
141 11 0
141 13 0
141 15 0
141 17 0
141 19 0
141 21 0
141 23 0
141 25 0
141 27 0
141 29 0
141 31 0
141 33 0
141 35 0
141 37 0
141 39 0
141 41 0
141 43 0
141 45 0
141 47 0
141 49 0
141 51 0
141 53 0
141 55 0
141 57 0
141 59 0
141 61 0
141 63 0
141 65 0
141 67 0
141 69 0
141 71 0
141 73 0
141 75 0
141 77 0
141 79 0
141 81 0
141 83 0
141 85 0
141 87 0
141 89 0
141 91 0
141 93 0
141 95 0
141 97 0
141 99 0
141 101 0
141 103 0
141 105 0
141 107 0
141 109 0
141 111 0
141 113 0
141 115 0
141 117 0
141 119 0
141 121 0
141 123 0
141 125 0
141 127 0
141 129 0
141 131 0
141 133 0
141 135 0
141 137 0
141 139 0
141 141 0
141 143 0
141 145 0
141 147 0
141 149 0
141 151 0
141 153 0
141 155 0
141 157 0
141 159 0
141 161 0
141 163 0
141 165 0
141 167 0
141 169 0
141 171 0
141 173 0
141 175 0
141 177 0
141 179 0
141 181 0
141 183 0
141 185 0
141 187 0
141 189 0
141 191 0
141 193 0
141 195 0
141 197 0
141 199 0
141 201 0
141 203 0
141 205 0
141 207 0
141 209 0
141 211 0
141 213 0
141 215 0
141 217 0
141 219 0
141 221 0
141 223 0
141 225 0
141 227 0
141 229 0
141 231 0
141 233 0
141 235 0
141 237 0
141 239 0
141 241 0
141 243 0
141 245 0
141 247 0
141 249 0
141 251 0
141 253 0
143 0 0
143 1 0
143 3 0
143 5 0
143 7 0
143 9 0
143 11 0
143 13 0
143 15 0
143 17 0
143 19 0
143 21 0
143 23 0
143 25 0
143 27 0
143 29 0
143 31 0
143 33 0
143 35 0
143 37 0
143 39 0
143 41 0
143 43 0
143 45 0
143 47 0
143 49 0
143 51 0
143 53 0
143 55 0
143 57 0
143 59 0
143 61 0
143 63 0
143 65 0
143 67 0
143 69 0
143 71 0
143 73 0
143 75 0
143 77 0
143 79 0
143 81 0
143 83 0
143 85 0
143 87 0
143 89 0
143 91 0
143 93 0
143 95 0
143 97 0
143 99 0
143 101 0
143 103 0
143 105 0
143 107 0
143 109 0
143 111 0
143 113 0
143 115 0
143 117 0
143 119 0
143 121 0
143 123 0
143 125 0
143 127 0
143 129 0
143 131 0
143 133 0
143 135 0
143 137 0
143 139 0
143 141 0
143 143 0
143 145 0
143 147 0
143 149 0
143 151 0
143 153 0
143 155 0
143 157 0
143 159 0
143 161 0
143 163 0
143 165 0
143 167 0
143 169 0
143 171 0
143 173 0
143 175 0
143 177 0
143 179 0
143 181 0
143 183 0
143 185 0
143 187 0
143 189 0
143 191 0
143 193 0
143 195 0
143 197 0
143 199 0
143 201 0
143 203 0
143 205 0
143 207 0
143 209 0
143 211 0
143 213 0
143 215 0
143 217 0
143 219 0
143 221 0
143 223 0
143 225 0
143 227 0
143 229 0
143 231 0
143 233 0
143 235 0
143 237 0
143 239 0
143 241 0
143 243 0
143 245 0
143 247 0
143 249 0
143 251 0
143 253 0
145 0 0
145 1 0
145 3 0
145 5 0
145 7 0
145 9 0
145 11 0
145 13 0
145 15 0
145 17 0
145 19 0
145 21 0
145 23 0
145 25 0
145 27 0
145 29 0
145 31 0
145 33 0
145 35 0
145 37 0
145 39 0
145 41 0
145 43 0
145 45 0
145 47 0
145 49 0
145 51 0
145 53 0
145 55 0
145 57 0
145 59 0
145 61 0
145 63 0
145 65 0
145 67 0
145 69 0
145 71 0
145 73 0
145 75 0
145 77 0
145 79 0
145 81 0
145 83 0
145 85 0
145 87 0
145 89 0
145 91 0
145 93 0
145 95 0
145 97 0
145 99 0
145 101 0
145 103 0
145 105 0
145 107 0
145 109 0
145 111 0
145 113 0
145 115 0
145 117 0
145 119 0
145 121 0
145 123 0
145 125 0
145 127 0
145 129 0
145 131 0
145 133 0
145 135 0
145 137 0
145 139 0
145 141 0
145 143 0
145 145 0
145 147 0
145 149 0
145 151 0
145 153 0
145 155 0
145 157 0
145 159 0
145 161 0
145 163 0
145 165 0
145 167 0
145 169 0
145 171 0
145 173 0
145 175 0
145 177 0
145 179 0
145 181 0
145 183 0
145 185 0
145 187 0
145 189 0
145 191 0
145 193 0
145 195 0
145 197 0
145 199 0
145 201 0
145 203 0
145 205 0
145 207 0
145 209 0
145 211 0
145 213 0
145 215 0
145 217 0
145 219 0
145 221 0
145 223 0
145 225 0
145 227 0
145 229 0
145 231 0
145 233 0
145 235 0
145 237 0
145 239 0
145 241 0
145 243 0
145 245 0
145 247 0
145 249 0
145 251 0
145 253 0
147 0 0
147 1 0
147 3 0
147 5 0
147 7 0
147 9 0
147 11 0
147 13 0
147 15 0
147 17 0
147 19 0
147 21 0
147 23 0
147 25 0
147 27 0
147 29 0
147 31 0
147 33 0
147 35 0
147 37 0
147 39 0
147 41 0
147 43 0
147 45 0
147 47 0
147 49 0
147 51 0
147 53 0
147 55 0
147 57 0
147 59 0
147 61 0
147 63 0
147 65 0
147 67 0
147 69 0
147 71 0
147 73 0
147 75 0
147 77 0
147 79 0
147 81 0
147 83 0
147 85 0
147 87 0
147 89 0
147 91 0
147 93 0
147 95 0
147 97 0
147 99 0
147 101 0
147 103 0
147 105 0
147 107 0
147 109 0
147 111 0
147 113 0
147 115 0
147 117 0
147 119 0
147 121 0
147 123 0
147 125 0
147 127 0
147 129 0
147 131 0
147 133 0
147 135 0
147 137 0
147 139 0
147 141 0
147 143 0
147 145 0
147 147 0
147 149 0
147 151 0
147 153 0
147 155 0
147 157 0
147 159 0
147 161 0
147 163 0
147 165 0
147 167 0
147 169 0
147 171 0
147 173 0
147 175 0
147 177 0
147 179 0
147 181 0
147 183 0
147 185 0
147 187 0
147 189 0
147 191 0
147 193 0
147 195 0
147 197 0
147 199 0
147 201 0
147 203 0
147 205 0
147 207 0
147 209 0
147 211 0
147 213 0
147 215 0
147 217 0
147 219 0
147 221 0
147 223 0
147 225 0
147 227 0
147 229 0
147 231 0
147 233 0
147 235 0
147 237 0
147 239 0
147 241 0
147 243 0
147 245 0
147 247 0
147 249 0
147 251 0
147 253 0
149 0 0
149 1 0
149 3 0
149 5 0
149 7 0
149 9 0
149 11 0
149 13 0
149 15 0
149 17 0
149 19 0
149 21 0
149 23 0
149 25 0
149 27 0
149 29 0
149 31 0
149 33 0
149 35 0
149 37 0
149 39 0
149 41 0
149 43 0
149 45 0
149 47 0
149 49 0
149 51 0
149 53 0
149 55 0
149 57 0
149 59 0
149 61 0
149 63 0
149 65 0
149 67 0
149 69 0
149 71 0
149 73 0
149 75 0
149 77 0
149 79 0
149 81 0
149 83 0
149 85 0
149 87 0
149 89 0
149 91 0
149 93 0
149 95 0
149 97 0
149 99 0
149 101 0
149 103 0
149 105 0
149 107 0
149 109 0
149 111 0
149 113 0
149 115 0
149 117 0
149 119 0
149 121 0
149 123 0
149 125 0
149 127 0
149 129 0
149 131 0
149 133 0
149 135 0
149 137 0
149 139 0
149 141 0
149 143 0
149 145 0
149 147 0
149 149 0
149 151 0
149 153 0
149 155 0
149 157 0
149 159 0
149 161 0
149 163 0
149 165 0
149 167 0
149 169 0
149 171 0
149 173 0
149 175 0
149 177 0
149 179 0
149 181 0
149 183 0
149 185 0
149 187 0
149 189 0
149 191 0
149 193 0
149 195 0
149 197 0
149 199 0
149 201 0
149 203 0
149 205 0
149 207 0
149 209 0
149 211 0
149 213 0
149 215 0
149 217 0
149 219 0
149 221 0
149 223 0
149 225 0
149 227 0
149 229 0
149 231 0
149 233 0
149 235 0
149 237 0
149 239 0
149 241 0
149 243 0
149 245 0
149 247 0
149 249 0
149 251 0
149 253 0
151 0 0
151 1 0
151 3 0
151 5 0
151 7 0
151 9 0
151 11 0
151 13 0
151 15 0
151 17 0
151 19 0
151 21 0
151 23 0
151 25 0
151 27 0
151 29 0
151 31 0
151 33 0
151 35 0
151 37 0
151 39 0
151 41 0
151 43 0
151 45 0
151 47 0
151 49 0
151 51 0
151 53 0
151 55 0
151 57 0
151 59 0
151 61 0
151 63 0
151 65 0
151 67 0
151 69 0
151 71 0
151 73 0
151 75 0
151 77 0
151 79 0
151 81 0
151 83 0
151 85 0
151 87 0
151 89 0
151 91 0
151 93 0
151 95 0
151 97 0
151 99 0
151 101 0
151 103 0
151 105 0
151 107 0
151 109 0
151 111 0
151 113 0
151 115 0
151 117 0
151 119 0
151 121 0
151 123 0
151 125 0
151 127 0
151 129 0
151 131 0
151 133 0
151 135 0
151 137 0
151 139 0
151 141 0
151 143 0
151 145 0
151 147 0
151 149 0
151 151 0
151 153 0
151 155 0
151 157 0
151 159 0
151 161 0
151 163 0
151 165 0
151 167 0
151 169 0
151 171 0
151 173 0
151 175 0
151 177 0
151 179 0
151 181 0
151 183 0
151 185 0
151 187 0
151 189 0
151 191 0
151 193 0
151 195 0
151 197 0
151 199 0
151 201 0
151 203 0
151 205 0
151 207 0
151 209 0
151 211 0
151 213 0
151 215 0
151 217 0
151 219 0
151 221 0
151 223 0
151 225 0
151 227 0
151 229 0
151 231 0
151 233 0
151 235 0
151 237 0
151 239 0
151 241 0
151 243 0
151 245 0
151 247 0
151 249 0
151 251 0
151 253 0
153 0 0
153 1 0
153 3 0
153 5 0
153 7 0
153 9 0
153 11 0
153 13 0
153 15 0
153 17 0
153 19 0
153 21 0
153 23 0
153 25 0
153 27 0
153 29 0
153 31 0
153 33 0
153 35 0
153 37 0
153 39 0
153 41 0
153 43 0
153 45 0
153 47 0
153 49 0
153 51 0
153 53 0
153 55 0
153 57 0
153 59 0
153 61 0
153 63 0
153 65 0
153 67 0
153 69 0
153 71 0
153 73 0
153 75 0
153 77 0
153 79 0
153 81 0
153 83 0
153 85 0
153 87 0
153 89 0
153 91 0
153 93 0
153 95 0
153 97 0
153 99 0
153 101 0
153 103 0
153 105 0
153 107 0
153 109 0
153 111 0
153 113 0
153 115 0
153 117 0
153 119 0
153 121 0
153 123 0
153 125 0
153 127 0
153 129 0
153 131 0
153 133 0
153 135 0
153 137 0
153 139 0
153 141 0
153 143 0
153 145 0
153 147 0
153 149 0
153 151 0
153 153 0
153 155 0
153 157 0
153 159 0
153 161 0
153 163 0
153 165 0
153 167 0
153 169 0
153 171 0
153 173 0
153 175 0
153 177 0
153 179 0
153 181 0
153 183 0
153 185 0
153 187 0
153 189 0
153 191 0
153 193 0
153 195 0
153 197 0
153 199 0
153 201 0
153 203 0
153 205 0
153 207 0
153 209 0
153 211 0
153 213 0
153 215 0
153 217 0
153 219 0
153 221 0
153 223 0
153 225 0
153 227 0
153 229 0
153 231 0
153 233 0
153 235 0
153 237 0
153 239 0
153 241 0
153 243 0
153 245 0
153 247 0
153 249 0
153 251 0
153 253 0
155 0 0
155 1 0
155 3 0
155 5 0
155 7 0
155 9 0
155 11 0
155 13 0
155 15 0
155 17 0
155 19 0
155 21 0
155 23 0
155 25 0
155 27 0
155 29 0
155 31 0
155 33 0
155 35 0
155 37 0
155 39 0
155 41 0
155 43 0
155 45 0
155 47 0
155 49 0
155 51 0
155 53 0
155 55 0
155 57 0
155 59 0
155 61 0
155 63 0
155 65 0
155 67 0
155 69 0
155 71 0
155 73 0
155 75 0
155 77 0
155 79 0
155 81 0
155 83 0
155 85 0
155 87 0
155 89 0
155 91 0
155 93 0
155 95 0
155 97 0
155 99 0
155 101 0
155 103 0
155 105 0
155 107 0
155 109 0
155 111 0
155 113 0
155 115 0
155 117 0
155 119 0
155 121 0
155 123 0
155 125 0
155 127 0
155 129 0
155 131 0
155 133 0
155 135 0
155 137 0
155 139 0
155 141 0
155 143 0
155 145 0
155 147 0
155 149 0
155 151 0
155 153 0
155 155 0
155 157 0
155 159 0
155 161 0
155 163 0
155 165 0
155 167 0
155 169 0
155 171 0
155 173 0
155 175 0
155 177 0
155 179 0
155 181 0
155 183 0
155 185 0
155 187 0
155 189 0
155 191 0
155 193 0
155 195 0
155 197 0
155 199 0
155 201 0
155 203 0
155 205 0
155 207 0
155 209 0
155 211 0
155 213 0
155 215 0
155 217 0
155 219 0
155 221 0
155 223 0
155 225 0
155 227 0
155 229 0
155 231 0
155 233 0
155 235 0
155 237 0
155 239 0
155 241 0
155 243 0
155 245 0
155 247 0
155 249 0
155 251 0
155 253 0
157 0 0
157 1 0
157 3 0
157 5 0
157 7 0
157 9 0
157 11 0
157 13 0
157 15 0
157 17 0
157 19 0
157 21 0
157 23 0
157 25 0
157 27 0
157 29 0
157 31 0
157 33 0
157 35 0
157 37 0
157 39 0
157 41 0
157 43 0
157 45 0
157 47 0
157 49 0
157 51 0
157 53 0
157 55 0
157 57 0
157 59 0
157 61 0
157 63 0
157 65 0
157 67 0
157 69 0
157 71 0
157 73 0
157 75 0
157 77 0
157 79 0
157 81 0
157 83 0
157 85 0
157 87 0
157 89 0
157 91 0
157 93 0
157 95 0
157 97 0
157 99 0
157 101 0
157 103 0
157 105 0
157 107 0
157 109 0
157 111 0
157 113 0
157 115 0
157 117 0
157 119 0
157 121 0
157 123 0
157 125 0
157 127 0
157 129 0
157 131 0
157 133 0
157 135 0
157 137 0
157 139 0
157 141 0
157 143 0
157 145 0
157 147 0
157 149 0
157 151 0
157 153 0
157 155 0
157 157 0
157 159 0
157 161 0
157 163 0
157 165 0
157 167 0
157 169 0
157 171 0
157 173 0
157 175 0
157 177 0
157 179 0
157 181 0
157 183 0
157 185 0
157 187 0
157 189 0
157 191 0
157 193 0
157 195 0
157 197 0
157 199 0
157 201 0
157 203 0
157 205 0
157 207 0
157 209 0
157 211 0
157 213 0
157 215 0
157 217 0
157 219 0
157 221 0
157 223 0
157 225 0
157 227 0
157 229 0
157 231 0
157 233 0
157 235 0
157 237 0
157 239 0
157 241 0
157 243 0
157 245 0
157 247 0
157 249 0
157 251 0
157 253 0
159 0 0
159 1 0
159 3 0
159 5 0
159 7 0
159 9 0
159 11 0
159 13 0
159 15 0
159 17 0
159 19 0
159 21 0
159 23 0
159 25 0
159 27 0
159 29 0
159 31 0
159 33 0
159 35 0
159 37 0
159 39 0
159 41 0
159 43 0
159 45 0
159 47 0
159 49 0
159 51 0
159 53 0
159 55 0
159 57 0
159 59 0
159 61 0
159 63 0
159 65 0
159 67 0
159 69 0
159 71 0
159 73 0
159 75 0
159 77 0
159 79 0
159 81 0
159 83 0
159 85 0
159 87 0
159 89 0
159 91 0
159 93 0
159 95 0
159 97 0
159 99 0
159 101 0
159 103 0
159 105 0
159 107 0
159 109 0
159 111 0
159 113 0
159 115 0
159 117 0
159 119 0
159 121 0
159 123 0
159 125 0
159 127 0
159 129 0
159 131 0
159 133 0
159 135 0
159 137 0
159 139 0
159 141 0
159 143 0
159 145 0
159 147 0
159 149 0
159 151 0
159 153 0
159 155 0
159 157 0
159 159 0
159 161 0
159 163 0
159 165 0
159 167 0
159 169 0
159 171 0
159 173 0
159 175 0
159 177 0
159 179 0
159 181 0
159 183 0
159 185 0
159 187 0
159 189 0
159 191 0
159 193 0
159 195 0
159 197 0
159 199 0
159 201 0
159 203 0
159 205 0
159 207 0
159 209 0
159 211 0
159 213 0
159 215 0
159 217 0
159 219 0
159 221 0
159 223 0
159 225 0
159 227 0
159 229 0
159 231 0
159 233 0
159 235 0
159 237 0
159 239 0
159 241 0
159 243 0
159 245 0
159 247 0
159 249 0
159 251 0
159 253 0
161 0 0
161 1 0
161 3 0
161 5 0
161 7 0
161 9 0
161 11 0
161 13 0
161 15 0
161 17 0
161 19 0
161 21 0
161 23 0
161 25 0
161 27 0
161 29 0
161 31 0
161 33 0
161 35 0
161 37 0
161 39 0
161 41 0
161 43 0
161 45 0
161 47 0
161 49 0
161 51 0
161 53 0
161 55 0
161 57 0
161 59 0
161 61 0
161 63 0
161 65 0
161 67 0
161 69 0
161 71 0
161 73 0
161 75 0
161 77 0
161 79 0
161 81 0
161 83 0
161 85 0
161 87 0
161 89 0
161 91 0
161 93 0
161 95 0
161 97 0
161 99 0
161 101 0
161 103 0
161 105 0
161 107 0
161 109 0
161 111 0
161 113 0
161 115 0
161 117 0
161 119 0
161 121 0
161 123 0
161 125 0
161 127 0
161 129 0
161 131 0
161 133 0
161 135 0
161 137 0
161 139 0
161 141 0
161 143 0
161 145 0
161 147 0
161 149 0
161 151 0
161 153 0
161 155 0
161 157 0
161 159 0
161 161 0
161 163 0
161 165 0
161 167 0
161 169 0
161 171 0
161 173 0
161 175 0
161 177 0
161 179 0
161 181 0
161 183 0
161 185 0
161 187 0
161 189 0
161 191 0
161 193 0
161 195 0
161 197 0
161 199 0
161 201 0
161 203 0
161 205 0
161 207 0
161 209 0
161 211 0
161 213 0
161 215 0
161 217 0
161 219 0
161 221 0
161 223 0
161 225 0
161 227 0
161 229 0
161 231 0
161 233 0
161 235 0
161 237 0
161 239 0
161 241 0
161 243 0
161 245 0
161 247 0
161 249 0
161 251 0
161 253 0
163 0 0
163 1 0
163 3 0
163 5 0
163 7 0
163 9 0
163 11 0
163 13 0
163 15 0
163 17 0
163 19 0
163 21 0
163 23 0
163 25 0
163 27 0
163 29 0
163 31 0
163 33 0
163 35 0
163 37 0
163 39 0
163 41 0
163 43 0
163 45 0
163 47 0
163 49 0
163 51 0
163 53 0
163 55 0
163 57 0
163 59 0
163 61 0
163 63 0
163 65 0
163 67 0
163 69 0
163 71 0
163 73 0
163 75 0
163 77 0
163 79 0
163 81 0
163 83 0
163 85 0
163 87 0
163 89 0
163 91 0
163 93 0
163 95 0
163 97 0
163 99 0
163 101 0
163 103 0
163 105 0
163 107 0
163 109 0
163 111 0
163 113 0
163 115 0
163 117 0
163 119 0
163 121 0
163 123 0
163 125 0
163 127 0
163 129 0
163 131 0
163 133 0
163 135 0
163 137 0
163 139 0
163 141 0
163 143 0
163 145 0
163 147 0
163 149 0
163 151 0
163 153 0
163 155 0
163 157 0
163 159 0
163 161 0
163 163 0
163 165 0
163 167 0
163 169 0
163 171 0
163 173 0
163 175 0
163 177 0
163 179 0
163 181 0
163 183 0
163 185 0
163 187 0
163 189 0
163 191 0
163 193 0
163 195 0
163 197 0
163 199 0
163 201 0
163 203 0
163 205 0
163 207 0
163 209 0
163 211 0
163 213 0
163 215 0
163 217 0
163 219 0
163 221 0
163 223 0
163 225 0
163 227 0
163 229 0
163 231 0
163 233 0
163 235 0
163 237 0
163 239 0
163 241 0
163 243 0
163 245 0
163 247 0
163 249 0
163 251 0
163 253 0
165 0 0
165 1 0
165 3 0
165 5 0
165 7 0
165 9 0
165 11 0
165 13 0
165 15 0
165 17 0
165 19 0
165 21 0
165 23 0
165 25 0
165 27 0
165 29 0
165 31 0
165 33 0
165 35 0
165 37 0
165 39 0
165 41 0
165 43 0
165 45 0
165 47 0
165 49 0
165 51 0
165 53 0
165 55 0
165 57 0
165 59 0
165 61 0
165 63 0
165 65 0
165 67 0
165 69 0
165 71 0
165 73 0
165 75 0
165 77 0
165 79 0
165 81 0
165 83 0
165 85 0
165 87 0
165 89 0
165 91 0
165 93 0
165 95 0
165 97 0
165 99 0
165 101 0
165 103 0
165 105 0
165 107 0
165 109 0
165 111 0
165 113 0
165 115 0
165 117 0
165 119 0
165 121 0
165 123 0
165 125 0
165 127 0
165 129 0
165 131 0
165 133 0
165 135 0
165 137 0
165 139 0
165 141 0
165 143 0
165 145 0
165 147 0
165 149 0
165 151 0
165 153 0
165 155 0
165 157 0
165 159 0
165 161 0
165 163 0
165 165 0
165 167 0
165 169 0
165 171 0
165 173 0
165 175 0
165 177 0
165 179 0
165 181 0
165 183 0
165 185 0
165 187 0
165 189 0
165 191 0
165 193 0
165 195 0
165 197 0
165 199 0
165 201 0
165 203 0
165 205 0
165 207 0
165 209 0
165 211 0
165 213 0
165 215 0
165 217 0
165 219 0
165 221 0
165 223 0
165 225 0
165 227 0
165 229 0
165 231 0
165 233 0
165 235 0
165 237 0
165 239 0
165 241 0
165 243 0
165 245 0
165 247 0
165 249 0
165 251 0
165 253 0
167 0 0
167 1 0
167 3 0
167 5 0
167 7 0
167 9 0
167 11 0
167 13 0
167 15 0
167 17 0
167 19 0
167 21 0
167 23 0
167 25 0
167 27 0
167 29 0
167 31 0
167 33 0
167 35 0
167 37 0
167 39 0
167 41 0
167 43 0
167 45 0
167 47 0
167 49 0
167 51 0
167 53 0
167 55 0
167 57 0
167 59 0
167 61 0
167 63 0
167 65 0
167 67 0
167 69 0
167 71 0
167 73 0
167 75 0
167 77 0
167 79 0
167 81 0
167 83 0
167 85 0
167 87 0
167 89 0
167 91 0
167 93 0
167 95 0
167 97 0
167 99 0
167 101 0
167 103 0
167 105 0
167 107 0
167 109 0
167 111 0
167 113 0
167 115 0
167 117 0
167 119 0
167 121 0
167 123 0
167 125 0
167 127 0
167 129 0
167 131 0
167 133 0
167 135 0
167 137 0
167 139 0
167 141 0
167 143 0
167 145 0
167 147 0
167 149 0
167 151 0
167 153 0
167 155 0
167 157 0
167 159 0
167 161 0
167 163 0
167 165 0
167 167 0
167 169 0
167 171 0
167 173 0
167 175 0
167 177 0
167 179 0
167 181 0
167 183 0
167 185 0
167 187 0
167 189 0
167 191 0
167 193 0
167 195 0
167 197 0
167 199 0
167 201 0
167 203 0
167 205 0
167 207 0
167 209 0
167 211 0
167 213 0
167 215 0
167 217 0
167 219 0
167 221 0
167 223 0
167 225 0
167 227 0
167 229 0
167 231 0
167 233 0
167 235 0
167 237 0
167 239 0
167 241 0
167 243 0
167 245 0
167 247 0
167 249 0
167 251 0
167 253 0
169 0 0
169 1 0
169 3 0
169 5 0
169 7 0
169 9 0
169 11 0
169 13 0
169 15 0
169 17 0
169 19 0
169 21 0
169 23 0
169 25 0
169 27 0
169 29 0
169 31 0
169 33 0
169 35 0
169 37 0
169 39 0
169 41 0
169 43 0
169 45 0
169 47 0
169 49 0
169 51 0
169 53 0
169 55 0
169 57 0
169 59 0
169 61 0
169 63 0
169 65 0
169 67 0
169 69 0
169 71 0
169 73 0
169 75 0
169 77 0
169 79 0
169 81 0
169 83 0
169 85 0
169 87 0
169 89 0
169 91 0
169 93 0
169 95 0
169 97 0
169 99 0
169 101 0
169 103 0
169 105 0
169 107 0
169 109 0
169 111 0
169 113 0
169 115 0
169 117 0
169 119 0
169 121 0
169 123 0
169 125 0
169 127 0
169 129 0
169 131 0
169 133 0
169 135 0
169 137 0
169 139 0
169 141 0
169 143 0
169 145 0
169 147 0
169 149 0
169 151 0
169 153 0
169 155 0
169 157 0
169 159 0
169 161 0
169 163 0
169 165 0
169 167 0
169 169 0
169 171 0
169 173 0
169 175 0
169 177 0
169 179 0
169 181 0
169 183 0
169 185 0
169 187 0
169 189 0
169 191 0
169 193 0
169 195 0
169 197 0
169 199 0
169 201 0
169 203 0
169 205 0
169 207 0
169 209 0
169 211 0
169 213 0
169 215 0
169 217 0
169 219 0
169 221 0
169 223 0
169 225 0
169 227 0
169 229 0
169 231 0
169 233 0
169 235 0
169 237 0
169 239 0
169 241 0
169 243 0
169 245 0
169 247 0
169 249 0
169 251 0
169 253 0
171 0 0
171 1 0
171 3 0
171 5 0
171 7 0
171 9 0
171 11 0
171 13 0
171 15 0
171 17 0
171 19 0
171 21 0
171 23 0
171 25 0
171 27 0
171 29 0
171 31 0
171 33 0
171 35 0
171 37 0
171 39 0
171 41 0
171 43 0
171 45 0
171 47 0
171 49 0
171 51 0
171 53 0
171 55 0
171 57 0
171 59 0
171 61 0
171 63 0
171 65 0
171 67 0
171 69 0
171 71 0
171 73 0
171 75 0
171 77 0
171 79 0
171 81 0
171 83 0
171 85 0
171 87 0
171 89 0
171 91 0
171 93 0
171 95 0
171 97 0
171 99 0
171 101 0
171 103 0
171 105 0
171 107 0
171 109 0
171 111 0
171 113 0
171 115 0
171 117 0
171 119 0
171 121 0
171 123 0
171 125 0
171 127 0
171 129 0
171 131 0
171 133 0
171 135 0
171 137 0
171 139 0
171 141 0
171 143 0
171 145 0
171 147 0
171 149 0
171 151 0
171 153 0
171 155 0
171 157 0
171 159 0
171 161 0
171 163 0
171 165 0
171 167 0
171 169 0
171 171 0
171 173 0
171 175 0
171 177 0
171 179 0
171 181 0
171 183 0
171 185 0
171 187 0
171 189 0
171 191 0
171 193 0
171 195 0
171 197 0
171 199 0
171 201 0
171 203 0
171 205 0
171 207 0
171 209 0
171 211 0
171 213 0
171 215 0
171 217 0
171 219 0
171 221 0
171 223 0
171 225 0
171 227 0
171 229 0
171 231 0
171 233 0
171 235 0
171 237 0
171 239 0
171 241 0
171 243 0
171 245 0
171 247 0
171 249 0
171 251 0
171 253 0
173 0 0
173 1 0
173 3 0
173 5 0
173 7 0
173 9 0
173 11 0
173 13 0
173 15 0
173 17 0
173 19 0
173 21 0
173 23 0
173 25 0
173 27 0
173 29 0
173 31 0
173 33 0
173 35 0
173 37 0
173 39 0
173 41 0
173 43 0
173 45 0
173 47 0
173 49 0
173 51 0
173 53 0
173 55 0
173 57 0
173 59 0
173 61 0
173 63 0
173 65 0
173 67 0
173 69 0
173 71 0
173 73 0
173 75 0
173 77 0
173 79 0
173 81 0
173 83 0
173 85 0
173 87 0
173 89 0
173 91 0
173 93 0
173 95 0
173 97 0
173 99 0
173 101 0
173 103 0
173 105 0
173 107 0
173 109 0
173 111 0
173 113 0
173 115 0
173 117 0
173 119 0
173 121 0
173 123 0
173 125 0
173 127 0
173 129 0
173 131 0
173 133 0
173 135 0
173 137 0
173 139 0
173 141 0
173 143 0
173 145 0
173 147 0
173 149 0
173 151 0
173 153 0
173 155 0
173 157 0
173 159 0
173 161 0
173 163 0
173 165 0
173 167 0
173 169 0
173 171 0
173 173 0
173 175 0
173 177 0
173 179 0
173 181 0
173 183 0
173 185 0
173 187 0
173 189 0
173 191 0
173 193 0
173 195 0
173 197 0
173 199 0
173 201 0
173 203 0
173 205 0
173 207 0
173 209 0
173 211 0
173 213 0
173 215 0
173 217 0
173 219 0
173 221 0
173 223 0
173 225 0
173 227 0
173 229 0
173 231 0
173 233 0
173 235 0
173 237 0
173 239 0
173 241 0
173 243 0
173 245 0
173 247 0
173 249 0
173 251 0
173 253 0
175 0 0
175 1 0
175 3 0
175 5 0
175 7 0
175 9 0
175 11 0
175 13 0
175 15 0
175 17 0
175 19 0
175 21 0
175 23 0
175 25 0
175 27 0
175 29 0
175 31 0
175 33 0
175 35 0
175 37 0
175 39 0
175 41 0
175 43 0
175 45 0
175 47 0
175 49 0
175 51 0
175 53 0
175 55 0
175 57 0
175 59 0
175 61 0
175 63 0
175 65 0
175 67 0
175 69 0
175 71 0
175 73 0
175 75 0
175 77 0
175 79 0
175 81 0
175 83 0
175 85 0
175 87 0
175 89 0
175 91 0
175 93 0
175 95 0
175 97 0
175 99 0
175 101 0
175 103 0
175 105 0
175 107 0
175 109 0
175 111 0
175 113 0
175 115 0
175 117 0
175 119 0
175 121 0
175 123 0
175 125 0
175 127 0
175 129 0
175 131 0
175 133 0
175 135 0
175 137 0
175 139 0
175 141 0
175 143 0
175 145 0
175 147 0
175 149 0
175 151 0
175 153 0
175 155 0
175 157 0
175 159 0
175 161 0
175 163 0
175 165 0
175 167 0
175 169 0
175 171 0
175 173 0
175 175 0
175 177 0
175 179 0
175 181 0
175 183 0
175 185 0
175 187 0
175 189 0
175 191 0
175 193 0
175 195 0
175 197 0
175 199 0
175 201 0
175 203 0
175 205 0
175 207 0
175 209 0
175 211 0
175 213 0
175 215 0
175 217 0
175 219 0
175 221 0
175 223 0
175 225 0
175 227 0
175 229 0
175 231 0
175 233 0
175 235 0
175 237 0
175 239 0
175 241 0
175 243 0
175 245 0
175 247 0
175 249 0
175 251 0
175 253 0
177 0 0
177 1 0
177 3 0
177 5 0
177 7 0
177 9 0
177 11 0
177 13 0
177 15 0
177 17 0
177 19 0
177 21 0
177 23 0
177 25 0
177 27 0
177 29 0
177 31 0
177 33 0
177 35 0
177 37 0
177 39 0
177 41 0
177 43 0
177 45 0
177 47 0
177 49 0
177 51 0
177 53 0
177 55 0
177 57 0
177 59 0
177 61 0
177 63 0
177 65 0
177 67 0
177 69 0
177 71 0
177 73 0
177 75 0
177 77 0
177 79 0
177 81 0
177 83 0
177 85 0
177 87 0
177 89 0
177 91 0
177 93 0
177 95 0
177 97 0
177 99 0
177 101 0
177 103 0
177 105 0
177 107 0
177 109 0
177 111 0
177 113 0
177 115 0
177 117 0
177 119 0
177 121 0
177 123 0
177 125 0
177 127 0
177 129 0
177 131 0
177 133 0
177 135 0
177 137 0
177 139 0
177 141 0
177 143 0
177 145 0
177 147 0
177 149 0
177 151 0
177 153 0
177 155 0
177 157 0
177 159 0
177 161 0
177 163 0
177 165 0
177 167 0
177 169 0
177 171 0
177 173 0
177 175 0
177 177 0
177 179 0
177 181 0
177 183 0
177 185 0
177 187 0
177 189 0
177 191 0
177 193 0
177 195 0
177 197 0
177 199 0
177 201 0
177 203 0
177 205 0
177 207 0
177 209 0
177 211 0
177 213 0
177 215 0
177 217 0
177 219 0
177 221 0
177 223 0
177 225 0
177 227 0
177 229 0
177 231 0
177 233 0
177 235 0
177 237 0
177 239 0
177 241 0
177 243 0
177 245 0
177 247 0
177 249 0
177 251 0
177 253 0
179 0 0
179 1 0
179 3 0
179 5 0
179 7 0
179 9 0
179 11 0
179 13 0
179 15 0
179 17 0
179 19 0
179 21 0
179 23 0
179 25 0
179 27 0
179 29 0
179 31 0
179 33 0
179 35 0
179 37 0
179 39 0
179 41 0
179 43 0
179 45 0
179 47 0
179 49 0
179 51 0
179 53 0
179 55 0
179 57 0
179 59 0
179 61 0
179 63 0
179 65 0
179 67 0
179 69 0
179 71 0
179 73 0
179 75 0
179 77 0
179 79 0
179 81 0
179 83 0
179 85 0
179 87 0
179 89 0
179 91 0
179 93 0
179 95 0
179 97 0
179 99 0
179 101 0
179 103 0
179 105 0
179 107 0
179 109 0
179 111 0
179 113 0
179 115 0
179 117 0
179 119 0
179 121 0
179 123 0
179 125 0
179 127 0
179 129 0
179 131 0
179 133 0
179 135 0
179 137 0
179 139 0
179 141 0
179 143 0
179 145 0
179 147 0
179 149 0
179 151 0
179 153 0
179 155 0
179 157 0
179 159 0
179 161 0
179 163 0
179 165 0
179 167 0
179 169 0
179 171 0
179 173 0
179 175 0
179 177 0
179 179 0
179 181 0
179 183 0
179 185 0
179 187 0
179 189 0
179 191 0
179 193 0
179 195 0
179 197 0
179 199 0
179 201 0
179 203 0
179 205 0
179 207 0
179 209 0
179 211 0
179 213 0
179 215 0
179 217 0
179 219 0
179 221 0
179 223 0
179 225 0
179 227 0
179 229 0
179 231 0
179 233 0
179 235 0
179 237 0
179 239 0
179 241 0
179 243 0
179 245 0
179 247 0
179 249 0
179 251 0
179 253 0
181 0 0
181 1 0
181 3 0
181 5 0
181 7 0
181 9 0
181 11 0
181 13 0
181 15 0
181 17 0
181 19 0
181 21 0
181 23 0
181 25 0
181 27 0
181 29 0
181 31 0
181 33 0
181 35 0
181 37 0
181 39 0
181 41 0
181 43 0
181 45 0
181 47 0
181 49 0
181 51 0
181 53 0
181 55 0
181 57 0
181 59 0
181 61 0
181 63 0
181 65 0
181 67 0
181 69 0
181 71 0
181 73 0
181 75 0
181 77 0
181 79 0
181 81 0
181 83 0
181 85 0
181 87 0
181 89 0
181 91 0
181 93 0
181 95 0
181 97 0
181 99 0
181 101 0
181 103 0
181 105 0
181 107 0
181 109 0
181 111 0
181 113 0
181 115 0
181 117 0
181 119 0
181 121 0
181 123 0
181 125 0
181 127 0
181 129 0
181 131 0
181 133 0
181 135 0
181 137 0
181 139 0
181 141 0
181 143 0
181 145 0
181 147 0
181 149 0
181 151 0
181 153 0
181 155 0
181 157 0
181 159 0
181 161 0
181 163 0
181 165 0
181 167 0
181 169 0
181 171 0
181 173 0
181 175 0
181 177 0
181 179 0
181 181 0
181 183 0
181 185 0
181 187 0
181 189 0
181 191 0
181 193 0
181 195 0
181 197 0
181 199 0
181 201 0
181 203 0
181 205 0
181 207 0
181 209 0
181 211 0
181 213 0
181 215 0
181 217 0
181 219 0
181 221 0
181 223 0
181 225 0
181 227 0
181 229 0
181 231 0
181 233 0
181 235 0
181 237 0
181 239 0
181 241 0
181 243 0
181 245 0
181 247 0
181 249 0
181 251 0
181 253 0
183 0 0
183 1 0
183 3 0
183 5 0
183 7 0
183 9 0
183 11 0
183 13 0
183 15 0
183 17 0
183 19 0
183 21 0
183 23 0
183 25 0
183 27 0
183 29 0
183 31 0
183 33 0
183 35 0
183 37 0
183 39 0
183 41 0
183 43 0
183 45 0
183 47 0
183 49 0
183 51 0
183 53 0
183 55 0
183 57 0
183 59 0
183 61 0
183 63 0
183 65 0
183 67 0
183 69 0
183 71 0
183 73 0
183 75 0
183 77 0
183 79 0
183 81 0
183 83 0
183 85 0
183 87 0
183 89 0
183 91 0
183 93 0
183 95 0
183 97 0
183 99 0
183 101 0
183 103 0
183 105 0
183 107 0
183 109 0
183 111 0
183 113 0
183 115 0
183 117 0
183 119 0
183 121 0
183 123 0
183 125 0
183 127 0
183 129 0
183 131 0
183 133 0
183 135 0
183 137 0
183 139 0
183 141 0
183 143 0
183 145 0
183 147 0
183 149 0
183 151 0
183 153 0
183 155 0
183 157 0
183 159 0
183 161 0
183 163 0
183 165 0
183 167 0
183 169 0
183 171 0
183 173 0
183 175 0
183 177 0
183 179 0
183 181 0
183 183 0
183 185 0
183 187 0
183 189 0
183 191 0
183 193 0
183 195 0
183 197 0
183 199 0
183 201 0
183 203 0
183 205 0
183 207 0
183 209 0
183 211 0
183 213 0
183 215 0
183 217 0
183 219 0
183 221 0
183 223 0
183 225 0
183 227 0
183 229 0
183 231 0
183 233 0
183 235 0
183 237 0
183 239 0
183 241 0
183 243 0
183 245 0
183 247 0
183 249 0
183 251 0
183 253 0
185 0 0
185 1 0
185 3 0
185 5 0
185 7 0
185 9 0
185 11 0
185 13 0
185 15 0
185 17 0
185 19 0
185 21 0
185 23 0
185 25 0
185 27 0
185 29 0
185 31 0
185 33 0
185 35 0
185 37 0
185 39 0
185 41 0
185 43 0
185 45 0
185 47 0
185 49 0
185 51 0
185 53 0
185 55 0
185 57 0
185 59 0
185 61 0
185 63 0
185 65 0
185 67 0
185 69 0
185 71 0
185 73 0
185 75 0
185 77 0
185 79 0
185 81 0
185 83 0
185 85 0
185 87 0
185 89 0
185 91 0
185 93 0
185 95 0
185 97 0
185 99 0
185 101 0
185 103 0
185 105 0
185 107 0
185 109 0
185 111 0
185 113 0
185 115 0
185 117 0
185 119 0
185 121 0
185 123 0
185 125 0
185 127 0
185 129 0
185 131 0
185 133 0
185 135 0
185 137 0
185 139 0
185 141 0
185 143 0
185 145 0
185 147 0
185 149 0
185 151 0
185 153 0
185 155 0
185 157 0
185 159 0
185 161 0
185 163 0
185 165 0
185 167 0
185 169 0
185 171 0
185 173 0
185 175 0
185 177 0
185 179 0
185 181 0
185 183 0
185 185 0
185 187 0
185 189 0
185 191 0
185 193 0
185 195 0
185 197 0
185 199 0
185 201 0
185 203 0
185 205 0
185 207 0
185 209 0
185 211 0
185 213 0
185 215 0
185 217 0
185 219 0
185 221 0
185 223 0
185 225 0
185 227 0
185 229 0
185 231 0
185 233 0
185 235 0
185 237 0
185 239 0
185 241 0
185 243 0
185 245 0
185 247 0
185 249 0
185 251 0
185 253 0
187 0 0
187 1 0
187 3 0
187 5 0
187 7 0
187 9 0
187 11 0
187 13 0
187 15 0
187 17 0
187 19 0
187 21 0
187 23 0
187 25 0
187 27 0
187 29 0
187 31 0
187 33 0
187 35 0
187 37 0
187 39 0
187 41 0
187 43 0
187 45 0
187 47 0
187 49 0
187 51 0
187 53 0
187 55 0
187 57 0
187 59 0
187 61 0
187 63 0
187 65 0
187 67 0
187 69 0
187 71 0
187 73 0
187 75 0
187 77 0
187 79 0
187 81 0
187 83 0
187 85 0
187 87 0
187 89 0
187 91 0
187 93 0
187 95 0
187 97 0
187 99 0
187 101 0
187 103 0
187 105 0
187 107 0
187 109 0
187 111 0
187 113 0
187 115 0
187 117 0
187 119 0
187 121 0
187 123 0
187 125 0
187 127 0
187 129 0
187 131 0
187 133 0
187 135 0
187 137 0
187 139 0
187 141 0
187 143 0
187 145 0
187 147 0
187 149 0
187 151 0
187 153 0
187 155 0
187 157 0
187 159 0
187 161 0
187 163 0
187 165 0
187 167 0
187 169 0
187 171 0
187 173 0
187 175 0
187 177 0
187 179 0
187 181 0
187 183 0
187 185 0
187 187 0
187 189 0
187 191 0
187 193 0
187 195 0
187 197 0
187 199 0
187 201 0
187 203 0
187 205 0
187 207 0
187 209 0
187 211 0
187 213 0
187 215 0
187 217 0
187 219 0
187 221 0
187 223 0
187 225 0
187 227 0
187 229 0
187 231 0
187 233 0
187 235 0
187 237 0
187 239 0
187 241 0
187 243 0
187 245 0
187 247 0
187 249 0
187 251 0
187 253 0
189 0 0
189 1 0
189 3 0
189 5 0
189 7 0
189 9 0
189 11 0
189 13 0
189 15 0
189 17 0
189 19 0
189 21 0
189 23 0
189 25 0
189 27 0
189 29 0
189 31 0
189 33 0
189 35 0
189 37 0
189 39 0
189 41 0
189 43 0
189 45 0
189 47 0
189 49 0
189 51 0
189 53 0
189 55 0
189 57 0
189 59 0
189 61 0
189 63 0
189 65 0
189 67 0
189 69 0
189 71 0
189 73 0
189 75 0
189 77 0
189 79 0
189 81 0
189 83 0
189 85 0
189 87 0
189 89 0
189 91 0
189 93 0
189 95 0
189 97 0
189 99 0
189 101 0
189 103 0
189 105 0
189 107 0
189 109 0
189 111 0
189 113 0
189 115 0
189 117 0
189 119 0
189 121 0
189 123 0
189 125 0
189 127 0
189 129 0
189 131 0
189 133 0
189 135 0
189 137 0
189 139 0
189 141 0
189 143 0
189 145 0
189 147 0
189 149 0
189 151 0
189 153 0
189 155 0
189 157 0
189 159 0
189 161 0
189 163 0
189 165 0
189 167 0
189 169 0
189 171 0
189 173 0
189 175 0
189 177 0
189 179 0
189 181 0
189 183 0
189 185 0
189 187 0
189 189 0
189 191 0
189 193 0
189 195 0
189 197 0
189 199 0
189 201 0
189 203 0
189 205 0
189 207 0
189 209 0
189 211 0
189 213 0
189 215 0
189 217 0
189 219 0
189 221 0
189 223 0
189 225 0
189 227 0
189 229 0
189 231 0
189 233 0
189 235 0
189 237 0
189 239 0
189 241 0
189 243 0
189 245 0
189 247 0
189 249 0
189 251 0
189 253 0
191 0 0
191 1 0
191 3 0
191 5 0
191 7 0
191 9 0
191 11 0
191 13 0
191 15 0
191 17 0
191 19 0
191 21 0
191 23 0
191 25 0
191 27 0
191 29 0
191 31 0
191 33 0
191 35 0
191 37 0
191 39 0
191 41 0
191 43 0
191 45 0
191 47 0
191 49 0
191 51 0
191 53 0
191 55 0
191 57 0
191 59 0
191 61 0
191 63 0
191 65 0
191 67 0
191 69 0
191 71 0
191 73 0
191 75 0
191 77 0
191 79 0
191 81 0
191 83 0
191 85 0
191 87 0
191 89 0
191 91 0
191 93 0
191 95 0
191 97 0
191 99 0
191 101 0
191 103 0
191 105 0
191 107 0
191 109 0
191 111 0
191 113 0
191 115 0
191 117 0
191 119 0
191 121 0
191 123 0
191 125 0
191 127 0
191 129 0
191 131 0
191 133 0
191 135 0
191 137 0
191 139 0
191 141 0
191 143 0
191 145 0
191 147 0
191 149 0
191 151 0
191 153 0
191 155 0
191 157 0
191 159 0
191 161 0
191 163 0
191 165 0
191 167 0
191 169 0
191 171 0
191 173 0
191 175 0
191 177 0
191 179 0
191 181 0
191 183 0
191 185 0
191 187 0
191 189 0
191 191 0
191 193 0
191 195 0
191 197 0
191 199 0
191 201 0
191 203 0
191 205 0
191 207 0
191 209 0
191 211 0
191 213 0
191 215 0
191 217 0
191 219 0
191 221 0
191 223 0
191 225 0
191 227 0
191 229 0
191 231 0
191 233 0
191 235 0
191 237 0
191 239 0
191 241 0
191 243 0
191 245 0
191 247 0
191 249 0
191 251 0
191 253 0
193 0 0
193 1 0
193 3 0
193 5 0
193 7 0
193 9 0
193 11 0
193 13 0
193 15 0
193 17 0
193 19 0
193 21 0
193 23 0
193 25 0
193 27 0
193 29 0
193 31 0
193 33 0
193 35 0
193 37 0
193 39 0
193 41 0
193 43 0
193 45 0
193 47 0
193 49 0
193 51 0
193 53 0
193 55 0
193 57 0
193 59 0
193 61 0
193 63 0
193 65 0
193 67 0
193 69 0
193 71 0
193 73 0
193 75 0
193 77 0
193 79 0
193 81 0
193 83 0
193 85 0
193 87 0
193 89 0
193 91 0
193 93 0
193 95 0
193 97 0
193 99 0
193 101 0
193 103 0
193 105 0
193 107 0
193 109 0
193 111 0
193 113 0
193 115 0
193 117 0
193 119 0
193 121 0
193 123 0
193 125 0
193 127 0
193 129 0
193 131 0
193 133 0
193 135 0
193 137 0
193 139 0
193 141 0
193 143 0
193 145 0
193 147 0
193 149 0
193 151 0
193 153 0
193 155 0
193 157 0
193 159 0
193 161 0
193 163 0
193 165 0
193 167 0
193 169 0
193 171 0
193 173 0
193 175 0
193 177 0
193 179 0
193 181 0
193 183 0
193 185 0
193 187 0
193 189 0
193 191 0
193 193 0
193 195 0
193 197 0
193 199 0
193 201 0
193 203 0
193 205 0
193 207 0
193 209 0
193 211 0
193 213 0
193 215 0
193 217 0
193 219 0
193 221 0
193 223 0
193 225 0
193 227 0
193 229 0
193 231 0
193 233 0
193 235 0
193 237 0
193 239 0
193 241 0
193 243 0
193 245 0
193 247 0
193 249 0
193 251 0
193 253 0
195 0 0
195 1 0
195 3 0
195 5 0
195 7 0
195 9 0
195 11 0
195 13 0
195 15 0
195 17 0
195 19 0
195 21 0
195 23 0
195 25 0
195 27 0
195 29 0
195 31 0
195 33 0
195 35 0
195 37 0
195 39 0
195 41 0
195 43 0
195 45 0
195 47 0
195 49 0
195 51 0
195 53 0
195 55 0
195 57 0
195 59 0
195 61 0
195 63 0
195 65 0
195 67 0
195 69 0
195 71 0
195 73 0
195 75 0
195 77 0
195 79 0
195 81 0
195 83 0
195 85 0
195 87 0
195 89 0
195 91 0
195 93 0
195 95 0
195 97 0
195 99 0
195 101 0
195 103 0
195 105 0
195 107 0
195 109 0
195 111 0
195 113 0
195 115 0
195 117 0
195 119 0
195 121 0
195 123 0
195 125 0
195 127 0
195 129 0
195 131 0
195 133 0
195 135 0
195 137 0
195 139 0
195 141 0
195 143 0
195 145 0
195 147 0
195 149 0
195 151 0
195 153 0
195 155 0
195 157 0
195 159 0
195 161 0
195 163 0
195 165 0
195 167 0
195 169 0
195 171 0
195 173 0
195 175 0
195 177 0
195 179 0
195 181 0
195 183 0
195 185 0
195 187 0
195 189 0
195 191 0
195 193 0
195 195 0
195 197 0
195 199 0
195 201 0
195 203 0
195 205 0
195 207 0
195 209 0
195 211 0
195 213 0
195 215 0
195 217 0
195 219 0
195 221 0
195 223 0
195 225 0
195 227 0
195 229 0
195 231 0
195 233 0
195 235 0
195 237 0
195 239 0
195 241 0
195 243 0
195 245 0
195 247 0
195 249 0
195 251 0
195 253 0
197 0 0
197 1 0
197 3 0
197 5 0
197 7 0
197 9 0
197 11 0
197 13 0
197 15 0
197 17 0
197 19 0
197 21 0
197 23 0
197 25 0
197 27 0
197 29 0
197 31 0
197 33 0
197 35 0
197 37 0
197 39 0
197 41 0
197 43 0
197 45 0
197 47 0
197 49 0
197 51 0
197 53 0
197 55 0
197 57 0
197 59 0
197 61 0
197 63 0
197 65 0
197 67 0
197 69 0
197 71 0
197 73 0
197 75 0
197 77 0
197 79 0
197 81 0
197 83 0
197 85 0
197 87 0
197 89 0
197 91 0
197 93 0
197 95 0
197 97 0
197 99 0
197 101 0
197 103 0
197 105 0
197 107 0
197 109 0
197 111 0
197 113 0
197 115 0
197 117 0
197 119 0
197 121 0
197 123 0
197 125 0
197 127 0
197 129 0
197 131 0
197 133 0
197 135 0
197 137 0
197 139 0
197 141 0
197 143 0
197 145 0
197 147 0
197 149 0
197 151 0
197 153 0
197 155 0
197 157 0
197 159 0
197 161 0
197 163 0
197 165 0
197 167 0
197 169 0
197 171 0
197 173 0
197 175 0
197 177 0
197 179 0
197 181 0
197 183 0
197 185 0
197 187 0
197 189 0
197 191 0
197 193 0
197 195 0
197 197 0
197 199 0
197 201 0
197 203 0
197 205 0
197 207 0
197 209 0
197 211 0
197 213 0
197 215 0
197 217 0
197 219 0
197 221 0
197 223 0
197 225 0
197 227 0
197 229 0
197 231 0
197 233 0
197 235 0
197 237 0
197 239 0
197 241 0
197 243 0
197 245 0
197 247 0
197 249 0
197 251 0
197 253 0
199 0 0
199 1 0
199 3 0
199 5 0
199 7 0
199 9 0
199 11 0
199 13 0
199 15 0
199 17 0
199 19 0
199 21 0
199 23 0
199 25 0
199 27 0
199 29 0
199 31 0
199 33 0
199 35 0
199 37 0
199 39 0
199 41 0
199 43 0
199 45 0
199 47 0
199 49 0
199 51 0
199 53 0
199 55 0
199 57 0
199 59 0
199 61 0
199 63 0
199 65 0
199 67 0
199 69 0
199 71 0
199 73 0
199 75 0
199 77 0
199 79 0
199 81 0
199 83 0
199 85 0
199 87 0
199 89 0
199 91 0
199 93 0
199 95 0
199 97 0
199 99 0
199 101 0
199 103 0
199 105 0
199 107 0
199 109 0
199 111 0
199 113 0
199 115 0
199 117 0
199 119 0
199 121 0
199 123 0
199 125 0
199 127 0
199 129 0
199 131 0
199 133 0
199 135 0
199 137 0
199 139 0
199 141 0
199 143 0
199 145 0
199 147 0
199 149 0
199 151 0
199 153 0
199 155 0
199 157 0
199 159 0
199 161 0
199 163 0
199 165 0
199 167 0
199 169 0
199 171 0
199 173 0
199 175 0
199 177 0
199 179 0
199 181 0
199 183 0
199 185 0
199 187 0
199 189 0
199 191 0
199 193 0
199 195 0
199 197 0
199 199 0
199 201 0
199 203 0
199 205 0
199 207 0
199 209 0
199 211 0
199 213 0
199 215 0
199 217 0
199 219 0
199 221 0
199 223 0
199 225 0
199 227 0
199 229 0
199 231 0
199 233 0
199 235 0
199 237 0
199 239 0
199 241 0
199 243 0
199 245 0
199 247 0
199 249 0
199 251 0
199 253 0
201 0 0
201 1 0
201 3 0
201 5 0
201 7 0
201 9 0
201 11 0
201 13 0
201 15 0
201 17 0
201 19 0
201 21 0
201 23 0
201 25 0
201 27 0
201 29 0
201 31 0
201 33 0
201 35 0
201 37 0
201 39 0
201 41 0
201 43 0
201 45 0
201 47 0
201 49 0
201 51 0
201 53 0
201 55 0
201 57 0
201 59 0
201 61 0
201 63 0
201 65 0
201 67 0
201 69 0
201 71 0
201 73 0
201 75 0
201 77 0
201 79 0
201 81 0
201 83 0
201 85 0
201 87 0
201 89 0
201 91 0
201 93 0
201 95 0
201 97 0
201 99 0
201 101 0
201 103 0
201 105 0
201 107 0
201 109 0
201 111 0
201 113 0
201 115 0
201 117 0
201 119 0
201 121 0
201 123 0
201 125 0
201 127 0
201 129 0
201 131 0
201 133 0
201 135 0
201 137 0
201 139 0
201 141 0
201 143 0
201 145 0
201 147 0
201 149 0
201 151 0
201 153 0
201 155 0
201 157 0
201 159 0
201 161 0
201 163 0
201 165 0
201 167 0
201 169 0
201 171 0
201 173 0
201 175 0
201 177 0
201 179 0
201 181 0
201 183 0
201 185 0
201 187 0
201 189 0
201 191 0
201 193 0
201 195 0
201 197 0
201 199 0
201 201 0
201 203 0
201 205 0
201 207 0
201 209 0
201 211 0
201 213 0
201 215 0
201 217 0
201 219 0
201 221 0
201 223 0
201 225 0
201 227 0
201 229 0
201 231 0
201 233 0
201 235 0
201 237 0
201 239 0
201 241 0
201 243 0
201 245 0
201 247 0
201 249 0
201 251 0
201 253 0
203 0 0
203 1 0
203 3 0
203 5 0
203 7 0
203 9 0
203 11 0
203 13 0
203 15 0
203 17 0
203 19 0
203 21 0
203 23 0
203 25 0
203 27 0
203 29 0
203 31 0
203 33 0
203 35 0
203 37 0
203 39 0
203 41 0
203 43 0
203 45 0
203 47 0
203 49 0
203 51 0
203 53 0
203 55 0
203 57 0
203 59 0
203 61 0
203 63 0
203 65 0
203 67 0
203 69 0
203 71 0
203 73 0
203 75 0
203 77 0
203 79 0
203 81 0
203 83 0
203 85 0
203 87 0
203 89 0
203 91 0
203 93 0
203 95 0
203 97 0
203 99 0
203 101 0
203 103 0
203 105 0
203 107 0
203 109 0
203 111 0
203 113 0
203 115 0
203 117 0
203 119 0
203 121 0
203 123 0
203 125 0
203 127 0
203 129 0
203 131 0
203 133 0
203 135 0
203 137 0
203 139 0
203 141 0
203 143 0
203 145 0
203 147 0
203 149 0
203 151 0
203 153 0
203 155 0
203 157 0
203 159 0
203 161 0
203 163 0
203 165 0
203 167 0
203 169 0
203 171 0
203 173 0
203 175 0
203 177 0
203 179 0
203 181 0
203 183 0
203 185 0
203 187 0
203 189 0
203 191 0
203 193 0
203 195 0
203 197 0
203 199 0
203 201 0
203 203 0
203 205 0
203 207 0
203 209 0
203 211 0
203 213 0
203 215 0
203 217 0
203 219 0
203 221 0
203 223 0
203 225 0
203 227 0
203 229 0
203 231 0
203 233 0
203 235 0
203 237 0
203 239 0
203 241 0
203 243 0
203 245 0
203 247 0
203 249 0
203 251 0
203 253 0
205 0 0
205 1 0
205 3 0
205 5 0
205 7 0
205 9 0
205 11 0
205 13 0
205 15 0
205 17 0
205 19 0
205 21 0
205 23 0
205 25 0
205 27 0
205 29 0
205 31 0
205 33 0
205 35 0
205 37 0
205 39 0
205 41 0
205 43 0
205 45 0
205 47 0
205 49 0
205 51 0
205 53 0
205 55 0
205 57 0
205 59 0
205 61 0
205 63 0
205 65 0
205 67 0
205 69 0
205 71 0
205 73 0
205 75 0
205 77 0
205 79 0
205 81 0
205 83 0
205 85 0
205 87 0
205 89 0
205 91 0
205 93 0
205 95 0
205 97 0
205 99 0
205 101 0
205 103 0
205 105 0
205 107 0
205 109 0
205 111 0
205 113 0
205 115 0
205 117 0
205 119 0
205 121 0
205 123 0
205 125 0
205 127 0
205 129 0
205 131 0
205 133 0
205 135 0
205 137 0
205 139 0
205 141 0
205 143 0
205 145 0
205 147 0
205 149 0
205 151 0
205 153 0
205 155 0
205 157 0
205 159 0
205 161 0
205 163 0
205 165 0
205 167 0
205 169 0
205 171 0
205 173 0
205 175 0
205 177 0
205 179 0
205 181 0
205 183 0
205 185 0
205 187 0
205 189 0
205 191 0
205 193 0
205 195 0
205 197 0
205 199 0
205 201 0
205 203 0
205 205 0
205 207 0
205 209 0
205 211 0
205 213 0
205 215 0
205 217 0
205 219 0
205 221 0
205 223 0
205 225 0
205 227 0
205 229 0
205 231 0
205 233 0
205 235 0
205 237 0
205 239 0
205 241 0
205 243 0
205 245 0
205 247 0
205 249 0
205 251 0
205 253 0
207 0 0
207 1 0
207 3 0
207 5 0
207 7 0
207 9 0
207 11 0
207 13 0
207 15 0
207 17 0
207 19 0
207 21 0
207 23 0
207 25 0
207 27 0
207 29 0
207 31 0
207 33 0
207 35 0
207 37 0
207 39 0
207 41 0
207 43 0
207 45 0
207 47 0
207 49 0
207 51 0
207 53 0
207 55 0
207 57 0
207 59 0
207 61 0
207 63 0
207 65 0
207 67 0
207 69 0
207 71 0
207 73 0
207 75 0
207 77 0
207 79 0
207 81 0
207 83 0
207 85 0
207 87 0
207 89 0
207 91 0
207 93 0
207 95 0
207 97 0
207 99 0
207 101 0
207 103 0
207 105 0
207 107 0
207 109 0
207 111 0
207 113 0
207 115 0
207 117 0
207 119 0
207 121 0
207 123 0
207 125 0
207 127 0
207 129 0
207 131 0
207 133 0
207 135 0
207 137 0
207 139 0
207 141 0
207 143 0
207 145 0
207 147 0
207 149 0
207 151 0
207 153 0
207 155 0
207 157 0
207 159 0
207 161 0
207 163 0
207 165 0
207 167 0
207 169 0
207 171 0
207 173 0
207 175 0
207 177 0
207 179 0
207 181 0
207 183 0
207 185 0
207 187 0
207 189 0
207 191 0
207 193 0
207 195 0
207 197 0
207 199 0
207 201 0
207 203 0
207 205 0
207 207 0
207 209 0
207 211 0
207 213 0
207 215 0
207 217 0
207 219 0
207 221 0
207 223 0
207 225 0
207 227 0
207 229 0
207 231 0
207 233 0
207 235 0
207 237 0
207 239 0
207 241 0
207 243 0
207 245 0
207 247 0
207 249 0
207 251 0
207 253 0
209 0 0
209 1 0
209 3 0
209 5 0
209 7 0
209 9 0
209 11 0
209 13 0
209 15 0
209 17 0
209 19 0
209 21 0
209 23 0
209 25 0
209 27 0
209 29 0
209 31 0
209 33 0
209 35 0
209 37 0
209 39 0
209 41 0
209 43 0
209 45 0
209 47 0
209 49 0
209 51 0
209 53 0
209 55 0
209 57 0
209 59 0
209 61 0
209 63 0
209 65 0
209 67 0
209 69 0
209 71 0
209 73 0
209 75 0
209 77 0
209 79 0
209 81 0
209 83 0
209 85 0
209 87 0
209 89 0
209 91 0
209 93 0
209 95 0
209 97 0
209 99 0
209 101 0
209 103 0
209 105 0
209 107 0
209 109 0
209 111 0
209 113 0
209 115 0
209 117 0
209 119 0
209 121 0
209 123 0
209 125 0
209 127 0
209 129 0
209 131 0
209 133 0
209 135 0
209 137 0
209 139 0
209 141 0
209 143 0
209 145 0
209 147 0
209 149 0
209 151 0
209 153 0
209 155 0
209 157 0
209 159 0
209 161 0
209 163 0
209 165 0
209 167 0
209 169 0
209 171 0
209 173 0
209 175 0
209 177 0
209 179 0
209 181 0
209 183 0
209 185 0
209 187 0
209 189 0
209 191 0
209 193 0
209 195 0
209 197 0
209 199 0
209 201 0
209 203 0
209 205 0
209 207 0
209 209 0
209 211 0
209 213 0
209 215 0
209 217 0
209 219 0
209 221 0
209 223 0
209 225 0
209 227 0
209 229 0
209 231 0
209 233 0
209 235 0
209 237 0
209 239 0
209 241 0
209 243 0
209 245 0
209 247 0
209 249 0
209 251 0
209 253 0
211 0 0
211 1 0
211 3 0
211 5 0
211 7 0
211 9 0
211 11 0
211 13 0
211 15 0
211 17 0
211 19 0
211 21 0
211 23 0
211 25 0
211 27 0
211 29 0
211 31 0
211 33 0
211 35 0
211 37 0
211 39 0
211 41 0
211 43 0
211 45 0
211 47 0
211 49 0
211 51 0
211 53 0
211 55 0
211 57 0
211 59 0
211 61 0
211 63 0
211 65 0
211 67 0
211 69 0
211 71 0
211 73 0
211 75 0
211 77 0
211 79 0
211 81 0
211 83 0
211 85 0
211 87 0
211 89 0
211 91 0
211 93 0
211 95 0
211 97 0
211 99 0
211 101 0
211 103 0
211 105 0
211 107 0
211 109 0
211 111 0
211 113 0
211 115 0
211 117 0
211 119 0
211 121 0
211 123 0
211 125 0
211 127 0
211 129 0
211 131 0
211 133 0
211 135 0
211 137 0
211 139 0
211 141 0
211 143 0
211 145 0
211 147 0
211 149 0
211 151 0
211 153 0
211 155 0
211 157 0
211 159 0
211 161 0
211 163 0
211 165 0
211 167 0
211 169 0
211 171 0
211 173 0
211 175 0
211 177 0
211 179 0
211 181 0
211 183 0
211 185 0
211 187 0
211 189 0
211 191 0
211 193 0
211 195 0
211 197 0
211 199 0
211 201 0
211 203 0
211 205 0
211 207 0
211 209 0
211 211 0
211 213 0
211 215 0
211 217 0
211 219 0
211 221 0
211 223 0
211 225 0
211 227 0
211 229 0
211 231 0
211 233 0
211 235 0
211 237 0
211 239 0
211 241 0
211 243 0
211 245 0
211 247 0
211 249 0
211 251 0
211 253 0
213 0 0
213 1 0
213 3 0
213 5 0
213 7 0
213 9 0
213 11 0
213 13 0
213 15 0
213 17 0
213 19 0
213 21 0
213 23 0
213 25 0
213 27 0
213 29 0
213 31 0
213 33 0
213 35 0
213 37 0
213 39 0
213 41 0
213 43 0
213 45 0
213 47 0
213 49 0
213 51 0
213 53 0
213 55 0
213 57 0
213 59 0
213 61 0
213 63 0
213 65 0
213 67 0
213 69 0
213 71 0
213 73 0
213 75 0
213 77 0
213 79 0
213 81 0
213 83 0
213 85 0
213 87 0
213 89 0
213 91 0
213 93 0
213 95 0
213 97 0
213 99 0
213 101 0
213 103 0
213 105 0
213 107 0
213 109 0
213 111 0
213 113 0
213 115 0
213 117 0
213 119 0
213 121 0
213 123 0
213 125 0
213 127 0
213 129 0
213 131 0
213 133 0
213 135 0
213 137 0
213 139 0
213 141 0
213 143 0
213 145 0
213 147 0
213 149 0
213 151 0
213 153 0
213 155 0
213 157 0
213 159 0
213 161 0
213 163 0
213 165 0
213 167 0
213 169 0
213 171 0
213 173 0
213 175 0
213 177 0
213 179 0
213 181 0
213 183 0
213 185 0
213 187 0
213 189 0
213 191 0
213 193 0
213 195 0
213 197 0
213 199 0
213 201 0
213 203 0
213 205 0
213 207 0
213 209 0
213 211 0
213 213 0
213 215 0
213 217 0
213 219 0
213 221 0
213 223 0
213 225 0
213 227 0
213 229 0
213 231 0
213 233 0
213 235 0
213 237 0
213 239 0
213 241 0
213 243 0
213 245 0
213 247 0
213 249 0
213 251 0
213 253 0
215 0 0
215 1 0
215 3 0
215 5 0
215 7 0
215 9 0
215 11 0
215 13 0
215 15 0
215 17 0
215 19 0
215 21 0
215 23 0
215 25 0
215 27 0
215 29 0
215 31 0
215 33 0
215 35 0
215 37 0
215 39 0
215 41 0
215 43 0
215 45 0
215 47 0
215 49 0
215 51 0
215 53 0
215 55 0
215 57 0
215 59 0
215 61 0
215 63 0
215 65 0
215 67 0
215 69 0
215 71 0
215 73 0
215 75 0
215 77 0
215 79 0
215 81 0
215 83 0
215 85 0
215 87 0
215 89 0
215 91 0
215 93 0
215 95 0
215 97 0
215 99 0
215 101 0
215 103 0
215 105 0
215 107 0
215 109 0
215 111 0
215 113 0
215 115 0
215 117 0
215 119 0
215 121 0
215 123 0
215 125 0
215 127 0
215 129 0
215 131 0
215 133 0
215 135 0
215 137 0
215 139 0
215 141 0
215 143 0
215 145 0
215 147 0
215 149 0
215 151 0
215 153 0
215 155 0
215 157 0
215 159 0
215 161 0
215 163 0
215 165 0
215 167 0
215 169 0
215 171 0
215 173 0
215 175 0
215 177 0
215 179 0
215 181 0
215 183 0
215 185 0
215 187 0
215 189 0
215 191 0
215 193 0
215 195 0
215 197 0
215 199 0
215 201 0
215 203 0
215 205 0
215 207 0
215 209 0
215 211 0
215 213 0
215 215 0
215 217 0
215 219 0
215 221 0
215 223 0
215 225 0
215 227 0
215 229 0
215 231 0
215 233 0
215 235 0
215 237 0
215 239 0
215 241 0
215 243 0
215 245 0
215 247 0
215 249 0
215 251 0
215 253 0
217 0 0
217 1 0
217 3 0
217 5 0
217 7 0
217 9 0
217 11 0
217 13 0
217 15 0
217 17 0
217 19 0
217 21 0
217 23 0
217 25 0
217 27 0
217 29 0
217 31 0
217 33 0
217 35 0
217 37 0
217 39 0
217 41 0
217 43 0
217 45 0
217 47 0
217 49 0
217 51 0
217 53 0
217 55 0
217 57 0
217 59 0
217 61 0
217 63 0
217 65 0
217 67 0
217 69 0
217 71 0
217 73 0
217 75 0
217 77 0
217 79 0
217 81 0
217 83 0
217 85 0
217 87 0
217 89 0
217 91 0
217 93 0
217 95 0
217 97 0
217 99 0
217 101 0
217 103 0
217 105 0
217 107 0
217 109 0
217 111 0
217 113 0
217 115 0
217 117 0
217 119 0
217 121 0
217 123 0
217 125 0
217 127 0
217 129 0
217 131 0
217 133 0
217 135 0
217 137 0
217 139 0
217 141 0
217 143 0
217 145 0
217 147 0
217 149 0
217 151 0
217 153 0
217 155 0
217 157 0
217 159 0
217 161 0
217 163 0
217 165 0
217 167 0
217 169 0
217 171 0
217 173 0
217 175 0
217 177 0
217 179 0
217 181 0
217 183 0
217 185 0
217 187 0
217 189 0
217 191 0
217 193 0
217 195 0
217 197 0
217 199 0
217 201 0
217 203 0
217 205 0
217 207 0
217 209 0
217 211 0
217 213 0
217 215 0
217 217 0
217 219 0
217 221 0
217 223 0
217 225 0
217 227 0
217 229 0
217 231 0
217 233 0
217 235 0
217 237 0
217 239 0
217 241 0
217 243 0
217 245 0
217 247 0
217 249 0
217 251 0
217 253 0
219 0 0
219 1 0
219 3 0
219 5 0
219 7 0
219 9 0
219 11 0
219 13 0
219 15 0
219 17 0
219 19 0
219 21 0
219 23 0
219 25 0
219 27 0
219 29 0
219 31 0
219 33 0
219 35 0
219 37 0
219 39 0
219 41 0
219 43 0
219 45 0
219 47 0
219 49 0
219 51 0
219 53 0
219 55 0
219 57 0
219 59 0
219 61 0
219 63 0
219 65 0
219 67 0
219 69 0
219 71 0
219 73 0
219 75 0
219 77 0
219 79 0
219 81 0
219 83 0
219 85 0
219 87 0
219 89 0
219 91 0
219 93 0
219 95 0
219 97 0
219 99 0
219 101 0
219 103 0
219 105 0
219 107 0
219 109 0
219 111 0
219 113 0
219 115 0
219 117 0
219 119 0
219 121 0
219 123 0
219 125 0
219 127 0
219 129 0
219 131 0
219 133 0
219 135 0
219 137 0
219 139 0
219 141 0
219 143 0
219 145 0
219 147 0
219 149 0
219 151 0
219 153 0
219 155 0
219 157 0
219 159 0
219 161 0
219 163 0
219 165 0
219 167 0
219 169 0
219 171 0
219 173 0
219 175 0
219 177 0
219 179 0
219 181 0
219 183 0
219 185 0
219 187 0
219 189 0
219 191 0
219 193 0
219 195 0
219 197 0
219 199 0
219 201 0
219 203 0
219 205 0
219 207 0
219 209 0
219 211 0
219 213 0
219 215 0
219 217 0
219 219 0
219 221 0
219 223 0
219 225 0
219 227 0
219 229 0
219 231 0
219 233 0
219 235 0
219 237 0
219 239 0
219 241 0
219 243 0
219 245 0
219 247 0
219 249 0
219 251 0
219 253 0
221 0 0
221 1 0
221 3 0
221 5 0
221 7 0
221 9 0
221 11 0
221 13 0
221 15 0
221 17 0
221 19 0
221 21 0
221 23 0
221 25 0
221 27 0
221 29 0
221 31 0
221 33 0
221 35 0
221 37 0
221 39 0
221 41 0
221 43 0
221 45 0
221 47 0
221 49 0
221 51 0
221 53 0
221 55 0
221 57 0
221 59 0
221 61 0
221 63 0
221 65 0
221 67 0
221 69 0
221 71 0
221 73 0
221 75 0
221 77 0
221 79 0
221 81 0
221 83 0
221 85 0
221 87 0
221 89 0
221 91 0
221 93 0
221 95 0
221 97 0
221 99 0
221 101 0
221 103 0
221 105 0
221 107 0
221 109 0
221 111 0
221 113 0
221 115 0
221 117 0
221 119 0
221 121 0
221 123 0
221 125 0
221 127 0
221 129 0
221 131 0
221 133 0
221 135 0
221 137 0
221 139 0
221 141 0
221 143 0
221 145 0
221 147 0
221 149 0
221 151 0
221 153 0
221 155 0
221 157 0
221 159 0
221 161 0
221 163 0
221 165 0
221 167 0
221 169 0
221 171 0
221 173 0
221 175 0
221 177 0
221 179 0
221 181 0
221 183 0
221 185 0
221 187 0
221 189 0
221 191 0
221 193 0
221 195 0
221 197 0
221 199 0
221 201 0
221 203 0
221 205 0
221 207 0
221 209 0
221 211 0
221 213 0
221 215 0
221 217 0
221 219 0
221 221 0
221 223 0
221 225 0
221 227 0
221 229 0
221 231 0
221 233 0
221 235 0
221 237 0
221 239 0
221 241 0
221 243 0
221 245 0
221 247 0
221 249 0
221 251 0
221 253 0
223 0 0
223 1 0
223 3 0
223 5 0
223 7 0
223 9 0
223 11 0
223 13 0
223 15 0
223 17 0
223 19 0
223 21 0
223 23 0
223 25 0
223 27 0
223 29 0
223 31 0
223 33 0
223 35 0
223 37 0
223 39 0
223 41 0
223 43 0
223 45 0
223 47 0
223 49 0
223 51 0
223 53 0
223 55 0
223 57 0
223 59 0
223 61 0
223 63 0
223 65 0
223 67 0
223 69 0
223 71 0
223 73 0
223 75 0
223 77 0
223 79 0
223 81 0
223 83 0
223 85 0
223 87 0
223 89 0
223 91 0
223 93 0
223 95 0
223 97 0
223 99 0
223 101 0
223 103 0
223 105 0
223 107 0
223 109 0
223 111 0
223 113 0
223 115 0
223 117 0
223 119 0
223 121 0
223 123 0
223 125 0
223 127 0
223 129 0
223 131 0
223 133 0
223 135 0
223 137 0
223 139 0
223 141 0
223 143 0
223 145 0
223 147 0
223 149 0
223 151 0
223 153 0
223 155 0
223 157 0
223 159 0
223 161 0
223 163 0
223 165 0
223 167 0
223 169 0
223 171 0
223 173 0
223 175 0
223 177 0
223 179 0
223 181 0
223 183 0
223 185 0
223 187 0
223 189 0
223 191 0
223 193 0
223 195 0
223 197 0
223 199 0
223 201 0
223 203 0
223 205 0
223 207 0
223 209 0
223 211 0
223 213 0
223 215 0
223 217 0
223 219 0
223 221 0
223 223 0
223 225 0
223 227 0
223 229 0
223 231 0
223 233 0
223 235 0
223 237 0
223 239 0
223 241 0
223 243 0
223 245 0
223 247 0
223 249 0
223 251 0
223 253 0
225 0 0
225 1 0
225 3 0
225 5 0
225 7 0
225 9 0
225 11 0
225 13 0
225 15 0
225 17 0
225 19 0
225 21 0
225 23 0
225 25 0
225 27 0
225 29 0
225 31 0
225 33 0
225 35 0
225 37 0
225 39 0
225 41 0
225 43 0
225 45 0
225 47 0
225 49 0
225 51 0
225 53 0
225 55 0
225 57 0
225 59 0
225 61 0
225 63 0
225 65 0
225 67 0
225 69 0
225 71 0
225 73 0
225 75 0
225 77 0
225 79 0
225 81 0
225 83 0
225 85 0
225 87 0
225 89 0
225 91 0
225 93 0
225 95 0
225 97 0
225 99 0
225 101 0
225 103 0
225 105 0
225 107 0
225 109 0
225 111 0
225 113 0
225 115 0
225 117 0
225 119 0
225 121 0
225 123 0
225 125 0
225 127 0
225 129 0
225 131 0
225 133 0
225 135 0
225 137 0
225 139 0
225 141 0
225 143 0
225 145 0
225 147 0
225 149 0
225 151 0
225 153 0
225 155 0
225 157 0
225 159 0
225 161 0
225 163 0
225 165 0
225 167 0
225 169 0
225 171 0
225 173 0
225 175 0
225 177 0
225 179 0
225 181 0
225 183 0
225 185 0
225 187 0
225 189 0
225 191 0
225 193 0
225 195 0
225 197 0
225 199 0
225 201 0
225 203 0
225 205 0
225 207 0
225 209 0
225 211 0
225 213 0
225 215 0
225 217 0
225 219 0
225 221 0
225 223 0
225 225 0
225 227 0
225 229 0
225 231 0
225 233 0
225 235 0
225 237 0
225 239 0
225 241 0
225 243 0
225 245 0
225 247 0
225 249 0
225 251 0
225 253 0
227 0 0
227 1 0
227 3 0
227 5 0
227 7 0
227 9 0
227 11 0
227 13 0
227 15 0
227 17 0
227 19 0
227 21 0
227 23 0
227 25 0
227 27 0
227 29 0
227 31 0
227 33 0
227 35 0
227 37 0
227 39 0
227 41 0
227 43 0
227 45 0
227 47 0
227 49 0
227 51 0
227 53 0
227 55 0
227 57 0
227 59 0
227 61 0
227 63 0
227 65 0
227 67 0
227 69 0
227 71 0
227 73 0
227 75 0
227 77 0
227 79 0
227 81 0
227 83 0
227 85 0
227 87 0
227 89 0
227 91 0
227 93 0
227 95 0
227 97 0
227 99 0
227 101 0
227 103 0
227 105 0
227 107 0
227 109 0
227 111 0
227 113 0
227 115 0
227 117 0
227 119 0
227 121 0
227 123 0
227 125 0
227 127 0
227 129 0
227 131 0
227 133 0
227 135 0
227 137 0
227 139 0
227 141 0
227 143 0
227 145 0
227 147 0
227 149 0
227 151 0
227 153 0
227 155 0
227 157 0
227 159 0
227 161 0
227 163 0
227 165 0
227 167 0
227 169 0
227 171 0
227 173 0
227 175 0
227 177 0
227 179 0
227 181 0
227 183 0
227 185 0
227 187 0
227 189 0
227 191 0
227 193 0
227 195 0
227 197 0
227 199 0
227 201 0
227 203 0
227 205 0
227 207 0
227 209 0
227 211 0
227 213 0
227 215 0
227 217 0
227 219 0
227 221 0
227 223 0
227 225 0
227 227 0
227 229 0
227 231 0
227 233 0
227 235 0
227 237 0
227 239 0
227 241 0
227 243 0
227 245 0
227 247 0
227 249 0
227 251 0
227 253 0
229 0 0
229 1 0
229 3 0
229 5 0
229 7 0
229 9 0
229 11 0
229 13 0
229 15 0
229 17 0
229 19 0
229 21 0
229 23 0
229 25 0
229 27 0
229 29 0
229 31 0
229 33 0
229 35 0
229 37 0
229 39 0
229 41 0
229 43 0
229 45 0
229 47 0
229 49 0
229 51 0
229 53 0
229 55 0
229 57 0
229 59 0
229 61 0
229 63 0
229 65 0
229 67 0
229 69 0
229 71 0
229 73 0
229 75 0
229 77 0
229 79 0
229 81 0
229 83 0
229 85 0
229 87 0
229 89 0
229 91 0
229 93 0
229 95 0
229 97 0
229 99 0
229 101 0
229 103 0
229 105 0
229 107 0
229 109 0
229 111 0
229 113 0
229 115 0
229 117 0
229 119 0
229 121 0
229 123 0
229 125 0
229 127 0
229 129 0
229 131 0
229 133 0
229 135 0
229 137 0
229 139 0
229 141 0
229 143 0
229 145 0
229 147 0
229 149 0
229 151 0
229 153 0
229 155 0
229 157 0
229 159 0
229 161 0
229 163 0
229 165 0
229 167 0
229 169 0
229 171 0
229 173 0
229 175 0
229 177 0
229 179 0
229 181 0
229 183 0
229 185 0
229 187 0
229 189 0
229 191 0
229 193 0
229 195 0
229 197 0
229 199 0
229 201 0
229 203 0
229 205 0
229 207 0
229 209 0
229 211 0
229 213 0
229 215 0
229 217 0
229 219 0
229 221 0
229 223 0
229 225 0
229 227 0
229 229 0
229 231 0
229 233 0
229 235 0
229 237 0
229 239 0
229 241 0
229 243 0
229 245 0
229 247 0
229 249 0
229 251 0
229 253 0
231 0 0
231 1 0
231 3 0
231 5 0
231 7 0
231 9 0
231 11 0
231 13 0
231 15 0
231 17 0
231 19 0
231 21 0
231 23 0
231 25 0
231 27 0
231 29 0
231 31 0
231 33 0
231 35 0
231 37 0
231 39 0
231 41 0
231 43 0
231 45 0
231 47 0
231 49 0
231 51 0
231 53 0
231 55 0
231 57 0
231 59 0
231 61 0
231 63 0
231 65 0
231 67 0
231 69 0
231 71 0
231 73 0
231 75 0
231 77 0
231 79 0
231 81 0
231 83 0
231 85 0
231 87 0
231 89 0
231 91 0
231 93 0
231 95 0
231 97 0
231 99 0
231 101 0
231 103 0
231 105 0
231 107 0
231 109 0
231 111 0
231 113 0
231 115 0
231 117 0
231 119 0
231 121 0
231 123 0
231 125 0
231 127 0
231 129 0
231 131 0
231 133 0
231 135 0
231 137 0
231 139 0
231 141 0
231 143 0
231 145 0
231 147 0
231 149 0
231 151 0
231 153 0
231 155 0
231 157 0
231 159 0
231 161 0
231 163 0
231 165 0
231 167 0
231 169 0
231 171 0
231 173 0
231 175 0
231 177 0
231 179 0
231 181 0
231 183 0
231 185 0
231 187 0
231 189 0
231 191 0
231 193 0
231 195 0
231 197 0
231 199 0
231 201 0
231 203 0
231 205 0
231 207 0
231 209 0
231 211 0
231 213 0
231 215 0
231 217 0
231 219 0
231 221 0
231 223 0
231 225 0
231 227 0
231 229 0
231 231 0
231 233 0
231 235 0
231 237 0
231 239 0
231 241 0
231 243 0
231 245 0
231 247 0
231 249 0
231 251 0
231 253 0
233 0 0
233 1 0
233 3 0
233 5 0
233 7 0
233 9 0
233 11 0
233 13 0
233 15 0
233 17 0
233 19 0
233 21 0
233 23 0
233 25 0
233 27 0
233 29 0
233 31 0
233 33 0
233 35 0
233 37 0
233 39 0
233 41 0
233 43 0
233 45 0
233 47 0
233 49 0
233 51 0
233 53 0
233 55 0
233 57 0
233 59 0
233 61 0
233 63 0
233 65 0
233 67 0
233 69 0
233 71 0
233 73 0
233 75 0
233 77 0
233 79 0
233 81 0
233 83 0
233 85 0
233 87 0
233 89 0
233 91 0
233 93 0
233 95 0
233 97 0
233 99 0
233 101 0
233 103 0
233 105 0
233 107 0
233 109 0
233 111 0
233 113 0
233 115 0
233 117 0
233 119 0
233 121 0
233 123 0
233 125 0
233 127 0
233 129 0
233 131 0
233 133 0
233 135 0
233 137 0
233 139 0
233 141 0
233 143 0
233 145 0
233 147 0
233 149 0
233 151 0
233 153 0
233 155 0
233 157 0
233 159 0
233 161 0
233 163 0
233 165 0
233 167 0
233 169 0
233 171 0
233 173 0
233 175 0
233 177 0
233 179 0
233 181 0
233 183 0
233 185 0
233 187 0
233 189 0
233 191 0
233 193 0
233 195 0
233 197 0
233 199 0
233 201 0
233 203 0
233 205 0
233 207 0
233 209 0
233 211 0
233 213 0
233 215 0
233 217 0
233 219 0
233 221 0
233 223 0
233 225 0
233 227 0
233 229 0
233 231 0
233 233 0
233 235 0
233 237 0
233 239 0
233 241 0
233 243 0
233 245 0
233 247 0
233 249 0
233 251 0
233 253 0
235 0 0
235 1 0
235 3 0
235 5 0
235 7 0
235 9 0
235 11 0
235 13 0
235 15 0
235 17 0
235 19 0
235 21 0
235 23 0
235 25 0
235 27 0
235 29 0
235 31 0
235 33 0
235 35 0
235 37 0
235 39 0
235 41 0
235 43 0
235 45 0
235 47 0
235 49 0
235 51 0
235 53 0
235 55 0
235 57 0
235 59 0
235 61 0
235 63 0
235 65 0
235 67 0
235 69 0
235 71 0
235 73 0
235 75 0
235 77 0
235 79 0
235 81 0
235 83 0
235 85 0
235 87 0
235 89 0
235 91 0
235 93 0
235 95 0
235 97 0
235 99 0
235 101 0
235 103 0
235 105 0
235 107 0
235 109 0
235 111 0
235 113 0
235 115 0
235 117 0
235 119 0
235 121 0
235 123 0
235 125 0
235 127 0
235 129 0
235 131 0
235 133 0
235 135 0
235 137 0
235 139 0
235 141 0
235 143 0
235 145 0
235 147 0
235 149 0
235 151 0
235 153 0
235 155 0
235 157 0
235 159 0
235 161 0
235 163 0
235 165 0
235 167 0
235 169 0
235 171 0
235 173 0
235 175 0
235 177 0
235 179 0
235 181 0
235 183 0
235 185 0
235 187 0
235 189 0
235 191 0
235 193 0
235 195 0
235 197 0
235 199 0
235 201 0
235 203 0
235 205 0
235 207 0
235 209 0
235 211 0
235 213 0
235 215 0
235 217 0
235 219 0
235 221 0
235 223 0
235 225 0
235 227 0
235 229 0
235 231 0
235 233 0
235 235 0
235 237 0
235 239 0
235 241 0
235 243 0
235 245 0
235 247 0
235 249 0
235 251 0
235 253 0
237 0 0
237 1 0
237 3 0
237 5 0
237 7 0
237 9 0
237 11 0
237 13 0
237 15 0
237 17 0
237 19 0
237 21 0
237 23 0
237 25 0
237 27 0
237 29 0
237 31 0
237 33 0
237 35 0
237 37 0
237 39 0
237 41 0
237 43 0
237 45 0
237 47 0
237 49 0
237 51 0
237 53 0
237 55 0
237 57 0
237 59 0
237 61 0
237 63 0
237 65 0
237 67 0
237 69 0
237 71 0
237 73 0
237 75 0
237 77 0
237 79 0
237 81 0
237 83 0
237 85 0
237 87 0
237 89 0
237 91 0
237 93 0
237 95 0
237 97 0
237 99 0
237 101 0
237 103 0
237 105 0
237 107 0
237 109 0
237 111 0
237 113 0
237 115 0
237 117 0
237 119 0
237 121 0
237 123 0
237 125 0
237 127 0
237 129 0
237 131 0
237 133 0
237 135 0
237 137 0
237 139 0
237 141 0
237 143 0
237 145 0
237 147 0
237 149 0
237 151 0
237 153 0
237 155 0
237 157 0
237 159 0
237 161 0
237 163 0
237 165 0
237 167 0
237 169 0
237 171 0
237 173 0
237 175 0
237 177 0
237 179 0
237 181 0
237 183 0
237 185 0
237 187 0
237 189 0
237 191 0
237 193 0
237 195 0
237 197 0
237 199 0
237 201 0
237 203 0
237 205 0
237 207 0
237 209 0
237 211 0
237 213 0
237 215 0
237 217 0
237 219 0
237 221 0
237 223 0
237 225 0
237 227 0
237 229 0
237 231 0
237 233 0
237 235 0
237 237 0
237 239 0
237 241 0
237 243 0
237 245 0
237 247 0
237 249 0
237 251 0
237 253 0
239 0 0
239 1 0
239 3 0
239 5 0
239 7 0
239 9 0
239 11 0
239 13 0
239 15 0
239 17 0
239 19 0
239 21 0
239 23 0
239 25 0
239 27 0
239 29 0
239 31 0
239 33 0
239 35 0
239 37 0
239 39 0
239 41 0
239 43 0
239 45 0
239 47 0
239 49 0
239 51 0
239 53 0
239 55 0
239 57 0
239 59 0
239 61 0
239 63 0
239 65 0
239 67 0
239 69 0
239 71 0
239 73 0
239 75 0
239 77 0
239 79 0
239 81 0
239 83 0
239 85 0
239 87 0
239 89 0
239 91 0
239 93 0
239 95 0
239 97 0
239 99 0
239 101 0
239 103 0
239 105 0
239 107 0
239 109 0
239 111 0
239 113 0
239 115 0
239 117 0
239 119 0
239 121 0
239 123 0
239 125 0
239 127 0
239 129 0
239 131 0
239 133 0
239 135 0
239 137 0
239 139 0
239 141 0
239 143 0
239 145 0
239 147 0
239 149 0
239 151 0
239 153 0
239 155 0
239 157 0
239 159 0
239 161 0
239 163 0
239 165 0
239 167 0
239 169 0
239 171 0
239 173 0
239 175 0
239 177 0
239 179 0
239 181 0
239 183 0
239 185 0
239 187 0
239 189 0
239 191 0
239 193 0
239 195 0
239 197 0
239 199 0
239 201 0
239 203 0
239 205 0
239 207 0
239 209 0
239 211 0
239 213 0
239 215 0
239 217 0
239 219 0
239 221 0
239 223 0
239 225 0
239 227 0
239 229 0
239 231 0
239 233 0
239 235 0
239 237 0
239 239 0
239 241 0
239 243 0
239 245 0
239 247 0
239 249 0
239 251 0
239 253 0
241 0 0
241 1 0
241 3 0
241 5 0
241 7 0
241 9 0
241 11 0
241 13 0
241 15 0
241 17 0
241 19 0
241 21 0
241 23 0
241 25 0
241 27 0
241 29 0
241 31 0
241 33 0
241 35 0
241 37 0
241 39 0
241 41 0
241 43 0
241 45 0
241 47 0
241 49 0
241 51 0
241 53 0
241 55 0
241 57 0
241 59 0
241 61 0
241 63 0
241 65 0
241 67 0
241 69 0
241 71 0
241 73 0
241 75 0
241 77 0
241 79 0
241 81 0
241 83 0
241 85 0
241 87 0
241 89 0
241 91 0
241 93 0
241 95 0
241 97 0
241 99 0
241 101 0
241 103 0
241 105 0
241 107 0
241 109 0
241 111 0
241 113 0
241 115 0
241 117 0
241 119 0
241 121 0
241 123 0
241 125 0
241 127 0
241 129 0
241 131 0
241 133 0
241 135 0
241 137 0
241 139 0
241 141 0
241 143 0
241 145 0
241 147 0
241 149 0
241 151 0
241 153 0
241 155 0
241 157 0
241 159 0
241 161 0
241 163 0
241 165 0
241 167 0
241 169 0
241 171 0
241 173 0
241 175 0
241 177 0
241 179 0
241 181 0
241 183 0
241 185 0
241 187 0
241 189 0
241 191 0
241 193 0
241 195 0
241 197 0
241 199 0
241 201 0
241 203 0
241 205 0
241 207 0
241 209 0
241 211 0
241 213 0
241 215 0
241 217 0
241 219 0
241 221 0
241 223 0
241 225 0
241 227 0
241 229 0
241 231 0
241 233 0
241 235 0
241 237 0
241 239 0
241 241 0
241 243 0
241 245 0
241 247 0
241 249 0
241 251 0
241 253 0
243 0 0
243 1 0
243 3 0
243 5 0
243 7 0
243 9 0
243 11 0
243 13 0
243 15 0
243 17 0
243 19 0
243 21 0
243 23 0
243 25 0
243 27 0
243 29 0
243 31 0
243 33 0
243 35 0
243 37 0
243 39 0
243 41 0
243 43 0
243 45 0
243 47 0
243 49 0
243 51 0
243 53 0
243 55 0
243 57 0
243 59 0
243 61 0
243 63 0
243 65 0
243 67 0
243 69 0
243 71 0
243 73 0
243 75 0
243 77 0
243 79 0
243 81 0
243 83 0
243 85 0
243 87 0
243 89 0
243 91 0
243 93 0
243 95 0
243 97 0
243 99 0
243 101 0
243 103 0
243 105 0
243 107 0
243 109 0
243 111 0
243 113 0
243 115 0
243 117 0
243 119 0
243 121 0
243 123 0
243 125 0
243 127 0
243 129 0
243 131 0
243 133 0
243 135 0
243 137 0
243 139 0
243 141 0
243 143 0
243 145 0
243 147 0
243 149 0
243 151 0
243 153 0
243 155 0
243 157 0
243 159 0
243 161 0
243 163 0
243 165 0
243 167 0
243 169 0
243 171 0
243 173 0
243 175 0
243 177 0
243 179 0
243 181 0
243 183 0
243 185 0
243 187 0
243 189 0
243 191 0
243 193 0
243 195 0
243 197 0
243 199 0
243 201 0
243 203 0
243 205 0
243 207 0
243 209 0
243 211 0
243 213 0
243 215 0
243 217 0
243 219 0
243 221 0
243 223 0
243 225 0
243 227 0
243 229 0
243 231 0
243 233 0
243 235 0
243 237 0
243 239 0
243 241 0
243 243 0
243 245 0
243 247 0
243 249 0
243 251 0
243 253 0
245 0 0
245 1 0
245 3 0
245 5 0
245 7 0
245 9 0
245 11 0
245 13 0
245 15 0
245 17 0
245 19 0
245 21 0
245 23 0
245 25 0
245 27 0
245 29 0
245 31 0
245 33 0
245 35 0
245 37 0
245 39 0
245 41 0
245 43 0
245 45 0
245 47 0
245 49 0
245 51 0
245 53 0
245 55 0
245 57 0
245 59 0
245 61 0
245 63 0
245 65 0
245 67 0
245 69 0
245 71 0
245 73 0
245 75 0
245 77 0
245 79 0
245 81 0
245 83 0
245 85 0
245 87 0
245 89 0
245 91 0
245 93 0
245 95 0
245 97 0
245 99 0
245 101 0
245 103 0
245 105 0
245 107 0
245 109 0
245 111 0
245 113 0
245 115 0
245 117 0
245 119 0
245 121 0
245 123 0
245 125 0
245 127 0
245 129 0
245 131 0
245 133 0
245 135 0
245 137 0
245 139 0
245 141 0
245 143 0
245 145 0
245 147 0
245 149 0
245 151 0
245 153 0
245 155 0
245 157 0
245 159 0
245 161 0
245 163 0
245 165 0
245 167 0
245 169 0
245 171 0
245 173 0
245 175 0
245 177 0
245 179 0
245 181 0
245 183 0
245 185 0
245 187 0
245 189 0
245 191 0
245 193 0
245 195 0
245 197 0
245 199 0
245 201 0
245 203 0
245 205 0
245 207 0
245 209 0
245 211 0
245 213 0
245 215 0
245 217 0
245 219 0
245 221 0
245 223 0
245 225 0
245 227 0
245 229 0
245 231 0
245 233 0
245 235 0
245 237 0
245 239 0
245 241 0
245 243 0
245 245 0
245 247 0
245 249 0
245 251 0
245 253 0
247 0 0
247 1 0
247 3 0
247 5 0
247 7 0
247 9 0
247 11 0
247 13 0
247 15 0
247 17 0
247 19 0
247 21 0
247 23 0
247 25 0
247 27 0
247 29 0
247 31 0
247 33 0
247 35 0
247 37 0
247 39 0
247 41 0
247 43 0
247 45 0
247 47 0
247 49 0
247 51 0
247 53 0
247 55 0
247 57 0
247 59 0
247 61 0
247 63 0
247 65 0
247 67 0
247 69 0
247 71 0
247 73 0
247 75 0
247 77 0
247 79 0
247 81 0
247 83 0
247 85 0
247 87 0
247 89 0
247 91 0
247 93 0
247 95 0
247 97 0
247 99 0
247 101 0
247 103 0
247 105 0
247 107 0
247 109 0
247 111 0
247 113 0
247 115 0
247 117 0
247 119 0
247 121 0
247 123 0
247 125 0
247 127 0
247 129 0
247 131 0
247 133 0
247 135 0
247 137 0
247 139 0
247 141 0
247 143 0
247 145 0
247 147 0
247 149 0
247 151 0
247 153 0
247 155 0
247 157 0
247 159 0
247 161 0
247 163 0
247 165 0
247 167 0
247 169 0
247 171 0
247 173 0
247 175 0
247 177 0
247 179 0
247 181 0
247 183 0
247 185 0
247 187 0
247 189 0
247 191 0
247 193 0
247 195 0
247 197 0
247 199 0
247 201 0
247 203 0
247 205 0
247 207 0
247 209 0
247 211 0
247 213 0
247 215 0
247 217 0
247 219 0
247 221 0
247 223 0
247 225 0
247 227 0
247 229 0
247 231 0
247 233 0
247 235 0
247 237 0
247 239 0
247 241 0
247 243 0
247 245 0
247 247 0
247 249 0
247 251 0
247 253 0
249 0 0
249 1 0
249 3 0
249 5 0
249 7 0
249 9 0
249 11 0
249 13 0
249 15 0
249 17 0
249 19 0
249 21 0
249 23 0
249 25 0
249 27 0
249 29 0
249 31 0
249 33 0
249 35 0
249 37 0
249 39 0
249 41 0
249 43 0
249 45 0
249 47 0
249 49 0
249 51 0
249 53 0
249 55 0
249 57 0
249 59 0
249 61 0
249 63 0
249 65 0
249 67 0
249 69 0
249 71 0
249 73 0
249 75 0
249 77 0
249 79 0
249 81 0
249 83 0
249 85 0
249 87 0
249 89 0
249 91 0
249 93 0
249 95 0
249 97 0
249 99 0
249 101 0
249 103 0
249 105 0
249 107 0
249 109 0
249 111 0
249 113 0
249 115 0
249 117 0
249 119 0
249 121 0
249 123 0
249 125 0
249 127 0
249 129 0
249 131 0
249 133 0
249 135 0
249 137 0
249 139 0
249 141 0
249 143 0
249 145 0
249 147 0
249 149 0
249 151 0
249 153 0
249 155 0
249 157 0
249 159 0
249 161 0
249 163 0
249 165 0
249 167 0
249 169 0
249 171 0
249 173 0
249 175 0
249 177 0
249 179 0
249 181 0
249 183 0
249 185 0
249 187 0
249 189 0
249 191 0
249 193 0
249 195 0
249 197 0
249 199 0
249 201 0
249 203 0
249 205 0
249 207 0
249 209 0
249 211 0
249 213 0
249 215 0
249 217 0
249 219 0
249 221 0
249 223 0
249 225 0
249 227 0
249 229 0
249 231 0
249 233 0
249 235 0
249 237 0
249 239 0
249 241 0
249 243 0
249 245 0
249 247 0
249 249 0
249 251 0
249 253 0
251 0 0
251 1 0
251 3 0
251 5 0
251 7 0
251 9 0
251 11 0
251 13 0
251 15 0
251 17 0
251 19 0
251 21 0
251 23 0
251 25 0
251 27 0
251 29 0
251 31 0
251 33 0
251 35 0
251 37 0
251 39 0
251 41 0
251 43 0
251 45 0
251 47 0
251 49 0
251 51 0
251 53 0
251 55 0
251 57 0
251 59 0
251 61 0
251 63 0
251 65 0
251 67 0
251 69 0
251 71 0
251 73 0
251 75 0
251 77 0
251 79 0
251 81 0
251 83 0
251 85 0
251 87 0
251 89 0
251 91 0
251 93 0
251 95 0
251 97 0
251 99 0
251 101 0
251 103 0
251 105 0
251 107 0
251 109 0
251 111 0
251 113 0
251 115 0
251 117 0
251 119 0
251 121 0
251 123 0
251 125 0
251 127 0
251 129 0
251 131 0
251 133 0
251 135 0
251 137 0
251 139 0
251 141 0
251 143 0
251 145 0
251 147 0
251 149 0
251 151 0
251 153 0
251 155 0
251 157 0
251 159 0
251 161 0
251 163 0
251 165 0
251 167 0
251 169 0
251 171 0
251 173 0
251 175 0
251 177 0
251 179 0
251 181 0
251 183 0
251 185 0
251 187 0
251 189 0
251 191 0
251 193 0
251 195 0
251 197 0
251 199 0
251 201 0
251 203 0
251 205 0
251 207 0
251 209 0
251 211 0
251 213 0
251 215 0
251 217 0
251 219 0
251 221 0
251 223 0
251 225 0
251 227 0
251 229 0
251 231 0
251 233 0
251 235 0
251 237 0
251 239 0
251 241 0
251 243 0
251 245 0
251 247 0
251 249 0
251 251 0
251 253 0
253 0 0
253 1 0
253 3 0
253 5 0
253 7 0
253 9 0
253 11 0
253 13 0
253 15 0
253 17 0
253 19 0
253 21 0
253 23 0
253 25 0
253 27 0
253 29 0
253 31 0
253 33 0
253 35 0
253 37 0
253 39 0
253 41 0
253 43 0
253 45 0
253 47 0
253 49 0
253 51 0
253 53 0
253 55 0
253 57 0
253 59 0
253 61 0
253 63 0
253 65 0
253 67 0
253 69 0
253 71 0
253 73 0
253 75 0
253 77 0
253 79 0
253 81 0
253 83 0
253 85 0
253 87 0
253 89 0
253 91 0
253 93 0
253 95 0
253 97 0
253 99 0
253 101 0
253 103 0
253 105 0
253 107 0
253 109 0
253 111 0
253 113 0
253 115 0
253 117 0
253 119 0
253 121 0
253 123 0
253 125 0
253 127 0
253 129 0
253 131 0
253 133 0
253 135 0
253 137 0
253 139 0
253 141 0
253 143 0
253 145 0
253 147 0
253 149 0
253 151 0
253 153 0
253 155 0
253 157 0
253 159 0
253 161 0
253 163 0
253 165 0
253 167 0
253 169 0
253 171 0
253 173 0
253 175 0
253 177 0
253 179 0
253 181 0
253 183 0
253 185 0
253 187 0
253 189 0
253 191 0
253 193 0
253 195 0
253 197 0
253 199 0
253 201 0
253 203 0
253 205 0
253 207 0
253 209 0
253 211 0
253 213 0
253 215 0
253 217 0
253 219 0
253 221 0
253 223 0
253 225 0
253 227 0
253 229 0
253 231 0
253 233 0
253 235 0
253 237 0
253 239 0
253 241 0
253 243 0
253 245 0
253 247 0
253 249 0
253 251 0
253 253 0
